; generated by PrusaSlicer 2.4.0+win64 on 2022-02-05 at 17:18:27 UTC

; 

; external perimeters extrusion width = 0.61mm
; perimeters extrusion width = 0.65mm
; infill extrusion width = 0.70mm
; solid infill extrusion width = 0.65mm
; top infill extrusion width = 0.60mm
; support material extrusion width = 0.60mm
; first layer extrusion width = 0.65mm

M107
;TYPE:Custom
; **** Start of Start GCode: FlashForge Creator 3 ****
M118 X150.00 Y125.00 Z200.00 T0 T1
; todo: need to post process Active extruders in m118

G90 ; absolute positioning
M108 T0 ; tool change
G1 X187 Y0.000 F10800 ; Move initial extruder over anti-ooze plate (9-point Bed Levelling sometimes leaves it off plate)

; Set Filament Z-Offset
G1 Z0.000 F720 ;
;FFPP-UNCOMMENT; G92 Z-<FFPP-filament_extra_z_offset> ; Value substituted by FFPP script (FFPP-filament_extra_z_offset)(negative is printing higher in air)

M140 S75 T0 ; set bed temperature
M104 S230 T0 ; set right extruder temp
M104 S215 T1 ; set left extruder temp

M7 T0 ; wait for platform
M6 T0 ; wait for temp
M6 T1 ; wait for temp

M106 ; Extruder/Heat Break fan on
M651 S255 ; chassis fan on (after heating reached to speed up heating)

; Purge Filament (gets rid of any curling filament too)
G1 X172 F10800 ; Move initial extruder off anti-ooze plate
G92 E0 ; reset extrusion distance 
G1 F150 E20 ; feed 20mm of feed stock 
G92 E0 ; reset extrusion distance


; M652 ; chassis fan off 
; M109 T1/2 only if dupe or mirror

;layer_count: <FFPP-calculated-total_layer_count> ; Value substituted by FFPP script (FFPP-calculated-total_layer_count)
; **** End of Start GCode: FlashForge Creator 3 ****
G21 ; set units to millimeters
G90 ; use absolute coordinates
M82 ; use absolute distances for extrusion
G92 E0
; **** Start of Tool Change GCode: FlashForge Creator 3 ****
M108 T0
; **** End of Tool Change GCode: FlashForge Creator 3 ****
T0
G92 E0
; **** Start of Filament-Specific Start GCode: eSun PETG - Blue (Hardened 0.6mm) ****
; FFPP-filament_extra_z_offset: 0.06 ; Value parsed by FFPP script
; **** End of Filament-Specific Start GCode: eSun PETG - Blue (Hardened 0.6mm) ****
M107
;LAYER_CHANGE
;Z:0.2
;HEIGHT:0.2
; **** Start of Before Layer Change GCode: FlashForge Creator 3 ****
; FFPP-layer_z_height: 0.2 ; Value parsed by FFPP script
;layer:<FFPP-calculated-next_layer_height> ; Value substituted by FFPP script (FFPP-calculated-next_layer_height)
; **** End of Before Layer Change GCode: FlashForge Creator 3 ****
G1 Z.2 F720
; **** Start of After Layer Change GCode: FlashForge Creator 3 ****
; **** End of After Layer Change GCode: FlashForge Creator 3 ****
G1 E-4 F1500
G92 E0
G1 X1.585 Y-23.117 F10800
G1 E4 F1500
M204 S800
;TYPE:Skirt/Brim
;WIDTH:0.65
G1 F1200
G1 X30.905 Y-21.106 E5.48351
G1 X32.122 Y-20.774 E5.54721
G1 X37.237 Y-18.217 E5.83584
G1 X38.184 Y-17.498 E5.89587
G1 X40.495 Y-14.941 E6.06987
G1 X40.969 Y-14.255 E6.11198
G1 X43.598 Y-9.14 E6.40223
G1 X43.953 Y-7.671 E6.47853
G1 X43.953 Y7.671 E7.25301
G1 X43.598 Y9.14 E7.32931
G1 X40.969 Y14.255 E7.61956
G1 X40.352 Y15.089 E7.67197
G1 X37.724 Y17.646 E7.85707
G1 X36.994 Y18.179 E7.90266
G1 X32.197 Y20.736 E8.17708
G1 X30.905 Y21.106 E8.24492
G1 X-12.169 Y24.06 E10.42436
G1 X-33.638 Y24.067 E11.5081
G1 X-35.076 Y23.728 E11.58265
G1 X-40.19 Y21.171 E11.87128
G1 X-41.025 Y20.569 E11.92326
G1 X-43.582 Y18.012 E12.1058
G1 X-44.184 Y17.176 E12.15778
G1 X-46.742 Y12.062 E12.44641
G1 X-47.081 Y10.625 E12.52096
G1 X-47.081 Y-10.625 E13.59361
G1 X-46.742 Y-12.062 E13.66816
G1 X-44.184 Y-17.176 E13.95679
G1 X-43.582 Y-18.012 E14.00877
G1 X-41.025 Y-20.569 E14.19131
G1 X-40.19 Y-21.171 E14.24329
G1 X-35.076 Y-23.728 E14.53192
G1 X-33.638 Y-24.067 E14.60647
G1 X-12.169 Y-24.06 E15.69021
G1 X1.495 Y-23.123 E16.3816
M204 S1000
; printing object Merged id:0 copy 0
G1 E12.3816 F1500
G92 E0
G1 X-12.389 Y-18.296 F10800
G1 E4 F1500
M204 S800
;TYPE:Support material
G1 F1200
G1 X-7.275 Y-18.296 E4.25816
G1 X-7.275 Y-15.739 E4.38724
G1 X-4.718 Y-15.739 E4.51631
G1 X-4.718 Y-10.625 E4.77447
G1 X-2.161 Y-10.625 E4.90355
G1 X-2.161 Y10.625 E5.97619
G1 X-4.718 Y10.625 E6.10527
G1 X-4.718 Y15.739 E6.36343
G1 X-7.275 Y15.739 E6.49251
G1 X-7.275 Y18.296 E6.62159
G1 X-12.389 Y18.296 E6.87974
G1 X-12.389 Y20.853 E7.00882
G1 X-33.638 Y20.853 E8.08147
G1 X-33.638 Y18.296 E8.21054
G1 X-38.753 Y18.296 E8.4687
G1 X-38.753 Y15.739 E8.59778
G1 X-41.31 Y15.739 E8.72686
G1 X-41.31 Y10.625 E8.98502
G1 X-43.867 Y10.625 E9.11409
G1 X-43.867 Y-10.625 E10.18674
G1 X-41.31 Y-10.625 E10.31582
G1 X-41.31 Y-15.739 E10.57397
G1 X-38.753 Y-15.739 E10.70305
G1 X-38.753 Y-18.296 E10.83213
G1 X-33.638 Y-18.296 E11.09029
G1 X-33.638 Y-20.853 E11.21937
G1 X-12.389 Y-20.853 E12.29201
G1 X-12.389 Y-18.387 E12.41649
M204 S1000
G1 E8.41649 F1500
G92 E0
G1 X-26.174 Y-3.161 F10800
G1 E4 F1500
M204 S800
G1 F1200
G1 X-28.732 Y-3.161 E4.12908
G1 X-28.732 Y3.161 E4.44818
G1 X-26.174 Y3.161 E4.57726
G1 X-26.174 Y5.718 E4.70633
G1 X-17.296 Y5.718 E5.15451
G1 X-17.296 Y-5.718 E5.73177
G1 X-26.174 Y-5.718 E6.17995
G1 X-26.174 Y-3.252 E6.30443
M204 S1000
G1 E2.30443 F1500
G92 E0
G1 X-3.373 Y10.352 F10800
G1 E4 F1500
M204 S800
G1 F1200
G1 X-3.373 Y-10.078 E5.03127
G1 X-4.047 Y-10.078 E5.06532
G1 X-4.047 Y10.078 E6.08281
G1 X-4.722 Y10.078 E6.11686
G1 X-4.722 Y-10.078 E7.13434
G1 X-5.264 Y-10.078 E7.16172
G1 X-5.264 Y-15.192 E7.41988
G1 X-5.396 Y-15.192 E7.42655
G1 X-5.396 Y15.192 E8.96035
G1 X-6.071 Y15.192 E8.99439
G1 X-6.071 Y-15.192 E10.52819
G1 X-6.745 Y-15.192 E10.56224
G1 X-6.745 Y15.192 E12.09604
G1 X-7.42 Y15.192 E12.13009
G1 X-7.42 Y-15.192 E13.66389
G1 X-7.821 Y-15.192 E13.68415
G1 X-7.821 Y-17.75 E13.81323
G1 X-8.094 Y-17.75 E13.82702
G1 X-8.094 Y17.75 E15.61897
G1 X-8.769 Y17.75 E15.65302
G1 X-8.769 Y-17.75 E17.44497
G1 X-9.443 Y-17.75 E17.47902
G1 X-9.443 Y17.75 E19.27098
G1 X-10.118 Y17.75 E19.30503
G1 X-10.118 Y-17.75 E21.09698
G1 X-10.793 Y-17.75 E21.13103
G1 X-10.793 Y17.75 E22.92299
G1 X-11.467 Y17.75 E22.95704
G1 X-11.467 Y-17.75 E24.74899
G1 X-12.142 Y-17.75 E24.78304
G1 X-12.142 Y17.75 E26.575
G1 X-12.816 Y17.75 E26.60905
G1 X-12.816 Y-17.75 E28.401
G1 X-12.935 Y-17.75 E28.40702
G1 X-12.935 Y-20.307 E28.5361
G1 X-13.491 Y-20.307 E28.56413
G1 X-13.491 Y20.307 E30.61424
G1 X-14.165 Y20.307 E30.64829
G1 X-14.165 Y-20.307 E32.6984
G1 X-14.84 Y-20.307 E32.73245
G1 X-14.84 Y20.307 E34.78256
G1 X-15.514 Y20.307 E34.81661
G1 X-15.514 Y-20.307 E36.86673
G1 X-16.189 Y-20.307 E36.90078
G1 X-16.189 Y20.307 E38.95089
G1 X-16.863 Y20.307 E38.98494
G1 X-16.863 Y-20.307 E41.03505
G1 X-17.538 Y-20.307 E41.0691
G1 X-17.538 Y-6.264 E41.77795
G1 X-18.212 Y-6.264 E41.81199
G1 X-18.212 Y-20.307 E42.52084
G1 X-18.887 Y-20.307 E42.55489
G1 X-18.887 Y-6.264 E43.26374
G1 X-19.561 Y-6.264 E43.29779
G1 X-19.561 Y-20.307 E44.00664
G1 X-20.236 Y-20.307 E44.04069
G1 X-20.236 Y-6.264 E44.74953
G1 X-20.91 Y-6.264 E44.78358
G1 X-20.91 Y-20.307 E45.49243
G1 X-21.585 Y-20.307 E45.52648
G1 X-21.585 Y-6.264 E46.23533
G1 X-22.26 Y-6.264 E46.26938
G1 X-22.26 Y-20.307 E46.97822
G1 X-22.934 Y-20.307 E47.01227
G1 X-22.934 Y-6.264 E47.72112
G1 X-23.609 Y-6.264 E47.75517
G1 X-23.609 Y-20.307 E48.46402
G1 X-24.283 Y-20.307 E48.49807
G1 X-24.283 Y-6.264 E49.20691
G1 X-24.958 Y-6.264 E49.24096
G1 X-24.958 Y-20.307 E49.94981
G1 X-25.632 Y-20.307 E49.98386
G1 X-25.632 Y-6.264 E50.69271
G1 X-26.307 Y-6.264 E50.72676
G1 X-26.307 Y-20.307 E51.4356
G1 X-26.981 Y-20.307 E51.46965
G1 X-26.981 Y-3.707 E52.30758
G1 X-27.656 Y-3.707 E52.34163
G1 X-27.656 Y-20.307 E53.17956
G1 X-28.33 Y-20.307 E53.2136
G1 X-28.33 Y-3.434 E54.06532
M204 S1000
G1 E50.06532 F1500
G92 E0
G1 X-17.538 Y20.58 F10800
G1 E4 F1500
M204 S800
G1 F1200
G1 X-17.538 Y6.264 E4.72264
G1 X-18.212 Y6.264 E4.75669
G1 X-18.212 Y20.307 E5.46553
G1 X-18.887 Y20.307 E5.49958
G1 X-18.887 Y6.264 E6.20843
G1 X-19.561 Y6.264 E6.24248
G1 X-19.561 Y20.307 E6.95133
G1 X-20.236 Y20.307 E6.98538
G1 X-20.236 Y6.264 E7.69422
G1 X-20.91 Y6.264 E7.72827
G1 X-20.91 Y20.307 E8.43712
G1 X-21.585 Y20.307 E8.47117
G1 X-21.585 Y6.264 E9.18002
G1 X-22.26 Y6.264 E9.21407
G1 X-22.26 Y20.307 E9.92292
G1 X-22.934 Y20.307 E9.95697
G1 X-22.934 Y6.264 E10.66581
G1 X-23.609 Y6.264 E10.69986
G1 X-23.609 Y20.307 E11.40871
G1 X-24.283 Y20.307 E11.44276
G1 X-24.283 Y6.264 E12.15161
G1 X-24.958 Y6.264 E12.18566
G1 X-24.958 Y20.307 E12.8945
G1 X-25.632 Y20.307 E12.92855
G1 X-25.632 Y6.264 E13.6374
G1 X-26.307 Y6.264 E13.67145
G1 X-26.307 Y20.307 E14.3803
G1 X-26.981 Y20.307 E14.41435
G1 X-26.981 Y3.707 E15.25227
G1 X-27.656 Y3.707 E15.28632
G1 X-27.656 Y20.307 E16.12425
G1 X-28.33 Y20.307 E16.1583
G1 X-28.33 Y3.434 E17.01002
M204 S1000
G1 X-29.005 Y20.58 F10800
M204 S800
G1 F1200
G1 X-29.005 Y-20.307 E19.07392
G1 X-29.679 Y-20.307 E19.10797
G1 X-29.679 Y20.307 E21.15808
G1 X-30.354 Y20.307 E21.19213
G1 X-30.354 Y-20.307 E23.24224
G1 X-31.028 Y-20.307 E23.27629
G1 X-31.028 Y20.307 E25.3264
G1 X-31.703 Y20.307 E25.36045
G1 X-31.703 Y-20.307 E27.41056
G1 X-32.378 Y-20.307 E27.44461
G1 X-32.378 Y20.307 E29.49473
G1 X-33.052 Y20.307 E29.52877
G1 X-33.052 Y-20.307 E31.57889
G1 X-33.092 Y-17.75 E31.70798
G1 X-33.727 Y-17.75 E31.74001
G1 X-33.727 Y17.75 E33.53197
G1 X-34.401 Y17.75 E33.56602
G1 X-34.401 Y-17.75 E35.35797
G1 X-35.076 Y-17.75 E35.39202
G1 X-35.076 Y17.75 E37.18398
G1 X-35.75 Y17.75 E37.21803
G1 X-35.75 Y-17.75 E39.00998
G1 X-36.425 Y-17.75 E39.04403
G1 X-36.425 Y17.75 E40.83599
G1 X-37.099 Y17.75 E40.87004
G1 X-37.099 Y-17.75 E42.66199
G1 X-37.774 Y-17.75 E42.69604
G1 X-37.774 Y17.75 E44.488
G1 X-38.206 Y17.75 E44.50982
G1 X-38.206 Y15.192 E44.6389
G1 X-38.448 Y15.192 E44.65112
G1 X-38.448 Y-15.192 E46.18492
G1 X-39.123 Y-15.192 E46.21897
G1 X-39.123 Y15.192 E47.75277
G1 X-39.797 Y15.192 E47.78682
G1 X-39.797 Y-15.192 E49.32062
G1 X-40.472 Y-15.192 E49.35467
G1 X-40.472 Y15.192 E50.88846
G1 X-40.763 Y15.192 E50.90317
G1 X-40.763 Y10.078 E51.16133
G1 X-41.146 Y10.078 E51.18067
G1 X-41.146 Y-10.078 E52.19815
G1 X-41.821 Y-10.078 E52.2322
G1 X-41.821 Y10.078 E53.24969
G1 X-42.496 Y10.078 E53.28374
G1 X-42.496 Y-10.078 E54.30122
G1 X-43.17 Y-10.078 E54.33527
G1 X-43.17 Y10.352 E55.36654
M204 S1000
G1 E51.36654 F1500
G92 E0
G1 X-21.846 Y-.251 F10800
G1 E4 F1500
M204 S800
;TYPE:Perimeter
G1 F1200
G1 X-21.692 Y-.07 E4.012
G1 X-21.743 Y.06 E4.0191
G1 X-21.873 Y.118 E4.02628
G1 X-22.062 Y-.041 E4.03873
G1 X-21.935 Y-.245 E4.05082
M204 S1000
G1 X-21.723 Y-.849 F10800
M204 S800
G1 F1200
G1 X-21.438 Y-.731 E4.06642
G1 X-21.209 Y-.5 E4.08283
G1 X-21.095 Y-.211 E4.09851
G1 X-21.099 Y.099 E4.11418
G1 X-21.223 Y.384 E4.12986
G1 X-21.449 Y.603 E4.14574
G1 X-21.738 Y.716 E4.16142
G1 X-22.045 Y.71 E4.17688
G1 X-22.333 Y.584 E4.19277
G1 X-22.538 Y.376 E4.2075
G1 X-22.661 Y.071 E4.22412
G1 X-22.659 Y-.221 E4.23885
G1 X-22.532 Y-.52 E4.25526
G1 X-22.309 Y-.736 E4.27093
G1 X-21.813 Y-.858 E4.29674
M204 S1000
G1 X-22.749 Y-1.162 F10800
M204 S800
G1 F1200
G1 X-22.403 Y-1.372 E4.31714
G1 X-21.865 Y-1.474 E4.34477
G1 X-21.324 Y-1.36 E4.3727
G1 X-20.874 Y-1.052 E4.40021
G1 X-20.575 Y-.597 E4.42771
G1 X-20.472 Y-.058 E4.4554
G1 X-20.582 Y.479 E4.48309
G1 X-20.89 Y.932 E4.51073
G1 X-21.346 Y1.234 E4.53836
G1 X-21.886 Y1.338 E4.56611
G1 X-22.424 Y1.227 E4.5938
G1 X-22.881 Y.918 E4.62168
G1 X-23.181 Y.458 E4.64936
G1 X-23.284 Y-.08 E4.67705
G1 X-23.171 Y-.618 E4.70479
G1 X-22.819 Y-1.106 E4.73516
M204 S1000
G1 X-23.846 Y-.492 F10800
M204 S800
G1 F1200
G1 X-23.54 Y-1.208 E4.77447
G1 X-22.977 Y-1.758 E4.81418
G1 X-22.265 Y-2.046 E4.85298
G1 X-21.478 Y-2.044 E4.89269
G1 X-20.753 Y-1.741 E4.93235
G1 X-20.188 Y-1.168 E4.973
G1 X-19.896 Y-.437 E5.0127
G1 X-19.905 Y.349 E5.0524
G1 X-20.215 Y1.072 E5.09211
G1 X-20.783 Y1.625 E5.13209
G1 X-21.514 Y1.915 E5.17179
G1 X-22.295 Y1.904 E5.21122
G1 X-23.022 Y1.591 E5.2512
G1 X-23.557 Y1.047 E5.28969
G1 X-23.86 Y.296 E5.3306
G1 X-23.86 Y-.403 E5.36592
M204 S1000
G1 X-24.466 Y.337 F10800
M204 S800
G1 F1200
G1 X-24.451 Y-.59 E5.41269
G1 X-24.294 Y-1.094 E5.43937
G1 X-24.044 Y-1.552 E5.46571
G1 X-23.719 Y-1.94 E5.49127
G1 X-23.311 Y-2.268 E5.51768
G1 X-22.38 Y-2.645 E5.56839
G1 X-21.859 Y-2.694 E5.59483
G1 X-21.356 Y-2.641 E5.62036
G1 X-20.85 Y-2.484 E5.6471
G1 X-20.411 Y-2.246 E5.6723
G1 X-20.004 Y-1.908 E5.69899
G1 X-19.677 Y-1.502 E5.72533
G1 X-19.443 Y-1.053 E5.75087
G1 X-19.296 Y-.55 E5.77729
G1 X-19.252 Y-.046 E5.80285
G1 X-19.308 Y.474 E5.82926
G1 X-19.46 Y.957 E5.85482
G1 X-19.711 Y1.416 E5.88123
G1 X-20.036 Y1.804 E5.90677
G1 X-20.449 Y2.135 E5.93351
G1 X-20.892 Y2.366 E5.9587
G1 X-21.401 Y2.514 E5.98548
G1 X-22.42 Y2.501 E6.0369
G1 X-22.902 Y2.35 E6.06243
G1 X-23.367 Y2.095 E6.08917
G1 X-24.066 Y1.383 E6.13955
G1 X-24.312 Y.916 E6.16621
G1 X-24.455 Y.426 E6.19196
M204 S1000
G1 X-24.878 Y1.144 F10800
M204 S800
;TYPE:External perimeter
G1 F1200
G1 X-25.059 Y.521 E6.22472
G1 X-25.113 Y-.096 E6.256
G1 X-25.049 Y-.712 E6.28727
G1 X-24.856 Y-1.332 E6.32005
G1 X-24.548 Y-1.896 E6.35248
G1 X-24.146 Y-2.376 E6.38407
G1 X-23.645 Y-2.779 E6.41652
G1 X-23.09 Y-3.068 E6.44813
G1 X-22.496 Y-3.244 E6.47941
G1 X-21.855 Y-3.304 E6.51187
G1 X-21.233 Y-3.239 E6.54345
G1 X-20.613 Y-3.046 E6.57625
G1 X-20.069 Y-2.751 E6.60749
G1 X-19.569 Y-2.336 E6.64027
G1 X-19.167 Y-1.835 E6.67269
G1 X-18.877 Y-1.281 E6.70427
G1 X-18.697 Y-.664 E6.73673
G1 X-18.642 Y-.04 E6.76832
G1 X-18.711 Y.599 E6.80077
G1 X-18.899 Y1.196 E6.83236
G1 X-19.207 Y1.76 E6.86482
G1 X-19.609 Y2.24 E6.8964
G1 X-20.116 Y2.646 E6.9292
G1 X-20.665 Y2.932 E6.96043
G1 X-21.289 Y3.114 E6.99323
G1 X-21.905 Y3.168 E7.02448
G1 X-22.545 Y3.098 E7.05694
G1 X-23.141 Y2.911 E7.08853
G1 X-23.711 Y2.598 E7.12132
G1 X-24.186 Y2.2 E7.1526
G1 X-24.576 Y1.719 E7.18387
G1 X-24.836 Y1.224 E7.21209
M204 S1000
G1 X-24.508 Y.672 F10800
G1 E3.21209 F1500
G92 E0
G1 X19.249 Y-1.578 F10800
G1 E4 F1500
M204 S800
;TYPE:Perimeter
G1 F1200
G1 X21.198 Y-4.954 E4.19676
G1 X26.997 Y-4.954 E4.48949
G1 X29.896 Y.068 E4.78221
G1 X26.997 Y5.09 E5.07493
G1 X21.198 Y5.09 E5.36766
G1 X18.298 Y.068 E5.66038
G1 X19.204 Y-1.5 E5.7518
M204 S1000
G1 X19.474 Y-.755 F10800
M204 S800
G1 F1200
G1 X21.548 Y-4.347 E5.96115
G1 X26.646 Y-4.347 E6.21849
G1 X29.195 Y.068 E6.47583
G1 X26.646 Y4.483 E6.73317
G1 X21.548 Y4.483 E6.9905
G1 X18.999 Y.068 E7.24784
G1 X19.429 Y-.677 E7.29128
M204 S1000
G1 X19.7 Y.068 F10800
M204 S800
;TYPE:External perimeter
G1 F1200
G1 X21.899 Y-3.74 E7.51323
G1 X26.296 Y-3.74 E7.73518
G1 X28.494 Y.068 E7.95713
G1 X26.296 Y3.876 E8.17909
G1 X21.899 Y3.876 E8.40104
G1 X19.745 Y.146 E8.61845
M204 S1000
G1 X19.181 Y-.232 F10800
G1 X18.277 Y-1.177
M204 S800
;TYPE:Perimeter
G1 F1200
G1 X18.616 Y-2.256 E8.67553
G1 X19.193 Y-3.307 E8.73605
G1 X19.924 Y-4.179 E8.79349
G1 X20.808 Y-4.895 E8.85093
G1 X21.867 Y-5.452 E8.91131
G1 X23.015 Y-5.786 E8.9717
G1 X24.146 Y-5.885 E9.02897
G1 X25.338 Y-5.755 E9.08952
G1 X26.421 Y-5.413 E9.14682
G1 X27.462 Y-4.843 E9.20676
G1 X28.341 Y-4.107 E9.26465
G1 X29.092 Y-3.172 E9.32517
G1 X29.617 Y-2.162 E9.38261
G1 X29.94 Y-1.071 E9.44005
G1 X30.05 Y.121 E9.50047
G1 X29.922 Y1.298 E9.56023
G1 X29.578 Y2.392 E9.61816
G1 X29.008 Y3.433 E9.67805
G1 X28.27 Y4.315 E9.73612
G1 X27.386 Y5.031 E9.79353
G1 X26.324 Y5.589 E9.85407
G1 X25.236 Y5.911 E9.91135
G1 X24.045 Y6.021 E9.97173
G1 X22.856 Y5.891 E10.03212
G1 X21.773 Y5.549 E10.08942
G1 X20.732 Y4.979 E10.14935
G1 X19.85 Y4.241 E10.20741
G1 X19.134 Y3.357 E10.26482
G1 X18.576 Y2.295 E10.32538
G1 X18.254 Y1.207 E10.38265
G1 X18.144 Y.015 E10.44306
G1 X18.264 Y-1.088 E10.49909
M204 S1000
G1 X17.599 Y-.586 F10800
M204 S800
G1 F1200
G1 X17.675 Y-1.287 E10.53466
G1 X18.055 Y-2.495 E10.5986
G1 X18.689 Y-3.651 E10.66517
G1 X19.497 Y-4.614 E10.72858
G1 X20.473 Y-5.404 E10.79199
G1 X21.638 Y-6.017 E10.85848
G1 X22.903 Y-6.386 E10.92497
G1 X24.152 Y-6.495 E10.98827
G1 X25.464 Y-6.352 E11.05486
G1 X26.66 Y-5.974 E11.11819
G1 X27.806 Y-5.347 E11.18414
G1 X28.777 Y-4.533 E11.24809
G1 X29.603 Y-3.505 E11.31466
G1 X30.183 Y-2.391 E11.37807
G1 X30.539 Y-1.186 E11.44147
G1 X30.66 Y.126 E11.50798
G1 X30.519 Y1.423 E11.57383
G1 X30.139 Y2.631 E11.6378
G1 X29.512 Y3.777 E11.70373
G1 X28.697 Y4.75 E11.76778
