; generated by PrusaSlicer 2.4.0+win64 on 2022-01-21 at 04:36:50 UTC

; 

; external perimeters extrusion width = 0.61mm
; perimeters extrusion width = 0.65mm
; infill extrusion width = 0.70mm
; solid infill extrusion width = 0.65mm
; top infill extrusion width = 0.60mm
; support material extrusion width = 0.60mm
; first layer extrusion width = 0.65mm

; external perimeters extrusion width = 0.61mm
; perimeters extrusion width = 0.65mm
; infill extrusion width = 0.70mm
; solid infill extrusion width = 0.65mm
; top infill extrusion width = 0.60mm
; support material extrusion width = 0.60mm
; first layer extrusion width = 0.65mm

M107
;TYPE:Custom
; **** Start of Start GCode: FlashForge Creator 3 ****
M118 X150.00 Y125.00 Z200.00 T0 T1
; todo: need to post process Active extruders in m118

G90 ; absolute positioning
M108 T0 ; tool change
G1 X187 Y0.000 F10800 ; Move initial extruder over anti-ooze plate (9-point Bed Levelling sometimes leaves it off plate)

; Set Filament Z-Offset
G1 Z0.000 F720 ;
;FFPP-UNCOMMENT; G92 Z-<FFPP-filament_extra_z_offset> ; Value substituted by FFPP script (FFPP-filament_extra_z_offset)(negative is printing higher in air)

M140 S85 T0 ; set bed temperature
M104 S250 T0 ; set right extruder temp
M104 S215 T1 ; set left extruder temp

M7 T0 ; wait for platform
M6 T0 ; wait for temp
M6 T1 ; wait for temp

M106 ; Extruder/Heat Break fan on
M651 S255 ; chassis fan on (after heating reached to speed up heating)

; Purge Filament (gets rid of any curling filament too)
G1 X172 F10800 ; Move initial extruder off anti-ooze plate
G92 E0 ; reset extrusion distance 
G1 F150 E20 ; feed 20mm of feed stock 
G92 E0 ; reset extrusion distance


; M652 ; chassis fan off 
; M109 T1/2 only if dupe or mirror

;layer_count: <FFPP-calculated-total_layer_count> ; Value substituted by FFPP script (FFPP-calculated-total_layer_count)
; **** End of Start GCode: FlashForge Creator 3 ****
G21 ; set units to millimeters
G90 ; use absolute coordinates
M82 ; use absolute distances for extrusion
G92 E0
; **** Start of Tool Change GCode: FlashForge Creator 3 ****
M108 T0
; **** End of Tool Change GCode: FlashForge Creator 3 ****
T0
G92 E0
; **** Start of Filament-Specific Start GCode: Filaments.ca PETG Filament - Transparent (Hardened 0.6mm) ****
; FFPP-filament_extra_z_offset: 0.06 ; Value parsed by FFPP script
; **** End of Filament-Specific Start GCode: EconoFil PETG ****
M107
;LAYER_CHANGE
;Z:0.2
;HEIGHT:0.2
; **** Start of Before Layer Change GCode: FlashForge Creator 3 ****
; FFPP-layer_z_height: 0.2 ; Value parsed by FFPP script
;layer:<FFPP-calculated-next_layer_height> ; Value substituted by FFPP script (FFPP-calculated-next_layer_height)
; **** End of Before Layer Change GCode: FlashForge Creator 3 ****
G1 Z.2 F720
; **** Start of After Layer Change GCode: FlashForge Creator 3 ****
; **** End of After Layer Change GCode: FlashForge Creator 3 ****
G1 E-3 F1800
G92 E0
G1 X-.185 Y-23.89 F10800
G1 E3 F1800
M204 S800
;TYPE:Skirt/Brim
;WIDTH:0.65
G1 F1200
G1 X32.045 Y-23.999 E4.62694
G1 X33.483 Y-23.66 E4.70149
G1 X38.597 Y-21.103 E4.99012
G1 X39.432 Y-20.501 E5.0421
G1 X43.556 Y-16.377 E5.33651
G1 X44.158 Y-15.541 E5.38849
G1 X46.715 Y-10.427 E5.67712
G1 X47.055 Y-8.99 E5.75167
G1 X47.055 Y9.126 E6.66612
G1 X46.715 Y10.563 E6.74068
G1 X44.158 Y15.677 E7.02931
G1 X43.556 Y16.513 E7.08128
G1 X39.432 Y20.637 E7.37569
G1 X38.597 Y21.239 E7.42767
G1 X33.483 Y23.796 E7.7163
G1 X32.045 Y24.135 E7.79085
G1 X13.93 Y24.135 E8.70531
G1 X-33.156 Y23.499 E11.08232
G1 X-34.549 Y23.16 E11.15474
G1 X-39.664 Y20.603 E11.44337
G1 X-40.499 Y20.001 E11.49535
G1 X-43.056 Y17.444 E11.67789
G1 X-43.658 Y16.608 E11.72987
G1 X-46.215 Y11.494 E12.0185
G1 X-46.555 Y10.057 E12.09305
G1 X-46.555 Y-10.193 E13.11523
G1 X-46.215 Y-11.63 E13.18978
G1 X-43.658 Y-16.744 E13.47841
G1 X-43.056 Y-17.58 E13.53039
G1 X-40.499 Y-20.137 E13.71293
G1 X-39.664 Y-20.739 E13.76491
G1 X-34.549 Y-23.296 E14.05354
G1 X-33.137 Y-23.635 E14.12687
G1 X-.275 Y-23.889 E15.78576
M204 S1000
G1 X-.27 Y-23.282 F10800
M204 S800
G1 F1200
G1 X32.045 Y-23.392 E17.41701
G1 X33.211 Y-23.117 E17.47748
G1 X38.325 Y-20.56 E17.76611
G1 X39.003 Y-20.071 E17.80827
G1 X43.127 Y-15.947 E18.10268
G1 X43.615 Y-15.27 E18.14484
G1 X46.172 Y-10.156 E18.43347
G1 X46.447 Y-8.99 E18.49394
G1 X46.447 Y9.126 E19.4084
G1 X46.172 Y10.292 E19.46887
G1 X43.615 Y15.406 E19.7575
G1 X43.127 Y16.083 E19.79966
G1 X39.003 Y20.208 E20.09406
G1 X38.325 Y20.696 E20.13623
G1 X33.211 Y23.253 E20.42485
G1 X32.045 Y23.528 E20.48533
G1 X13.93 Y23.528 E21.39978
G1 X-33.147 Y22.892 E23.77638
G1 X-34.278 Y22.617 E23.83512
G1 X-39.392 Y20.06 E24.12375
G1 X-40.07 Y19.571 E24.16591
G1 X-42.627 Y17.014 E24.34846
G1 X-43.115 Y16.337 E24.39062
G1 X-45.672 Y11.223 E24.67925
G1 X-45.947 Y10.057 E24.73972
G1 X-45.947 Y-10.193 E25.76189
G1 X-45.672 Y-11.359 E25.82236
G1 X-43.115 Y-16.473 E26.11099
G1 X-42.627 Y-17.15 E26.15315
G1 X-40.07 Y-19.708 E26.3357
G1 X-39.392 Y-20.196 E26.37786
G1 X-34.278 Y-22.753 E26.66649
G1 X-33.132 Y-23.028 E26.72597
G1 X-.36 Y-23.282 E28.38032
M204 S1000
; printing object cam_b_40_EXTRA_HEX_TOL.STL id:1 copy 0
;WIPE_START
G1 F8640
G1 X14.04 Y-23.331 E25.53032
;WIPE_END
G1 E25.38032 F1800
G92 E0
G1 X-12.863 Y-17.864 F10800
G1 E3 F1800
M204 S800
;TYPE:Support material
G1 F1200
G1 X-7.748 Y-17.864 E3.25816
G1 X-7.748 Y-15.307 E3.38724
G1 X-5.191 Y-15.307 E3.51631
G1 X-5.191 Y-10.193 E3.77447
G1 X-2.634 Y-10.193 E3.90355
G1 X-2.634 Y10.057 E4.92572
G1 X-5.191 Y10.057 E5.0548
G1 X-5.191 Y15.171 E5.31296
G1 X-7.748 Y15.171 E5.44204
G1 X-7.748 Y17.728 E5.57112
G1 X-12.863 Y17.728 E5.82927
G1 X-12.863 Y20.285 E5.95835
G1 X-33.112 Y20.285 E6.98053
G1 X-33.112 Y17.728 E7.10961
G1 X-38.226 Y17.728 E7.36776
G1 X-38.226 Y15.171 E7.49684
G1 X-40.783 Y15.171 E7.62592
G1 X-40.783 Y10.057 E7.88408
G1 X-43.34 Y10.057 E8.01316
G1 X-43.34 Y-10.193 E9.03533
G1 X-40.783 Y-10.193 E9.16441
G1 X-40.783 Y-15.307 E9.42257
G1 X-38.226 Y-15.307 E9.55165
G1 X-38.226 Y-17.864 E9.68072
G1 X-33.112 Y-17.864 E9.93888
G1 X-33.112 Y-20.421 E10.06796
G1 X-12.863 Y-20.421 E11.09014
G1 X-12.863 Y-17.955 E11.21462
M204 S1000
;WIPE_START
G1 F8640
G1 X-12.863 Y-20.421 E10.72655
G1 X-24.796 Y-20.421 E8.36462
;WIPE_END
G1 E8.21462 F1800
G92 E0
G1 X-5.738 Y-10.482 F10800
G1 E3 F1800
M204 S800
G1 F1200
G1 X-12.573 Y-17.318 E3.48796
G1 X-11.619 Y-17.318 E3.53611
G1 X-5.738 Y-11.436 E3.95596
G1 X-5.738 Y-12.39 E4.00412
G1 X-8.108 Y-14.761 E4.17333
G1 X-7.154 Y-14.761 E4.22148
G1 X-5.738 Y-13.344 E4.3226
G1 X-5.738 Y-14.298 E4.37075
G1 X-6.2 Y-14.761 E4.40377
G1 X-5.738 Y-14.761 E4.42711
G1 X-5.738 Y-14.602 E4.43513
M204 S1000
;WIPE_START
G1 F8640
G1 X-5.738 Y-14.761 E4.40368
G1 X-6.2 Y-14.761 E4.31215
G1 X-5.738 Y-14.298 E4.18271
G1 X-5.738 Y-13.344 E3.99391
G1 X-7.154 Y-14.761 E3.59746
G1 X-8.108 Y-14.761 E3.40867
G1 X-5.738 Y-12.39 E2.74522
G1 X-5.738 Y-11.436 E2.55642
G1 X-9.208 Y-14.906 E1.58513
;WIPE_END
G1 E1.43513 F1800
G92 E0
G1 X-8.295 Y-14.947 F10800
G1 E3 F1800
M204 S800
G1 F1200
G1 X-10.665 Y-17.318 E3.16921
G1 X-9.711 Y-17.318 E3.21737
G1 X-8.295 Y-15.901 E3.31848
G1 X-8.295 Y-16.855 E3.36663
G1 X-8.757 Y-17.318 E3.39965
G1 X-8.295 Y-17.318 E3.42299
G1 X-8.295 Y-17.159 E3.43101
M204 S1000
;WIPE_START
G1 F8640
G1 X-8.295 Y-17.318 E3.39956
G1 X-8.757 Y-17.318 E3.30803
G1 X-8.295 Y-16.855 E3.17859
G1 X-8.295 Y-15.901 E2.98979
G1 X-9.711 Y-17.318 E2.59335
G1 X-10.665 Y-17.318 E2.40455
G1 X-8.295 Y-14.947 E1.74111
;WIPE_END
G1 E.43101 F1800
G92 E0
G1 X-3.181 Y-9.183 F10800
G1 E3 F1800
M204 S800
G1 F1200
G1 X-3.181 Y-9.646 E3.0234
G1 X-3.948 Y-9.646 E3.06213
G1 X-3.181 Y-8.879 E3.1169
G1 X-3.181 Y-7.925 E3.16505
G1 X-4.902 Y-9.646 E3.28792
M204 S1000
;WIPE_START
G1 F8640
G1 X-3.181 Y-7.925 E2.80618
G1 X-3.181 Y-8.879 E2.61738
G1 X-3.948 Y-9.646 E2.40265
G1 X-3.181 Y-9.646 E2.25081
G1 X-3.181 Y-9.183 E2.15904
;WIPE_END
G1 E.28792 F1800
G92 E0
G1 X-32.566 Y19.275 F10800
G1 E3 F1800
M204 S800
G1 F1200
G1 X-32.566 Y19.739 E3.0234
G1 X-31.799 Y19.739 E3.06213
G1 X-32.566 Y18.972 E3.11689
G1 X-32.566 Y18.018 E3.16505
G1 X-30.845 Y19.739 E3.28791
G1 X-29.891 Y19.739 E3.33607
G1 X-42.794 Y6.835 E4.25721
G1 X-42.794 Y5.881 E4.30536
G1 X-28.937 Y19.739 E5.29461
G1 X-27.983 Y19.739 E5.34276
G1 X-42.794 Y4.927 E6.4001
G1 X-42.794 Y3.974 E6.44825
G1 X-27.029 Y19.739 E7.5737
G1 X-26.075 Y19.739 E7.62185
G1 X-42.794 Y3.02 E8.81539
G1 X-42.794 Y2.066 E8.86354
G1 X-25.121 Y19.739 E10.12518
G1 X-24.167 Y19.739 E10.17334
G1 X-42.794 Y1.112 E11.50308
G1 X-42.794 Y.158 E11.55123
G1 X-23.213 Y19.739 E12.94907
G1 X-22.259 Y19.739 E12.99722
G1 X-42.794 Y-.796 E14.46316
G1 X-42.794 Y-1.75 E14.51131
G1 X-21.305 Y19.739 E16.04535
G1 X-20.351 Y19.739 E16.0935
G1 X-42.794 Y-2.704 E17.69564
G1 X-42.794 Y-3.658 E17.74379
G1 X-19.397 Y19.739 E19.41403
G1 X-18.444 Y19.739 E19.46218
G1 X-42.794 Y-4.612 E21.20052
G1 X-42.794 Y-5.566 E21.24867
G1 X-17.49 Y19.739 E23.0551
G1 X-16.536 Y19.739 E23.10326
G1 X-42.794 Y-6.52 E24.97779
G1 X-42.794 Y-7.474 E25.02594
G1 X-15.582 Y19.739 E26.96858
G1 X-14.628 Y19.739 E27.01673
G1 X-42.794 Y-8.428 E29.02746
G1 X-42.794 Y-9.382 E29.07561
G1 X-13.674 Y19.739 E31.15445
G1 X-13.409 Y19.739 E31.16782
G1 X-13.409 Y19.05 E31.2026
G1 X-42.105 Y-9.646 E33.25116
G1 X-41.151 Y-9.646 E33.29931
G1 X-13.409 Y18.096 E35.27977
G1 X-13.369 Y17.182 E35.32596
G1 X-40.237 Y-9.686 E37.244
G1 X-40.237 Y-10.64 E37.29215
G1 X-12.415 Y17.182 E39.27829
G1 X-11.461 Y17.182 E39.32645
G1 X-40.237 Y-11.594 E41.38068
G1 X-40.237 Y-12.548 E41.42884
G1 X-10.507 Y17.182 E43.55117
G1 X-9.553 Y17.182 E43.59933
G1 X-40.237 Y-13.502 E45.78976
G1 X-40.237 Y-14.456 E45.83792
G1 X-8.6 Y17.182 E48.09645
G1 X-8.295 Y17.182 E48.11184
G1 X-8.295 Y16.532 E48.14461
G1 X-39.588 Y-14.761 E50.37855
G1 X-38.634 Y-14.761 E50.4267
G1 X-8.295 Y15.579 E52.59254
G1 X-8.295 Y14.625 E52.6407
G1 X-37.68 Y-14.761 E54.73845
G1 X-37.68 Y-15.715 E54.7866
G1 X-7.341 Y14.625 E56.95244
G1 X-6.387 Y14.625 E57.0006
G1 X-37.68 Y-16.669 E59.23454
G1 X-37.68 Y-17.318 E59.26731
G1 X-37.375 Y-17.318 E59.28269
G1 X-5.738 Y14.32 E61.54123
G1 X-5.738 Y13.366 E61.58938
G1 X-36.421 Y-17.318 E63.77982
G1 X-35.467 Y-17.318 E63.82797
G1 X-5.738 Y12.412 E65.95031
G1 X-5.738 Y11.458 E65.99846
G1 X-34.513 Y-17.318 E68.0527
G1 X-33.559 Y-17.318 E68.10085
G1 X-5.738 Y10.504 E70.08699
G1 X-5.738 Y9.55 E70.13514
G1 X-32.605 Y-17.318 E72.05318
G1 X-32.566 Y-18.232 E72.09938
G1 X-4.824 Y9.51 E74.07983
G1 X-3.87 Y9.51 E74.12799
G1 X-32.566 Y-19.186 E76.17655
G1 X-32.566 Y-19.875 E76.21132
G1 X-32.301 Y-19.875 E76.2247
G1 X-3.181 Y9.246 E78.30353
G1 X-3.181 Y8.292 E78.35168
G1 X-31.347 Y-19.875 E80.36242
G1 X-30.393 Y-19.875 E80.41057
G1 X-3.181 Y7.338 E82.3532
G1 X-3.181 Y6.384 E82.40135
G1 X-29.439 Y-19.875 E84.27589
G1 X-28.485 Y-19.875 E84.32404
G1 X-3.181 Y5.43 E86.13047
G1 X-3.181 Y4.476 E86.17863
G1 X-27.531 Y-19.875 E87.91696
G1 X-26.577 Y-19.875 E87.96512
G1 X-3.181 Y3.522 E89.63535
G1 X-3.181 Y2.568 E89.68351
G1 X-25.623 Y-19.875 E91.28564
G1 X-24.669 Y-19.875 E91.33379
G1 X-3.181 Y1.614 E92.86783
G1 X-3.181 Y.66 E92.91599
G1 X-23.715 Y-19.875 E94.38192
G1 X-22.761 Y-19.875 E94.43008
G1 X-3.181 Y-.294 E95.82791
G1 X-3.181 Y-1.248 E95.87607
G1 X-21.807 Y-19.875 E97.20581
G1 X-20.854 Y-19.875 E97.25396
G1 X-3.181 Y-2.202 E98.5156
G1 X-3.181 Y-3.156 E98.56375
G1 X-19.9 Y-19.875 E99.75729
G1 X-18.946 Y-19.875 E99.80545
G1 X-3.181 Y-4.11 E100.93089
G1 X-3.181 Y-5.063 E100.97904
G1 X-17.992 Y-19.875 E102.03639
G1 X-17.038 Y-19.875 E102.08454
G1 X-3.181 Y-6.017 E103.07378
G1 X-3.181 Y-6.971 E103.12194
G1 X-16.084 Y-19.875 E104.04308
G1 X-15.13 Y-19.875 E104.09123
G1 X-13.409 Y-18.154 E104.2141
G1 X-13.409 Y-19.108 E104.26225
G1 X-14.176 Y-19.875 E104.31702
G1 X-13.409 Y-19.875 E104.35574
G1 X-13.409 Y-19.411 E104.37914
M204 S1000
;WIPE_START
G1 F8640
G1 X-13.409 Y-19.875 E104.28739
G1 X-14.176 Y-19.875 E104.13555
G1 X-13.409 Y-19.108 E103.92083
G1 X-13.409 Y-18.154 E103.73203
G1 X-15.13 Y-19.875 E103.2503
G1 X-16.084 Y-19.875 E103.06151
G1 X-10.609 Y-14.4 E101.52914
;WIPE_END
G1 E101.37914 F1800
G92 E0
G1 X-40.237 Y14.466 F10800
G1 E3 F1800
M204 S800
G1 F1200
G1 X-40.237 Y14.625 E3.00802
G1 X-39.774 Y14.625 E3.03137
G1 X-40.237 Y14.162 E3.06438
G1 X-40.237 Y13.208 E3.11253
G1 X-38.821 Y14.625 E3.21365
G1 X-37.867 Y14.625 E3.2618
G1 X-40.237 Y12.254 E3.43101
G1 X-40.237 Y11.3 E3.47917
G1 X-34.356 Y17.182 E3.89902
G1 X-33.402 Y17.182 E3.94718
G1 X-40.237 Y10.346 E4.43513
M204 S1000
;WIPE_START
G1 F8640
G1 X-33.402 Y17.182 E2.52197
G1 X-34.356 Y17.182 E2.33317
G1 X-37.028 Y14.509 E1.58513
;WIPE_END
G1 E1.43513 F1800
G92 E0
G1 X-42.794 Y7.139 F10800
G1 E3 F1800
M204 S800
G1 F1200
G1 X-42.794 Y7.789 E3.03283
G1 X-41.073 Y9.51 E3.1557
G1 X-42.027 Y9.51 E3.20385
G1 X-42.794 Y8.743 E3.25862
G1 X-42.794 Y9.51 E3.29735
G1 X-42.33 Y9.51 E3.32075
M204 S1000
;WIPE_START
G1 F8640
G1 X-42.794 Y9.51 E3.22899
G1 X-42.794 Y8.743 E3.07715
G1 X-42.027 Y9.51 E2.86241
G1 X-41.073 Y9.51 E2.67361
G1 X-42.794 Y7.789 E2.19188
G1 X-42.794 Y7.139 E2.06315
;WIPE_END
G1 E.32075 F1800
G92 E0
G1 X-37.68 Y17.023 F10800
G1 E3 F1800
M204 S800
G1 F1200
G1 X-37.68 Y17.182 E3.00802
G1 X-37.217 Y17.182 E3.03137
G1 X-37.68 Y16.719 E3.06438
G1 X-37.68 Y15.765 E3.11253
G1 X-36.263 Y17.182 E3.21365
G1 X-35.31 Y17.182 E3.2618
G1 X-37.68 Y14.811 E3.43101
M204 S1000
; stop printing object cam_b_40_EXTRA_HEX_TOL.STL id:1 copy 0
; printing object cam_a_40_EXTRA_HEX_TOL.STL id:0 copy 0
;WIPE_START
G1 F8640
G1 X-35.31 Y17.182 E2.76757
G1 X-36.263 Y17.182 E2.57877
G1 X-37.68 Y15.765 E2.18233
G1 X-37.68 Y16.719 E1.99353
G1 X-37.217 Y17.182 E1.86409
G1 X-37.68 Y17.182 E1.77256
G1 X-37.68 Y17.023 E1.74111
;WIPE_END
G1 E.43101 F1800
G92 E0
G1 X33.612 Y-19.218 F10800
G1 E3 F1800
M204 S800
G1 F1200
G1 X33.612 Y-18.228 E3.04998
G1 X37.159 Y-18.228 E3.22904
G1 X38.726 Y-16.661 E3.3409
G1 X38.726 Y-15.671 E3.39088
G1 X39.716 Y-15.671 E3.44086
G1 X41.283 Y-14.104 E3.55272
G1 X41.283 Y-10.557 E3.73178
G1 X42.273 Y-10.557 E3.78176
G1 X43.84 Y-8.99 E3.89362
G1 X43.84 Y9.126 E4.80808
G1 X42.273 Y10.693 E4.91994
G1 X41.283 Y10.693 E4.96992
G1 X41.283 Y14.24 E5.14898
G1 X39.716 Y15.807 E5.26084
G1 X38.726 Y15.807 E5.31082
G1 X38.726 Y16.797 E5.3608
G1 X37.159 Y18.364 E5.47266
G1 X33.612 Y18.364 E5.65172
G1 X33.612 Y19.354 E5.7017
G1 X32.045 Y20.921 E5.81356
G1 X13.93 Y20.921 E6.72802
G1 X12.363 Y19.354 E6.83988
G1 X12.363 Y18.364 E6.88986
G1 X8.815 Y18.364 E7.06892
G1 X7.248 Y16.797 E7.18078
G1 X7.248 Y15.807 E7.23076
G1 X6.258 Y15.807 E7.28074
G1 X4.691 Y14.24 E7.3926
G1 X4.691 Y10.693 E7.57166
G1 X3.701 Y10.693 E7.62164
G1 X2.134 Y9.126 E7.7335
G1 X2.134 Y-8.99 E8.64796
G1 X3.701 Y-10.557 E8.75982
G1 X4.691 Y-10.557 E8.8098
G1 X4.691 Y-14.104 E8.98886
G1 X6.258 Y-15.671 E9.10072
G1 X7.248 Y-15.671 E9.1507
G1 X7.248 Y-16.661 E9.20068
G1 X8.815 Y-18.228 E9.31254
G1 X12.363 Y-18.228 E9.4916
G1 X12.363 Y-19.218 E9.54158
G1 X13.93 Y-20.785 E9.65344
G1 X32.045 Y-20.785 E10.5679
G1 X33.548 Y-19.282 E10.67517
M204 S1000
;WIPE_START
G1 F8640
G1 X32.045 Y-20.785 E10.2546
G1 X19.77 Y-20.785 E7.82517
;WIPE_END
G1 E7.67517 F1800
G92 E0
G1 X39.274 Y-15.125 F10800
G1 E3 F1800
M204 S800
G1 F1200
G1 X40.737 Y-13.662 E3.1044
G1 X40.737 Y-12.708 E3.15256
G1 X38.321 Y-15.125 E3.32506
M204 S1000
;WIPE_START
G1 F8640
G1 X40.737 Y-12.708 E2.64872
G1 X40.737 Y-13.662 E2.45992
G1 X39.274 Y-15.125 E2.05058
;WIPE_END
G1 E.32506 F1800
G92 E0
G1 X36.717 Y-17.682 F10800
G1 E3 F1800
M204 S800
G1 F1200
G1 X38.18 Y-16.219 E3.1044
G1 X38.18 Y-15.265 E3.15255
G1 X35.763 Y-17.682 E3.32506
G1 X34.81 Y-17.682 E3.37321
G1 X40.737 Y-11.754 E3.79635
G1 X40.737 Y-10.8 E3.84451
G1 X33.856 Y-17.682 E4.33575
M204 S1000
;WIPE_START
G1 F8640
G1 X40.737 Y-10.8 E2.40969
G1 X40.737 Y-11.754 E2.22089
G1 X38.11 Y-14.381 E1.48575
;WIPE_END
G1 E1.33575 F1800
G92 E0
G1 X42.293 Y-9.765 F10800
G1 E3 F1800
M204 S800
G1 F1200
G1 X42.047 Y-10.01 E3.01752
G1 X41.527 Y-10.01 E3.04378
G1 X43.294 Y-8.243 E3.16994
G1 X43.294 Y-7.289 E3.21809
G1 X30.345 Y-20.239 E4.14253
G1 X31.299 Y-20.239 E4.19068
