; generated by PrusaSlicer 2.4.0+win64 on 2022-03-03 at 20:47:48 UTC

; 

; external perimeters extrusion width = 0.61mm
; perimeters extrusion width = 0.65mm
; infill extrusion width = 0.70mm
; solid infill extrusion width = 0.65mm
; top infill extrusion width = 0.60mm
; support material extrusion width = 0.55mm
; first layer extrusion width = 0.65mm

; external perimeters extrusion width = 0.61mm
; perimeters extrusion width = 0.65mm
; infill extrusion width = 0.70mm
; solid infill extrusion width = 0.65mm
; top infill extrusion width = 0.60mm
; support material extrusion width = 0.55mm
; first layer extrusion width = 0.65mm

M107
;TYPE:Custom
; **** Start of Start GCode: FlashForge Creator 3 ****
M118 X150.00 Y125.00 Z200.00 T0 T1
; todo: need to post process Active extruders in m118

M108 T0 ; tool change
G90 ; absolute positioning
M108 T0 ; tool change
G90 ; absolute positioning
G1 X187 Y0.000 F12000 ; Move initial extruder over anti-ooze plate

; Set Filament Z-Offset
G1 Z0.000 F720 ;
;FFPP-UNCOMMENT; G92 Z-<FFPP-filament_extra_z_offset> ; Value substituted by FFPP script (FFPP-filament_extra_z_offset)(negative is printing higher in air)

M140 S60 T0 ; set bed temperature
M104 S230 T0 ; set right extruder temp
M104 S220 T1 ; set left extruder temp

M7 T0 ; wait for platform
M6 T0 ; wait for temp
M6 T1 ; wait for temp

M106 ; Extruder/Heat Break fan on
M651 S255 ; chassis fan on (after heating reached to speed up heating)

; Purge Filament (gets rid of any curling filament too)
G1 X172 F12000 ; Move initial extruder off anti-ooze plate
G92 E0 ; reset extrusion distance 
G1 F150 E20 ; feed 20mm of feed stock 
G92 E0 ; reset extrusion distance


; M652 ; chassis fan off 
; M109 T1/2 only if dupe or mirror

;layer_count: <FFPP-calculated-total_layer_count> ; Value substituted by FFPP script (FFPP-calculated-total_layer_count)
; **** End of Start GCode: FlashForge Creator 3 ****
G21 ; set units to millimeters
G90 ; use absolute coordinates
M82 ; use absolute distances for extrusion
G92 E0
; **** Start of Tool Change GCode: FlashForge Creator 3 ****
M108 T0
; **** End of Tool Change GCode: FlashForge Creator 3 ****
T0
G92 E0
; **** Start of Filament-Specific Start GCode: eSun PETG - Blue (Hardened 0.6mm) ****
; FFPP-filament_extra_z_offset: 0.06 ; Value parsed by FFPP script
; **** End of Filament-Specific Start GCode: eSun PETG - Blue (Hardened 0.6mm) ****
M107
;LAYER_CHANGE
;Z:0.2
;HEIGHT:0.2
; **** Start of Before Layer Change GCode: FlashForge Creator 3 ****
; FFPP-layer_z_height: 0.2 ; Value parsed by FFPP script
;layer:<FFPP-calculated-next_layer_height> ; Value substituted by FFPP script (FFPP-calculated-next_layer_height)
; **** End of Before Layer Change GCode: FlashForge Creator 3 ****
G1 Z.4 F720
; **** Start of After Layer Change GCode: FlashForge Creator 3 ****
; **** End of After Layer Change GCode: FlashForge Creator 3 ****
G1 E-4 F1500
G92 E0
G1 X1.78 Y22.384 F12000
G1 E4 F1500
M204 S800
;TYPE:Skirt/Brim
;WIDTH:0.65
G1 F600
G1 X-7.043 Y23.085 E4.44678
G1 X-32.957 Y23.085 E5.75486
G1 X-34.8 Y22.321 E5.85559
G1 X-42.321 Y14.8 E6.39251
G1 X-43.085 Y12.957 E6.49324
G1 X-43.085 Y-12.957 E7.80132
G1 X-42.321 Y-14.8 E7.90205
G1 X-34.8 Y-22.321 E8.43897
G1 X-32.957 Y-23.085 E8.5397
G1 X-6.836 Y-23.077 E9.85824
G1 X29.892 Y-20.148 E11.71812
G1 X31.407 Y-19.507 E11.80115
G1 X34.379 Y-16.886 E12.00119
G1 X39.393 Y-11.872 E12.35914
G1 X40.157 Y-10.028 E12.45986
G1 X40.157 Y10.028 E13.4723
G1 X39.393 Y11.872 E13.57302
G1 X36.824 Y14.439 E13.75635
G1 X31.466 Y19.453 E14.12676
G1 X29.892 Y20.148 E14.21364
G1 X1.869 Y22.376 E15.63266
M204 S1000
; printing object cam_b.STL id:1 copy 0
;WIPE_START
G1 F9600
G1 X-7.043 Y23.085 E14.30552
G1 X-23.702 Y23.085 E11.83266
;WIPE_END
G1 E11.63266 F1500
G92 E0
G1 X-18.854 Y-.205 F12000
G1 E4 F1500
M204 S800
;TYPE:Perimeter
G1 F600
G1 X-18.721 Y-.121 E4.00797
G1 X-18.687 Y.047 E4.01662
G1 X-18.899 Y.208 E4.03008
G1 X-19.093 Y.047 E4.04281
G1 X-19.058 Y-.124 E4.05163
G1 X-18.944 Y-.201 E4.05859
M204 S1000
G1 X-19.568 Y-.456 F12000
M204 S800
G1 F600
G1 X-19.334 Y-.687 E4.07519
G1 X-19.051 Y-.803 E4.09064
G1 X-18.732 Y-.803 E4.10676
G1 X-18.438 Y-.682 E4.12281
G1 X-18.211 Y-.457 E4.13893
G1 X-18.084 Y-.143 E4.156
G1 X-18.09 Y.172 E4.1719
G1 X-18.217 Y.465 E4.18802
G1 X-18.433 Y.679 E4.2034
G1 X-18.728 Y.802 E4.21952
G1 X-19.047 Y.803 E4.23564
G1 X-19.359 Y.671 E4.25271
G1 X-19.58 Y.441 E4.26882
G1 X-19.692 Y.162 E4.28399
G1 X-19.612 Y-.377 E4.31151
M204 S1000
G1 X-19.554 Y1.256 F12000
M204 S800
G1 F600
G1 X-19.906 Y1.004 E4.33333
G1 X-20.215 Y.535 E4.3617
G1 X-20.319 Y-.017 E4.39007
G1 X-20.205 Y-.558 E4.41796
G1 X-19.894 Y-1.016 E4.44591
G1 X-19.424 Y-1.325 E4.47428
G1 X-18.878 Y-1.428 E4.50236
G1 X-18.328 Y-1.313 E4.53073
G1 X-17.868 Y-.998 E4.55887
G1 X-17.566 Y-.535 E4.58676
G1 X-17.462 Y.009 E4.61471
G1 X-17.574 Y.556 E4.6429
G1 X-17.89 Y1.02 E4.67122
G1 X-18.36 Y1.326 E4.69954
G1 X-18.907 Y1.428 E4.72767
G1 X-19.475 Y1.299 E4.75707
M204 S1000
G1 X-18.512 Y2.002 F12000
M204 S800
G1 F600
G1 X-19.293 Y1.998 E4.7965
G1 X-20.048 Y1.678 E4.83786
G1 X-20.602 Y1.107 E4.87801
G1 X-20.891 Y.392 E4.91694
G1 X-20.888 Y-.403 E4.95709
G1 X-20.568 Y-1.157 E4.99845
G1 X-20.002 Y-1.708 E5.03833
G1 X-19.282 Y-2.001 E5.07757
G1 X-18.486 Y-1.998 E5.11772
G1 X-17.753 Y-1.692 E5.15783
G1 X-17.192 Y-1.128 E5.19798
G1 X-16.885 Y-.368 E5.23934
G1 X-16.896 Y.422 E5.27922
G1 X-17.209 Y1.153 E5.31937
G1 X-17.762 Y1.698 E5.35857
G1 X-18.425 Y1.979 E5.39491
M204 S1000
G1 X-17.511 Y2.252 F12000
M204 S800
G1 F600
G1 X-18.383 Y2.599 E5.44231
G1 X-18.915 Y2.648 E5.46931
G1 X-19.416 Y2.596 E5.49473
G1 X-19.925 Y2.438 E5.52162
G1 X-20.392 Y2.181 E5.54851
G1 X-20.778 Y1.858 E5.57393
G1 X-21.112 Y1.441 E5.60092
G1 X-21.49 Y.507 E5.65173
G1 X-21.539 Y-.025 E5.67873
G1 X-21.486 Y-.526 E5.70415
G1 X-21.328 Y-1.035 E5.73104
G1 X-21.072 Y-1.502 E5.75793
G1 X-20.748 Y-1.888 E5.78338
G1 X-20.336 Y-2.219 E5.81004
G1 X-19.397 Y-2.599 E5.86118
G1 X-18.871 Y-2.648 E5.88785
G1 X-18.364 Y-2.596 E5.9136
G1 X-17.854 Y-2.437 E5.94056
G1 X-17.411 Y-2.197 E5.96599
G1 X-17 Y-1.855 E5.99298
G1 X-16.683 Y-1.463 E6.0184
G1 X-16.435 Y-.992 E6.04529
G1 X-16.286 Y-.481 E6.07218
G1 X-16.242 Y.022 E6.09763
G1 X-16.299 Y.547 E6.12429
G1 X-16.452 Y1.034 E6.15006
G1 X-16.705 Y1.497 E6.17671
G1 X-17.431 Y2.21 E6.22806
M204 S1000
G1 X-16.606 Y2.324 F12000
M204 S800
;TYPE:External perimeter
G1 F600
G1 X-17.091 Y2.717 E6.25954
G1 X-17.67 Y3.021 E6.29258
G1 X-18.268 Y3.198 E6.32403
G1 X-18.919 Y3.258 E6.35706
G1 X-19.539 Y3.193 E6.38852
G1 X-20.163 Y2.999 E6.42151
G1 X-20.736 Y2.685 E6.45451
G1 X-21.214 Y2.284 E6.48597
G1 X-21.623 Y1.774 E6.51899
G1 X-21.911 Y1.221 E6.55049
G1 X-22.089 Y.622 E6.58198
G1 X-22.149 Y-.029 E6.61501
G1 X-22.083 Y-.649 E6.64647
G1 X-21.89 Y-1.273 E6.67946
G1 X-21.575 Y-1.846 E6.71246
G1 X-21.174 Y-2.324 E6.74393
G1 X-20.67 Y-2.729 E6.77661
G1 X-20.111 Y-3.021 E6.80845
G1 X-19.513 Y-3.198 E6.83994
G1 X-18.868 Y-3.258 E6.87263
G1 X-18.241 Y-3.193 E6.90443
G1 X-17.616 Y-2.999 E6.93745
G1 X-17.069 Y-2.702 E6.96891
G1 X-16.566 Y-2.283 E7.00194
G1 X-16.173 Y-1.799 E7.0334
G1 X-15.869 Y-1.221 E7.06639
G1 X-15.686 Y-.593 E7.09939
G1 X-15.632 Y.028 E7.13085
G1 X-15.702 Y.672 E7.16354
G1 X-15.891 Y1.273 E7.19535
G1 X-16.202 Y1.841 E7.22803
G1 X-16.549 Y2.255 E7.25532
M204 S1000
G1 X-17.185 Y2.165 F12000
; stop printing object cam_b.STL id:1 copy 0
; printing object cam_a.STL id:0 copy 0
;WIPE_START
G1 F9600
G1 X-17.091 Y2.717 E7.1496
G1 X-17.67 Y3.021 E7.05246
G1 X-18.268 Y3.198 E6.95996
G1 X-18.919 Y3.258 E6.86284
G1 X-19.539 Y3.193 E6.77034
G1 X-20.163 Y2.999 E6.67331
G1 X-20.736 Y2.685 E6.57629
G1 X-21.214 Y2.284 E6.48378
G1 X-21.623 Y1.774 E6.38667
G1 X-21.911 Y1.221 E6.29404
G1 X-22.089 Y.622 E6.20145
G1 X-22.149 Y-.029 E6.10431
G1 X-22.083 Y-.649 E6.01181
G1 X-21.89 Y-1.273 E5.91479
G1 X-21.575 Y-1.846 E5.81776
G1 X-21.174 Y-2.324 E5.72523
G1 X-20.67 Y-2.729 E5.62911
G1 X-20.111 Y-3.021 E5.5355
G1 X-19.513 Y-3.198 E5.44289
G1 X-18.868 Y-3.258 E5.34676
G1 X-18.241 Y-3.193 E5.25325
G1 X-17.616 Y-2.999 E5.15616
G1 X-17.069 Y-2.702 E5.06364
G1 X-16.566 Y-2.283 E4.96651
G1 X-16.173 Y-1.799 E4.87402
G1 X-15.869 Y-1.221 E4.777
G1 X-15.686 Y-.593 E4.67997
G1 X-15.632 Y.028 E4.58744
G1 X-15.702 Y.672 E4.49132
G1 X-15.891 Y1.273 E4.39779
G1 X-16.202 Y1.841 E4.30169
G1 X-16.549 Y2.255 E4.22142
;WIPE_END
G1 E3.25532 F1500
G92 E0
G1 X15.579 Y-.432 F12000
G1 E4 F1500
M204 S800
;TYPE:Perimeter
G1 F600
G1 X18.22 Y-5.006 E4.26659
G1 X24 Y-5.006 E4.55836
G1 X26.89 Y0 E4.85014
G1 X24 Y5.006 E5.14191
G1 X18.22 Y5.006 E5.43369
G1 X15.33 Y0 E5.72547
G1 X15.534 Y-.354 E5.74611
M204 S1000
G1 X16.155 Y-.216 F12000
M204 S800
G1 F600
G1 X18.57 Y-4.399 E5.98991
G1 X23.649 Y-4.399 E6.2463
G1 X26.189 Y0 E6.50269
G1 X23.649 Y4.399 E6.75908
G1 X18.57 Y4.399 E7.01547
G1 X16.031 Y0 E7.27186
G1 X16.11 Y-.138 E7.27991
M204 S1000
G1 X16.732 Y0 F12000
M204 S800
;TYPE:External perimeter
G1 F600
G1 X18.921 Y-3.792 E7.50092
G1 X23.299 Y-3.792 E7.72192
G1 X25.488 Y0 E7.94293
G1 X23.299 Y3.792 E8.16393
G1 X18.921 Y3.792 E8.38494
G1 X16.777 Y.078 E8.6014
M204 S1000
G1 X16.212 Y-.3 F12000
G1 X15.288 Y-1.245
M204 S800
;TYPE:Perimeter
G1 F600
G1 X15.628 Y-2.323 E8.65848
G1 X16.205 Y-3.375 E8.71903
G1 X16.937 Y-4.247 E8.77647
G1 X17.821 Y-4.963 E8.83391
G1 X18.883 Y-5.521 E8.89447
G1 X19.971 Y-5.844 E8.95177
G1 X21.153 Y-5.953 E9.0117
G1 X22.294 Y-5.834 E9.0696
G1 X23.436 Y-5.48 E9.12998
G1 X24.475 Y-4.911 E9.18974
G1 X25.357 Y-4.172 E9.2478
G1 X26.072 Y-3.289 E9.30521
G1 X26.631 Y-2.227 E9.36576
G1 X26.953 Y-1.139 E9.42303
G1 X27.063 Y.052 E9.48342
G1 X26.932 Y1.241 E9.5438
G1 X26.59 Y2.326 E9.60124
G1 X26.047 Y3.326 E9.65869
G1 X25.28 Y4.249 E9.71924
G1 X24.398 Y4.963 E9.77651
G1 X23.337 Y5.521 E9.83706
G1 X22.249 Y5.843 E9.89433
G1 X21.057 Y5.953 E9.95475
G1 X19.88 Y5.825 E10.01451
G1 X18.785 Y5.481 E10.07244
G1 X17.745 Y4.911 E10.13233
G1 X16.865 Y4.174 E10.19026
G1 X16.121 Y3.249 E10.25016
G1 X15.589 Y2.23 E10.30822
G1 X15.266 Y1.139 E10.36563
G1 X15.157 Y-.052 E10.42601
G1 X15.278 Y-1.155 E10.48204
M204 S1000
G1 X14.612 Y-.654 F12000
M204 S800
G1 F600
G1 X14.69 Y-1.367 E10.51824
G1 X15.067 Y-2.563 E10.58155
G1 X15.702 Y-3.719 E10.64814
G1 X16.509 Y-4.682 E10.71155
G1 X17.485 Y-5.472 E10.77496
G1 X18.653 Y-6.086 E10.84155
G1 X19.856 Y-6.443 E10.90487
G1 X21.157 Y-6.563 E10.97083
G1 X22.417 Y-6.432 E11.03478
G1 X23.675 Y-6.041 E11.10126
G1 X24.819 Y-5.415 E11.16712
G1 X25.792 Y-4.6 E11.23116
G1 X26.582 Y-3.624 E11.29455
G1 X27.196 Y-2.457 E11.36114
G1 X27.552 Y-1.254 E11.42444
G1 X27.673 Y.057 E11.49094
G1 X27.529 Y1.367 E11.55742
G1 X27.152 Y2.565 E11.62083
G1 X26.552 Y3.669 E11.68424
G1 X25.709 Y4.683 E11.75083
G1 X24.734 Y5.472 E11.81414
G1 X23.567 Y6.086 E11.88073
G1 X22.364 Y6.442 E11.94404
G1 X21.052 Y6.563 E12.01054
G1 X19.755 Y6.422 E12.0764
G1 X18.546 Y6.042 E12.14036
G1 X17.401 Y5.415 E12.20629
G1 X16.429 Y4.601 E12.27025
G1 X15.611 Y3.583 E12.33619
G1 X15.024 Y2.458 E12.40024
G1 X14.667 Y1.254 E12.46362
G1 X14.547 Y-.057 E12.53011
G1 X14.602 Y-.564 E12.55586
M204 S1000
G1 X13.937 Y-.063 F12000
M204 S800
;TYPE:External perimeter
G1 F600
G1 X14.093 Y-1.492 E12.62845
G1 X14.506 Y-2.802 E12.69779
G1 X15.198 Y-4.064 E12.77042
G1 X16.082 Y-5.117 E12.8398
G1 X17.15 Y-5.981 E12.90917
G1 X18.423 Y-6.651 E12.9818
G1 X19.74 Y-7.042 E13.05115
G1 X21.16 Y-7.173 E13.12313
G1 X22.539 Y-7.03 E13.19312
G1 X23.913 Y-6.603 E13.26571
G1 X25.163 Y-5.919 E13.33766
G1 X26.226 Y-5.028 E13.40768
G1 X27.091 Y-3.96 E13.47706
G1 X27.761 Y-2.687 E13.54968
G1 X28.151 Y-1.369 E13.61902
G1 X28.283 Y.063 E13.69162
G1 X28.126 Y1.492 E13.76421
G1 X27.713 Y2.803 E13.83359
G1 X27.057 Y4.011 E13.90297
G1 X26.137 Y5.117 E13.97559
G1 X25.07 Y5.981 E14.04493
G1 X23.796 Y6.651 E14.11756
G1 X22.479 Y7.042 E14.18691
G1 X21.047 Y7.173 E14.25951
G1 X19.63 Y7.019 E14.33145
G1 X18.307 Y6.603 E14.40145
G1 X17.057 Y5.919 E14.47342
G1 X15.994 Y5.028 E14.54342
G1 X15.1 Y3.917 E14.61539
G1 X14.459 Y2.687 E14.68542
G1 X14.068 Y1.369 E14.75478
G1 X13.945 Y.027 E14.82284
M204 S1000
G1 X14.459 Y-.357 F12000
;WIPE_START
G1 F9600
G1 X14.093 Y-1.492 E14.59627
G1 X14.506 Y-2.802 E14.39236
G1 X15.198 Y-4.064 E14.1788
G1 X16.082 Y-5.117 E13.97477
G1 X17.15 Y-5.981 E13.77077
G1 X18.423 Y-6.651 E13.5572
G1 X19.74 Y-7.042 E13.35329
G1 X21.16 Y-7.173 E13.14162
G1 X22.539 Y-7.03 E12.93579
G1 X23.913 Y-6.603 E12.72234
G1 X25.163 Y-5.919 E12.51078
G1 X26.226 Y-5.028 E12.30486
G1 X27.091 Y-3.96 E12.10086
G1 X27.761 Y-2.687 E11.8873
G1 X28.151 Y-1.369 E11.6834
G1 X28.283 Y.063 E11.46993
G1 X28.126 Y1.492 E11.25646
G1 X27.713 Y2.803 E11.05245
G1 X27.618 Y2.978 E11.02284
;WIPE_END
G1 E10.82284 F1500
G92 E0
G1 X15.642 Y1.217 F12000
G1 E4 F1500
M204 S800
;TYPE:Gap fill
;WIDTH:0.162326
G1 F600
G1 X15.714 Y1.386 E4.00183
M204 S1000
M204 S800
;WIDTH:0.20373
G1 X15.787 Y1.555 E4.00429
M204 S1000
M204 S800
;WIDTH:0.245135
G1 X15.86 Y1.724 E4.00738
M204 S1000
M204 S800
;WIDTH:0.286539
G1 X15.932 Y1.893 E4.0111
M204 S1000
M204 S800
;WIDTH:0.327943
G1 X16.005 Y2.062 E4.01546
M204 S1000
M204 S800
;WIDTH:0.373283
G1 X16.516 Y2.992 E4.04461
M204 S1000
M204 S800
;WIDTH:0.373283
G1 X16.672 Y3.22 E4.05221
M204 S1000
M204 S800
;WIDTH:0.330869
G1 X16.828 Y3.448 E4.05883
M204 S1000
M204 S800
;WIDTH:0.288454
G1 X16.984 Y3.676 E4.06447
M204 S1000
M204 S800
;WIDTH:0.24604
G1 X17.14 Y3.904 E4.06914
M204 S1000
M204 S800
;WIDTH:0.203624
G1 X17.229 Y4.01 E4.07099
M204 S1000
M204 S800
;WIDTH:0.162272
G1 X17.318 Y4.116 E4.07236
M204 S1000
;WIPE_START
G1 F9600
G1 X17.229 Y4.01 E4.05184
;WIPE_END
G1 E.07236 F1500
G92 E0
G1 X19.467 Y5.342 F12000
G1 E4 F1500
M204 S800
;WIDTH:0.167907
G1 F600
G1 X19.633 Y5.368 E4.00174
M204 S1000
M204 S800
;WIDTH:0.214893
G1 X19.799 Y5.393 E4.00415
M204 S1000
M204 S800
;WIDTH:0.261879
G1 X19.965 Y5.419 E4.0072
M204 S1000
M204 S800
;WIDTH:0.30146
G1 X20.331 Y5.439 E4.01507
M204 S1000
M204 S800
;WIDTH:0.341039
G1 X20.696 Y5.458 E4.02413
M204 S1000
M204 S800
;WIDTH:0.380619
G1 X21.061 Y5.478 E4.03441
M204 S1000
M204 S800
;WIDTH:0.380618
G1 X21.43 Y5.461 E4.04479
M204 S1000
M204 S800
;WIDTH:0.346755
G1 X21.8 Y5.444 E4.05413
M204 S1000
M204 S800
;WIDTH:0.312892
G1 X22.169 Y5.427 E4.06243
M204 S1000
M204 S800
;WIDTH:0.27903
G1 X22.315 Y5.406 E4.06532
M204 S1000
M204 S800
;WIDTH:0.239502
G1 X22.461 Y5.385 E4.06774
M204 S1000
M204 S800
;WIDTH:0.199975
G1 X22.607 Y5.364 E4.06966
M204 S1000
M204 S800
;WIDTH:0.160447
G1 X22.753 Y5.343 E4.0711
M204 S1000
;WIPE_START
G1 F9600
G1 X22.607 Y5.364 E4.04921
;WIPE_END
G1 E.0711 F1500
G92 E0
G1 X24.892 Y4.131 F12000
G1 E4 F1500
M204 S800
;WIDTH:0.149266
G1 F600
G1 X24.955 Y4.057 E4.00086
M204 S1000
M204 S800
;WIDTH:0.17761
G1 X25.018 Y3.983 E4.00195
M204 S1000
M204 S800
;WIDTH:0.225249
G1 X25.179 Y3.753 E4.0062
M204 S1000
M204 S800
;WIDTH:0.272888
G1 X25.339 Y3.523 E4.01156
M204 S1000
M204 S800
;WIDTH:0.320527
G1 X25.499 Y3.294 E4.01803
M204 S1000
M204 S800
;WIDTH:0.368166
G1 X25.659 Y3.064 E4.02561
M204 S1000
M204 S800
;WIDTH:0.368165
G1 X26.172 Y2.149 E4.05397
M204 S1000
M204 S800
;WIDTH:0.340723
G1 X26.256 Y1.957 E4.05916
M204 S1000
M204 S800
;WIDTH:0.296762
G1 X26.341 Y1.765 E4.06358
M204 S1000
M204 S800
;WIDTH:0.252802
G1 X26.425 Y1.573 E4.06724
M204 S1000
M204 S800
;WIDTH:0.208841
G1 X26.51 Y1.381 E4.07014
M204 S1000
M204 S800
;WIDTH:0.164881
G1 X26.594 Y1.189 E4.07226
M204 S1000
;WIPE_START
G1 F9600
G1 X26.51 Y1.381 E4.04114
;WIPE_END
G1 E.07226 F1500
G92 E0
G1 X26.578 Y-1.217 F12000
G1 E4 F1500
M204 S800
;WIDTH:0.162163
G1 F600
G1 X26.505 Y-1.385 E4.00182
M204 S1000
M204 S800
;WIDTH:0.203405
G1 X26.433 Y-1.553 E4.00426
M204 S1000
M204 S800
;WIDTH:0.244648
G1 X26.361 Y-1.722 E4.00734
M204 S1000
M204 S800
;WIDTH:0.28589
G1 X26.288 Y-1.89 E4.01104
M204 S1000
M204 S800
;WIDTH:0.327133
G1 X26.216 Y-2.058 E4.01537
M204 S1000
M204 S800
;WIDTH:0.370721
G1 X25.68 Y-3.03 E4.04562
M204 S1000
M204 S800
;WIDTH:0.370721
G1 X25.53 Y-3.248 E4.05282
M204 S1000
M204 S800
;WIDTH:0.329245
G1 X25.381 Y-3.466 E4.05912
M204 S1000
M204 S800
;WIDTH:0.28777
G1 X25.231 Y-3.684 E4.0645
