;FLAVOR:Marlin
;TIME:6536
;Filament used: 5.50623m
;Layer height: 0.2
;MINX:2.141
;MINY:16.171
;MINZ:0.25
;MAXX:215.485
;MAXY:202.447
;MAXZ:3.05
;Generated with Cura_SteamEngine 4.13.1
M140 S85
M105
M190 S85
M104 S235
M105
M109 S235
M82 ;absolute extrusion mode
; Ender 3 Custom Start G-code
G92 E0 ; Reset Extruder
G28 ; Home all axes
G1 Z2.0 F3000 ; Move Z Axis up little to prevent scratching of Heat Bed
G1 X0.1 Y20 Z0.3 F5000.0 ; Move to start position
G1 X0.1 Y200.0 Z0.3 F1500.0 E15 ; Draw the first line
G1 X0.4 Y200.0 Z0.3 F5000.0 ; Move to side a little
G1 X0.4 Y20 Z0.3 F1500.0 E30 ; Draw the second line
G92 E0 ; Reset Extruder
G1 Z2.0 F3000 ; Move Z Axis up little to prevent scratching of Heat Bed
G1 X5 Y20 Z0.3 F5000.0 ; Move over to prevent blob squish
G92 E0
G92 E0
G1 F2400 E-6
;LAYER_COUNT:15
;LAYER:0
M107
G0 F7500 X40.175 Y42.068 Z0.25
;TYPE:SKIRT
G1 F2400 E0.04158
G1 F1500 X41.983 Y40.288 E0.16486
G1 X43.744 Y38.453 E0.28844
G1 X45.405 Y36.621 E0.4086
G1 X47.162 Y34.568 E0.5399
G1 X47.852 Y33.736 E0.59242
G1 X48.476 Y33.046 E0.63763
G1 X49.157 Y32.412 E0.68284
G1 X49.634 Y32.028 E0.71259
G1 X50.341 Y31.492 E0.75571
G1 X54.358 Y28.523 E0.99842
G1 X54.954 Y28.095 E1.03408
G1 X55.732 Y27.586 E1.07925
G1 X56.551 Y27.145 E1.12445
G1 X57.405 Y26.776 E1.16966
G1 X58.288 Y26.481 E1.21489
G1 X59.193 Y26.264 E1.26011
G1 X60.113 Y26.125 E1.30533
G1 X61.004 Y26.066 E1.34871
G1 X61.414 Y26.056 E1.36864
G1 X61.678 Y26.053 E1.38147
G1 X79.056 Y26.054 E2.22589
G1 X79.766 Y26.065 E2.26039
G1 X80.663 Y26.116 E2.30405
G1 X81.594 Y26.208 E2.3495
G1 X84.115 Y26.422 E2.47244
G1 X86.644 Y26.564 E2.59552
G1 X89.177 Y26.635 E2.71865
G1 X91.676 Y26.635 E2.84008
G1 X94.215 Y26.562 E2.9635
G1 X96.731 Y26.42 E3.08595
G1 X99.27 Y26.203 E3.20978
G1 X101.724 Y25.923 E3.32979
G1 X104.262 Y25.561 E3.45436
G1 X106.731 Y25.138 E3.57608
G1 X109.208 Y24.641 E3.69884
G1 X111.619 Y24.085 E3.81907
G1 X114.127 Y23.432 E3.945
G1 X116.513 Y22.739 E4.06573
G1 X118.918 Y21.965 E4.18849
G1 X121.306 Y21.12 E4.31158
G1 X123.623 Y20.228 E4.43222
G1 X127.23 Y18.688 E4.62279
G1 X127.824 Y18.42 E4.65446
G1 X128.688 Y18.075 E4.69966
G1 X129.578 Y17.804 E4.74487
G1 X130.488 Y17.612 E4.79006
G1 X131.411 Y17.498 E4.83525
G1 X132.012 Y17.466 E4.86449
G1 X132.423 Y17.456 E4.88447
G1 X132.686 Y17.453 E4.89725
G1 X150.062 Y17.454 E5.74157
G1 X150.78 Y17.465 E5.77646
G1 X151.986 Y17.551 E5.83521
G1 X153.054 Y17.689 E5.88754
G1 X153.62 Y17.771 E5.91533
G1 X156.112 Y18.057 E6.03721
G1 X158.605 Y18.274 E6.15881
G1 X161.152 Y18.422 E6.28278
G1 X163.656 Y18.497 E6.4045
G1 X166.189 Y18.501 E6.52758
G1 X168.681 Y18.435 E6.64871
G1 X171.221 Y18.294 E6.77233
G1 X173.738 Y18.084 E6.89505
G1 X176.271 Y17.801 E7.0189
G1 X178.74 Y17.453 E7.14006
G1 X181.204 Y17.035 E7.2615
G1 X183.83 Y16.509 E7.39163
G1 X184.46 Y16.392 E7.42277
G1 X184.709 Y16.349 E7.43504
G1 X184.959 Y16.309 E7.44735
G1 X185.883 Y16.202 E7.49255
G1 X186.542 Y16.174 E7.5246
G1 X186.797 Y16.171 E7.53699
G1 X187.107 Y16.172 E7.55205
G1 X187.402 Y16.177 E7.56639
G1 X188.331 Y16.232 E7.61161
G1 X188.893 Y16.305 E7.63914
G1 X189.155 Y16.346 E7.65203
G1 X189.462 Y16.399 E7.66717
G1 X189.736 Y16.45 E7.68071
G1 X190.642 Y16.659 E7.72589
G1 X191.224 Y16.838 E7.75548
G1 X191.493 Y16.929 E7.76928
G1 X191.788 Y17.033 E7.78448
G1 X192.028 Y17.122 E7.79691
G1 X192.885 Y17.483 E7.8421
G1 X193.381 Y17.733 E7.86909
G1 X193.642 Y17.873 E7.88348
G1 X193.962 Y18.052 E7.9013
G1 X194.203 Y18.192 E7.91484
G1 X194.987 Y18.693 E7.96005
G1 X195.439 Y19.028 E7.98739
G1 X195.614 Y19.165 E7.99819
G1 X195.846 Y19.353 E8.0127
G1 X196.079 Y19.546 E8.0274
G1 X196.77 Y20.169 E8.07261
G1 X197.209 Y20.628 E8.10347
G1 X197.716 Y21.19 E8.14025
G1 X199.467 Y23.07 E8.26508
G1 X201.253 Y24.884 E8.38878
G1 X203.078 Y26.635 E8.51167
G1 X204.923 Y28.307 E8.63266
G1 X206.993 Y30.077 E8.765
G1 X207.792 Y30.74 E8.81545
G1 X208.482 Y31.364 E8.86065
G1 X209.116 Y32.044 E8.90583
G1 X209.485 Y32.501 E8.93437
G1 X210.043 Y33.233 E8.9791
G1 X213.02 Y37.262 E9.22251
G1 X213.448 Y37.859 E9.25821
G1 X213.957 Y38.638 E9.30342
G1 X214.397 Y39.457 E9.3486
G1 X214.765 Y40.311 E9.39378
G1 X215.059 Y41.194 E9.43901
G1 X215.276 Y42.099 E9.48423
G1 X215.414 Y43.019 E9.52943
G1 X215.472 Y43.901 E9.57238
G1 X215.482 Y44.31 E9.59226
G1 X215.485 Y44.575 E9.60514
G1 X215.484 Y61.939 E10.44887
G1 X215.474 Y62.64 E10.48294
G1 X215.421 Y63.569 E10.52815
G1 X215.239 Y64.734 E10.58545
G1 X215.183 Y64.998 E10.59856
G1 X214.668 Y67.56 E10.72554
G1 X214.243 Y70.044 E10.84799
G1 X213.886 Y72.552 E10.97109
G1 X213.602 Y75.053 E11.0934
G1 X213.389 Y77.558 E11.21556
G1 X213.246 Y80.084 E11.33849
G1 X213.174 Y82.617 E11.46162
G1 X213.174 Y85.116 E11.58305
G1 X213.246 Y87.646 E11.70604
G1 X213.389 Y90.178 E11.82927
G1 X213.602 Y92.676 E11.95109
G1 X213.886 Y95.179 E12.07349
G1 X214.242 Y97.681 E12.19629
G1 X214.678 Y100.224 E12.32166
G1 X214.939 Y101.572 E12.38838
G1 X215.077 Y102.492 E12.43358
G1 X215.134 Y103.37 E12.47633
G1 X215.144 Y103.783 E12.49641
G1 X215.147 Y104.045 E12.50914
G1 X215.146 Y121.409 E13.35287
G1 X215.136 Y122.112 E13.38703
G1 X215.083 Y123.041 E13.43225
G1 X214.95 Y123.962 E13.47747
G1 X214.739 Y124.868 E13.52267
G1 X214.45 Y125.752 E13.56786
G1 X214.087 Y126.609 E13.61308
G1 X213.652 Y127.431 E13.65827
G1 X213.2 Y128.137 E13.69901
G1 X212.997 Y128.429 E13.71629
G1 X212.815 Y128.684 E13.73151
G1 X209.694 Y132.907 E13.98667
G1 X209.15 Y133.62 E14.03025
G1 X208.554 Y134.334 E14.07544
G1 X207.899 Y134.995 E14.12065
G1 X207.472 Y135.369 E14.14824
G1 X206.524 Y136.158 E14.20817
G1 X204.595 Y137.81 E14.33157
G1 X202.713 Y139.517 E14.45504
G1 X200.885 Y141.27 E14.5781
G1 X199.13 Y143.053 E14.69967
G1 X197.283 Y145.04 E14.83149
G1 X196.815 Y145.559 E14.86545
G1 X195.105 Y147.509 E14.99147
G1 X193.49 Y149.459 E15.1145
G1 X191.952 Y151.425 E15.23579
G1 X190.448 Y153.466 E15.35898
G1 X189.003 Y155.548 E15.48213
G1 X187.638 Y157.637 E15.60338
G1 X186.313 Y159.797 E15.72651
G1 X185.058 Y161.978 E15.84878
G1 X183.849 Y164.224 E15.97272
G1 X182.73 Y166.45 E16.09378
G1 X181.662 Y168.738 E16.21648
G1 X180.644 Y171.085 E16.34078
G1 X179.72 Y173.392 E16.46154
G1 X178.454 Y176.909 E16.64317
G1 X177.927 Y178.469 E16.72318
G1 X177.818 Y178.776 E16.73901
G1 X177.734 Y179.002 E16.75073
G1 X177.372 Y179.86 E16.79598
G1 X177.124 Y180.352 E16.82275
G1 X176.986 Y180.609 E16.83692
G1 X176.798 Y180.945 E16.85563
G1 X176.662 Y181.178 E16.86874
G1 X176.159 Y181.961 E16.91396
G1 X175.831 Y182.402 E16.94067
G1 X175.671 Y182.606 E16.95326
G1 X175.46 Y182.866 E16.96953
G1 X175.272 Y183.091 E16.98378
G1 X174.645 Y183.779 E17.02901
G1 X174.227 Y184.177 E17.05706
G1 X173.72 Y184.636 E17.09029
G1 X171.789 Y186.432 E17.21843
G1 X169.982 Y188.211 E17.34164
G1 X168.234 Y190.033 E17.46433
G1 X166.533 Y191.908 E17.58735
G1 X164.843 Y193.883 E17.71365
G1 X164.112 Y194.764 E17.76928
G1 X163.488 Y195.454 E17.81448
G1 X162.807 Y196.088 E17.85969
G1 X162.33 Y196.472 E17.88945
G1 X161.623 Y197.008 E17.93256
G1 X157.617 Y199.969 E18.17462
G1 X157.013 Y200.403 E18.21076
G1 X156.234 Y200.913 E18.256
G1 X155.415 Y201.354 E18.3012
G1 X154.561 Y201.723 E18.3464
G1 X153.679 Y202.018 E18.39159
G1 X152.774 Y202.236 E18.43683
G1 X151.854 Y202.375 E18.48204
G1 X150.96 Y202.434 E18.52557
G1 X150.55 Y202.444 E18.5455
G1 X150.286 Y202.447 E18.55833
G1 X132.922 Y202.446 E19.40206
G1 X132.218 Y202.436 E19.43627
G1 X131.289 Y202.383 E19.48149
G1 X130.369 Y202.25 E19.52666
G1 X129.462 Y202.039 E19.57191
G1 X128.578 Y201.75 E19.6171
G1 X128.062 Y201.542 E19.64413
G1 X127.199 Y201.166 E19.68987
G1 X126.237 Y200.731 E19.74117
G1 X123.885 Y199.748 E19.86504
G1 X121.496 Y198.825 E19.98949
G1 X119.171 Y198.007 E20.10925
G1 X116.767 Y197.234 E20.23195
G1 X114.352 Y196.531 E20.35417
G1 X111.87 Y195.886 E20.47878
G1 X109.456 Y195.329 E20.59916
G1 X106.96 Y194.826 E20.72288
G1 X104.479 Y194.403 E20.84517
G1 X101.981 Y194.047 E20.96778
G1 X99.481 Y193.763 E21.09004
G1 X96.946 Y193.547 E21.21366
G1 X94.475 Y193.406 E21.33393
G1 X91.917 Y193.334 E21.45827
G1 X89.418 Y193.334 E21.5797
G1 X86.877 Y193.406 E21.70322
G1 X84.35 Y193.548 E21.8262
G1 X81.822 Y193.763 E21.94948
G1 X80.758 Y193.875 E22.00147
G1 X79.956 Y193.93 E22.04053
G1 X79.602 Y193.941 E22.05774
G1 X79.267 Y193.946 E22.07402
G1 X61.818 Y193.946 E22.92189
G1 X61.117 Y193.936 E22.95595
G1 X60.188 Y193.883 E23.00117
G1 X59.267 Y193.75 E23.04638
G1 X58.361 Y193.538 E23.09159
G1 X57.476 Y193.25 E23.13682
G1 X56.62 Y192.887 E23.182
G1 X55.798 Y192.451 E23.22721
G1 X55.12 Y192.02 E23.26625
G1 X54.826 Y191.817 E23.28361
G1 X54.543 Y191.615 E23.3005
G1 X50.32 Y188.494 E23.55566
G1 X49.607 Y187.95 E23.59924
G1 X48.893 Y187.354 E23.64443
G1 X48.232 Y186.699 E23.68965
G1 X47.858 Y186.272 E23.71723
G1 X47.074 Y185.33 E23.77678
G1 X45.422 Y183.401 E23.90019
G1 X43.715 Y181.519 E24.02365
G1 X41.955 Y179.684 E24.1472
G1 X40.153 Y177.91 E24.27007
G1 X38.326 Y176.211 E24.3913
G1 X37.731 Y175.672 E24.43031
G1 X37.069 Y175.018 E24.47553
G1 X36.714 Y174.616 E24.50159
G1 X36.529 Y174.396 E24.51555
G1 X36.282 Y174.091 E24.53462
G1 X36.111 Y173.872 E24.54812
G1 X35.57 Y173.115 E24.59334
G1 X35.265 Y172.617 E24.62171
G1 X35.137 Y172.395 E24.63416
G1 X34.99 Y172.131 E24.64885
G1 X34.855 Y171.881 E24.66265
G1 X34.449 Y171.045 E24.70781
G1 X34.243 Y170.535 E24.73454
G1 X34.143 Y170.268 E24.74839
G1 X34.02 Y169.922 E24.76623
G1 X33.936 Y169.672 E24.77905
G1 X33.08 Y167.254 E24.90369
G1 X32.156 Y164.859 E25.02842
G1 X31.198 Y162.574 E25.14882
G1 X30.137 Y160.229 E25.27388
G1 X29.05 Y157.997 E25.39452
G1 X27.877 Y155.753 E25.51755
G1 X26.657 Y153.57 E25.63907
G1 X25.342 Y151.368 E25.76369
G1 X24.009 Y149.272 E25.88439
G1 X22.579 Y147.158 E26.00841
G1 X21.117 Y145.123 E26.13016
G1 X19.588 Y143.116 E26.25276
G1 X18 Y141.151 E26.37552
G1 X16.359 Y139.234 E26.49814
G1 X14.681 Y137.382 E26.61958
G1 X12.922 Y135.548 E26.74305
G1 X11.092 Y133.744 E26.86792
G1 X10.115 Y132.821 E26.93323
G1 X9.357 Y132.115 E26.98356
G1 X8.704 Y131.452 E27.02878
G1 X8.129 Y130.76 E27.0725
G1 X7.582 Y130.042 E27.11636
G1 X4.612 Y126.024 E27.35914
G1 X4.185 Y125.43 E27.39469
G1 X3.675 Y124.652 E27.43989
G1 X3.234 Y123.833 E27.48509
G1 X2.864 Y122.979 E27.53031
G1 X2.57 Y122.097 E27.57549
G1 X2.352 Y121.193 E27.62067
G1 X2.212 Y120.273 E27.66589
G1 X2.154 Y119.422 E27.70734
G1 X2.145 Y119.108 E27.7226
G1 X2.141 Y118.799 E27.73762
G1 X2.141 Y101.338 E28.58607
G1 X2.151 Y100.634 E28.62028
G1 X2.204 Y99.705 E28.66549
G1 X2.337 Y98.785 E28.71066
G1 X2.548 Y97.878 E28.75591
G1 X2.837 Y96.994 E28.8011
G1 X3.2 Y96.137 E28.84632
G1 X3.635 Y95.315 E28.89151
G1 X4.085 Y94.611 E28.93211
G1 X4.274 Y94.339 E28.94821
G1 X4.461 Y94.079 E28.96377
G1 X7.602 Y89.832 E29.22044
G1 X8.127 Y89.142 E29.26257
G1 X8.722 Y88.427 E29.30777
G1 X9.354 Y87.787 E29.35148
G1 X10.212 Y86.987 E29.40848
G1 X12.073 Y85.204 E29.53371
G1 X13.862 Y83.389 E29.65754
G1 X15.585 Y81.54 E29.78035
G1 X17.246 Y79.653 E29.9025
G1 X18.874 Y77.695 E30.02624
G1 X20.425 Y75.718 E30.14834
G1 X21.912 Y73.708 E30.26982
G1 X23.364 Y71.623 E30.39328
G1 X24.726 Y69.546 E30.51397
G1 X26.073 Y67.36 E30.63874
G1 X27.328 Y65.188 E30.76063
G1 X28.53 Y62.965 E30.88343
G1 X29.652 Y60.74 E31.00451
G1 X30.732 Y58.439 E31.12802
G1 X31.747 Y56.109 E31.25151
G1 X32.686 Y53.78 E31.37353
G1 X33.994 Y50.156 E31.56075
G1 X34.14 Y49.738 E31.58226
G1 X34.236 Y49.481 E31.59559
G1 X34.599 Y48.624 E31.64081
G1 X34.84 Y48.148 E31.66674
G1 X34.978 Y47.891 E31.68091
G1 X35.127 Y47.623 E31.69581
G1 X35.255 Y47.4 E31.70831
G1 X35.752 Y46.614 E31.75349
G1 X36.128 Y46.105 E31.78424
G1 X36.296 Y45.891 E31.79746
G1 X36.53 Y45.603 E31.81549
G1 X36.727 Y45.369 E31.83036
G1 X37.356 Y44.684 E31.87555
G1 X37.752 Y44.308 E31.90208
G1 X38.271 Y43.839 E31.93607
G1 X39.643 Y42.563 E32.02711
G0 F1350 X40.175 Y42.068
G0 F7500 X40.547 Y42.474
G1 F1500 X42.377 Y40.672 E32.15191
G1 X44.125 Y38.85 E32.2746
G1 X45.825 Y36.976 E32.39754
G1 X47.613 Y34.887 E32.53115
G1 X48.276 Y34.087 E32.58164
G1 X48.884 Y33.416 E32.62564
G1 X49.55 Y32.801 E32.66969
G1 X49.967 Y32.466 E32.69568
G1 X50.668 Y31.934 E32.73844
G1 X54.679 Y28.97 E32.98078
G1 X55.275 Y28.542 E33.01643
G1 X56.033 Y28.046 E33.06045
G1 X56.833 Y27.619 E33.10451
G1 X57.667 Y27.265 E33.14854
G1 X58.529 Y26.985 E33.19258
G1 X59.413 Y26.782 E33.23665
G1 X60.311 Y26.658 E33.2807
G1 X61.017 Y26.616 E33.31506
G1 X61.427 Y26.606 E33.33499
G1 X61.678 Y26.603 E33.34719
G1 X79.047 Y26.604 E34.19116
G1 X79.757 Y26.615 E34.22567
G1 X80.609 Y26.664 E34.26714
G1 X81.498 Y26.752 E34.31054
G1 X84.071 Y26.97 E34.43602
G1 X86.633 Y27.114 E34.5607
G1 X89.162 Y27.185 E34.68364
G1 X91.692 Y27.185 E34.80657
G1 X94.228 Y27.112 E34.92985
G1 X96.773 Y26.968 E35.05371
G1 X99.307 Y26.751 E35.17729
G1 X101.831 Y26.464 E35.30073
G1 X104.326 Y26.109 E35.42318
G1 X106.825 Y25.68 E35.54639
G1 X109.331 Y25.177 E35.67059
G1 X111.773 Y24.614 E35.79236
G1 X114.245 Y23.971 E35.91647
G1 X116.693 Y23.259 E36.04035
G1 X119.106 Y22.482 E36.16353
G1 X121.471 Y21.646 E36.28542
G1 X123.837 Y20.734 E36.40863
G1 X127.467 Y19.185 E36.6004
G1 X128.05 Y18.922 E36.63148
G1 X128.892 Y18.586 E36.67553
G1 X129.76 Y18.326 E36.71956
G1 X130.648 Y18.143 E36.76361
G1 X131.548 Y18.039 E36.80764
G1 X132.025 Y18.016 E36.83084
G1 X132.436 Y18.006 E36.85082
G1 X132.686 Y18.003 E36.86297
G1 X150.053 Y18.004 E37.70685
G1 X150.771 Y18.015 E37.74174
G1 X151.917 Y18.097 E37.79757
G1 X152.809 Y18.211 E37.84126
G1 X153.512 Y18.312 E37.87577
G1 X156.074 Y18.606 E38.00108
G1 X158.559 Y18.822 E38.12228
G1 X161.139 Y18.972 E38.24786
G1 X163.639 Y19.047 E38.36939
G1 X166.204 Y19.051 E38.49403
G1 X168.724 Y18.984 E38.61652
G1 X171.263 Y18.844 E38.74008
G1 X173.777 Y18.634 E38.86266
G1 X176.302 Y18.351 E38.98612
G1 X178.836 Y17.995 E39.11046
G1 X181.302 Y17.576 E39.23201
G1 X183.938 Y17.048 E39.36264
G1 X184.56 Y16.933 E39.39337
G1 X184.796 Y16.892 E39.40501
G1 X185.046 Y16.852 E39.41731
G1 X185.946 Y16.748 E39.46134
G1 X186.548 Y16.724 E39.49061
G1 X186.803 Y16.721 E39.503
G1 X187.098 Y16.721 E39.51734
G1 X187.393 Y16.726 E39.53167
G1 X188.298 Y16.782 E39.57573
G1 X188.808 Y16.849 E39.60073
G1 X189.07 Y16.89 E39.61361
G1 X189.361 Y16.939 E39.62795
G1 X189.635 Y16.99 E39.64149
G1 X190.518 Y17.196 E39.68555
G1 X191.048 Y17.359 E39.7125
G1 X191.317 Y17.45 E39.72629
G1 X191.597 Y17.549 E39.74072
G1 X191.837 Y17.638 E39.75316
G1 X192.672 Y17.99 E39.79719
G1 X193.121 Y18.217 E39.82164
G1 X193.382 Y18.357 E39.83603
G1 X193.686 Y18.527 E39.85296
G1 X193.927 Y18.667 E39.8665
G1 X194.69 Y19.157 E39.91056
G1 X195.1 Y19.461 E39.93536
G1 X195.275 Y19.598 E39.94616
G1 X195.495 Y19.776 E39.95991
G1 X195.728 Y19.969 E39.97461
G1 X196.4 Y20.578 E40.01868
G1 X196.8 Y20.996 E40.04679
G1 X197.292 Y21.541 E40.08247
G1 X199.079 Y23.461 E40.20992
G1 X200.869 Y25.278 E40.33386
G1 X202.683 Y27.019 E40.45603
G1 X204.568 Y28.727 E40.57963
G1 X206.637 Y30.496 E40.7119
G1 X207.441 Y31.163 E40.76266
G1 X208.113 Y31.772 E40.80673
G1 X208.728 Y32.437 E40.85074
G1 X209.048 Y32.834 E40.87552
G1 X209.502 Y33.428 E40.91185
G1 X212.573 Y37.582 E41.16287
G1 X213.001 Y38.179 E41.19856
G1 X213.496 Y38.938 E41.24259
G1 X213.922 Y39.738 E41.28663
G1 X214.276 Y40.573 E41.3307
G1 X214.555 Y41.435 E41.37473
G1 X214.758 Y42.319 E41.4188
G1 X214.881 Y43.217 E41.46284
G1 X214.922 Y43.915 E41.49682
G1 X214.932 Y44.324 E41.51669
G1 X214.935 Y44.575 E41.52889
G1 X214.934 Y61.932 E42.37229
G1 X214.924 Y62.633 E42.40635
G1 X214.871 Y63.537 E42.45035
G1 X214.701 Y64.62 E42.50362
G1 X214.645 Y64.883 E42.51669
G1 X214.128 Y67.46 E42.6444
G1 X213.697 Y69.977 E42.76848
G1 X213.34 Y72.485 E42.89158
G1 X213.056 Y74.981 E43.01365
G1 X212.84 Y77.515 E43.13722
G1 X212.696 Y80.072 E43.26167
G1 X212.624 Y82.602 E43.38465
G1 X212.624 Y85.131 E43.50754
G1 X212.696 Y87.66 E43.63047
G1 X212.84 Y90.216 E43.75487
G1 X213.056 Y92.751 E43.87849
G1 X213.34 Y95.251 E44.00075
G1 X213.695 Y97.744 E44.12311
G1 X214.138 Y100.331 E44.25065
G1 X214.399 Y101.677 E44.31727
G1 X214.532 Y102.574 E44.36133
G1 X214.584 Y103.383 E44.40072
G1 X214.594 Y103.796 E44.4208
G1 X214.597 Y104.045 E44.4329
G1 X214.596 Y121.401 E45.27624
