; generated by PrusaSlicer 2.4.0+win64 on 2022-02-01 at 18:28:28 UTC

; 

; external perimeters extrusion width = 0.61mm
; perimeters extrusion width = 0.65mm
; infill extrusion width = 0.70mm
; solid infill extrusion width = 0.65mm
; top infill extrusion width = 0.60mm
; first layer extrusion width = 0.65mm

M107
;TYPE:Custom
; **** Start of Start GCode: FlashForge Creator 3 ****
M118 X150.00 Y125.00 Z200.00 T0 T1
; todo: need to post process Active extruders in m118

G90 ; absolute positioning
M108 T0 ; tool change
G1 X187 Y0.000 F10800 ; Move initial extruder over anti-ooze plate (9-point Bed Levelling sometimes leaves it off plate)

; Set Filament Z-Offset
G1 Z0.000 F720 ;
;FFPP-UNCOMMENT; G92 Z-<FFPP-filament_extra_z_offset> ; Value substituted by FFPP script (FFPP-filament_extra_z_offset)(negative is printing higher in air)

M140 S70 T0 ; set bed temperature
M104 S225 T0 ; set right extruder temp
M104 S0 T1 ; set left extruder temp

M7 T0 ; wait for platform
M6 T0 ; wait for temp
M6 T1 ; wait for temp

M106 ; Extruder/Heat Break fan on
M651 S255 ; chassis fan on (after heating reached to speed up heating)

; Purge Filament (gets rid of any curling filament too)
G1 X172 F10800 ; Move initial extruder off anti-ooze plate
G92 E0 ; reset extrusion distance 
G1 F150 E20 ; feed 20mm of feed stock 
G92 E0 ; reset extrusion distance


; M652 ; chassis fan off 
; M109 T1/2 only if dupe or mirror

;layer_count: <FFPP-calculated-total_layer_count> ; Value substituted by FFPP script (FFPP-calculated-total_layer_count)
; **** End of Start GCode: FlashForge Creator 3 ****
G21 ; set units to millimeters
G90 ; use absolute coordinates
M82 ; use absolute distances for extrusion
G92 E0
; **** Start of Filament-Specific Start GCode: EconoFil Enhanced PETG - Black (Hardened 0.6mm) ****
; FFPP-filament_extra_z_offset: 0.06 ; Value parsed by FFPP script
; **** End of Filament-Specific Start GCode: EconoFil PETG ****
M107
;LAYER_CHANGE
;Z:0.2
;HEIGHT:0.2
; **** Start of Before Layer Change GCode: FlashForge Creator 3 ****
; FFPP-layer_z_height: 0.2 ; Value parsed by FFPP script
;layer:<FFPP-calculated-next_layer_height> ; Value substituted by FFPP script (FFPP-calculated-next_layer_height)
; **** End of Before Layer Change GCode: FlashForge Creator 3 ****
G1 Z.2 F720
; **** Start of After Layer Change GCode: FlashForge Creator 3 ****
; **** End of After Layer Change GCode: FlashForge Creator 3 ****
G1 E-3 F1800
G92 E0
G1 X5.74 Y3.31 F10800
G1 E3 F1800
M204 S800
;TYPE:Skirt/Brim
;WIDTH:0.65
G1 F900
G1 X4.258 Y5.676 E3.14094
G1 X3.329 Y6.326 E3.19817
G1 X2.77 Y6.53 E3.22823
G1 X-2.201 Y6.628 E3.47919
G1 X-3.313 Y6.334 E3.53728
G1 X-3.828 Y6.036 E3.56727
G1 X-4.63 Y5.234 E3.62456
G1 X-6.852 Y1.384 E3.84894
G1 X-7.145 Y.263 E3.90741
G1 X-6.847 Y-1.395 E3.99246
G1 X-4.641 Y-5.219 E4.21533
G1 X-3.813 Y-6.047 E4.2744
G1 X-2.218 Y-6.627 E4.36006
G1 X2.78 Y-6.527 E4.61243
G1 X3.801 Y-6.055 E4.66918
G1 X4.79 Y-4.984 E4.74279
G1 X7.038 Y-.873 E4.97934
G1 X7.144 Y.264 E5.03697
G1 X6.859 Y1.369 E5.09456
G1 X5.785 Y3.232 E5.20311
M204 S1000
G1 X5.265 Y2.932 F10800
M204 S800
G1 F900
G1 X4.168 Y4.835 E5.314
G1 X3.7 Y5.366 E5.3497
G1 X2.454 Y5.98 E5.41983
G1 X-2.091 Y6.028 E5.6493
G1 X-3.112 Y5.757 E5.70262
G1 X-4.168 Y4.835 E5.77337
G1 X-6.288 Y1.158 E5.98762
G1 X-6.534 Y.27 E6.03415
G1 X-6.349 Y-1.019 E6.09988
G1 X-4.175 Y-4.824 E6.3211
G1 X-3.419 Y-5.581 E6.37512
G1 X-2.104 Y-6.027 E6.44519
G1 X2.537 Y-5.962 E6.67952
G1 X3.245 Y-5.687 E6.71786
G1 X3.878 Y-5.196 E6.7583
G1 X6.41 Y-.854 E7.01203
G1 X6.548 Y-.034 E7.054
G1 X6.439 Y.761 E7.0945
G1 X5.309 Y2.854 E7.21454
M204 S1000
; printing object central_shaft.STL id:0 copy 0
;WIPE_START
G1 F8640
G1 X4.168 Y4.835 E6.76196
G1 X3.7 Y5.366 E6.62199
G1 X2.454 Y5.98 E6.34702
G1 X-2.091 Y6.028 E5.44732
G1 X-3.112 Y5.757 E5.23828
G1 X-4.168 Y4.835 E4.96086
G1 X-5.673 Y2.225 E4.36454
;WIPE_END
G1 E4.21454 F1800
G92 E0
G1 X.313 Y.005 F10800
G1 E3 F1800
M204 S800
;TYPE:Perimeter
G1 F900
G1 X.158 Y.273 E3.01565
G1 X-.158 Y.273 E3.03158
G1 X-.316 Y0 E3.04751
G1 X-.158 Y-.273 E3.06344
G1 X.151 Y-.273 E3.07904
G1 X.268 Y-.073 E3.09073
M204 S1000
G1 X-.879 Y-.238 F10800
M204 S800
G1 F900
G1 X-.508 Y-.88 E3.12815
G1 X.501 Y-.88 E3.17909
G1 X1.014 Y.004 E3.23071
G1 X.508 Y.88 E3.2818
G1 X-.508 Y.88 E3.33311
G1 X-1.017 Y0 E3.38443
G1 X-.924 Y-.16 E3.39377
M204 S1000
G1 X-1.029 Y1.192 F10800
M204 S800
G1 F900
G1 X-1.718 Y0 E3.46325
G1 X-.859 Y-1.487 E3.54994
G1 X.85 Y-1.487 E3.63622
G1 X1.716 Y.003 E3.72322
G1 X.859 Y1.487 E3.80974
G1 X-.859 Y1.487 E3.89644
G1 X-.984 Y1.27 E3.90913
M204 S1000
G1 X-.6 Y2.095 F10800
M204 S800
G1 F900
G1 X-1.209 Y2.095 E3.93988
G1 X-2.419 Y0 E4.06197
G1 X-1.209 Y-2.095 E4.18405
G1 X1.2 Y-2.095 E4.30566
G1 X2.417 Y.002 E4.42804
G1 X1.209 Y2.095 E4.55001
G1 X-.51 Y2.095 E4.63679
M204 S1000
G1 X0 Y2.702 F10800
M204 S800
;TYPE:External perimeter
G1 F900
G1 X-1.56 Y2.702 E4.71553
G1 X-3.119 Y0 E4.873
G1 X-1.56 Y-2.702 E5.03047
G1 X1.549 Y-2.702 E5.18741
G1 X3.119 Y.001 E5.34518
G1 X1.56 Y2.702 E5.50258
G1 X.09 Y2.702 E5.57677
M204 S1000
G1 X-.414 Y2.267 F10800
; stop printing object central_shaft.STL id:0 copy 0
;LAYER_CHANGE
;Z:0.4
;HEIGHT:0.2
; **** Start of Before Layer Change GCode: FlashForge Creator 3 ****
; FFPP-layer_z_height: 0.4 ; Value parsed by FFPP script
;layer:<FFPP-calculated-next_layer_height> ; Value substituted by FFPP script (FFPP-calculated-next_layer_height)
; **** End of Before Layer Change GCode: FlashForge Creator 3 ****
G1 Z.4 F720
; **** Start of After Layer Change GCode: FlashForge Creator 3 ****
; **** End of After Layer Change GCode: FlashForge Creator 3 ****
M104 S220 ; set temperature
M140 S60 ; set bed temperature
G1 E2.57677 F1800
G92 E0
G1 X.078 Y6.635 F10800
G1 E3 F1800
;TYPE:Skirt/Brim
G1 F900
G1 X-2.201 Y6.628 E3.11506
G1 X-3.313 Y6.334 E3.17315
G1 X-3.828 Y6.036 E3.20314
G1 X-4.63 Y5.234 E3.26043
G1 X-7.046 Y.844 E3.51333
G1 X-7.141 Y-.31 E3.57179
G1 X-6.847 Y-1.395 E3.62855
G1 X-4.641 Y-5.219 E3.85142
G1 X-3.813 Y-6.047 E3.91049
G1 X-2.787 Y-6.525 E3.96764
G1 X2.199 Y-6.629 E4.21937
G1 X2.78 Y-6.527 E4.24916
G1 X3.801 Y-6.055 E4.30591
G1 X4.79 Y-4.984 E4.37952
G1 X7.038 Y-.873 E4.61607
G1 X7.144 Y.264 E4.6737
G1 X6.859 Y1.369 E4.73129
G1 X4.258 Y5.676 E4.98529
G1 X3.329 Y6.326 E5.04252
G1 X2.77 Y6.53 E5.07257
G1 X.168 Y6.636 E5.20399
G1 X.169 Y6.031 F10800
G1 F900
G1 X-2.091 Y6.028 E5.31809
G1 X-3.112 Y5.757 E5.37141
G1 X-3.701 Y5.366 E5.40709
G1 X-4.168 Y4.835 E5.44278
G1 X-6.288 Y1.158 E5.65702
G1 X-6.534 Y.27 E5.70355
G1 X-6.349 Y-1.019 E5.76928
G1 X-4.175 Y-4.824 E5.99051
G1 X-3.419 Y-5.581 E6.04453
G1 X-2.784 Y-5.892 E6.08018
G1 X-2.104 Y-6.027 E6.11519
G1 X2.118 Y-6.026 E6.32834
G1 X3.245 Y-5.687 E6.38775
G1 X4.265 Y-4.681 E6.46005
G1 X6.41 Y-.854 E6.68152
G1 X6.548 Y-.034 E6.7235
G1 X6.294 Y1.144 E6.78433
G1 X4.168 Y4.835 E6.99934
G1 X3.7 Y5.366 E7.03505
G1 X2.454 Y5.98 E7.10518
G1 X.259 Y6.031 E7.21602
; printing object central_shaft.STL id:0 copy 0
;WIPE_START
G1 F8640
G1 X-2.091 Y6.028 E6.75084
G1 X-3.112 Y5.757 E6.5418
G1 X-3.701 Y5.366 E6.40189
G1 X-4.168 Y4.835 E6.26198
G1 X-6.288 Y1.158 E5.42197
G1 X-6.534 Y.27 E5.23953
G1 X-6.349 Y-1.019 E4.98183
G1 X-4.806 Y-3.721 E4.36602
;WIPE_END
G1 E4.21602 F1800
G92 E0
G1 X.451 Y-.215 F10800
G1 E3 F1800
M204 S800
;TYPE:Perimeter
G1 F900
G1 X.585 Y.013 E3.01334
G1 X.296 Y.513 E3.04252
G1 X-.296 Y.513 E3.07243
G1 X-.593 Y0 E3.10236
G1 X-.296 Y-.513 E3.13227
G1 X.276 Y-.513 E3.16118
G1 X.406 Y-.293 E3.17409
M204 S1000
G1 X-1.223 Y.122 F10800
M204 S800
G1 F900
G1 X-1.294 Y0 E3.18118
G1 X-.647 Y-1.12 E3.24648
G1 X.624 Y-1.12 E3.31062
G1 X1.288 Y.01 E3.3768
G1 X.647 Y1.12 E3.44152
G1 X-.647 Y1.12 E3.50681
G1 X-1.178 Y.2 E3.56049
M204 S1000
G1 X-1.099 Y1.552 F10800
M204 S800
G1 F900
G1 X-1.995 Y0 E3.65095
G1 X-.997 Y-1.727 E3.75163
G1 X.971 Y-1.727 E3.85101
G1 X1.99 Y.008 E3.95257
G1 X.997 Y1.727 E4.05282
G1 X-1.054 Y1.63 E4.15647
M204 S1000
G1 X-.6 Y2.335 F10800
M204 S800
G1 F900
G1 X-1.348 Y2.335 E4.19422
G1 X-2.696 Y0 E4.3303
G1 X-1.348 Y-2.335 E4.46636
G1 X1.319 Y-2.335 E4.60098
G1 X2.693 Y.005 E4.73793
G1 X1.348 Y2.335 E4.87372
G1 X-.51 Y2.335 E4.9675
M204 S1000
G1 X0 Y2.922 F10800
M204 S800
;TYPE:External perimeter
;WIDTH:0.61
G1 F900
G1 X-1.687 Y2.922 E5.04703
G1 X-3.373 Y0 E5.20612
G1 X-1.687 Y-2.922 E5.36518
G1 X1.655 Y-2.922 E5.52275
G1 X3.372 Y.002 E5.68264
G1 X1.687 Y2.922 E5.84159
G1 X.09 Y2.922 E5.91688
M204 S1000
G1 X-.414 Y2.487 F10800
; stop printing object central_shaft.STL id:0 copy 0
;LAYER_CHANGE
;Z:0.6
;HEIGHT:0.2
; **** Start of Before Layer Change GCode: FlashForge Creator 3 ****
; FFPP-layer_z_height: 0.6 ; Value parsed by FFPP script
;layer:<FFPP-calculated-next_layer_height> ; Value substituted by FFPP script (FFPP-calculated-next_layer_height)
; **** End of Before Layer Change GCode: FlashForge Creator 3 ****
G1 Z.6 F720
; **** Start of After Layer Change GCode: FlashForge Creator 3 ****
; **** End of After Layer Change GCode: FlashForge Creator 3 ****
G1 E2.91688 F1800
G92 E0
G1 X.079 Y6.635 F10800
G1 E3 F1800
;TYPE:Skirt/Brim
;WIDTH:0.65
G1 F900
G1 X-2.201 Y6.628 E3.1151
G1 X-3.313 Y6.334 E3.17318
G1 X-3.828 Y6.036 E3.20317
G1 X-4.63 Y5.234 E3.26047
G1 X-7.046 Y.844 E3.51337
G1 X-7.141 Y-.31 E3.57183
G1 X-6.847 Y-1.395 E3.62859
G1 X-4.641 Y-5.219 E3.85145
G1 X-3.813 Y-6.047 E3.91053
G1 X-2.787 Y-6.525 E3.96768
G1 X2.199 Y-6.629 E4.2194
G1 X2.78 Y-6.527 E4.24919
G1 X3.801 Y-6.055 E4.30594
G1 X4.79 Y-4.984 E4.37955
G1 X7.038 Y-.873 E4.61611
G1 X7.144 Y.264 E4.67373
G1 X6.859 Y1.369 E4.73132
G1 X4.258 Y5.676 E4.98532
G1 X3.329 Y6.326 E5.04255
G1 X2.77 Y6.53 E5.0726
G1 X.169 Y6.636 E5.20399
G1 X.17 Y6.031 F10800
G1 F900
G1 X-2.091 Y6.028 E5.31812
G1 X-3.112 Y5.757 E5.37144
G1 X-3.701 Y5.366 E5.40712
G1 X-4.168 Y4.835 E5.44281
G1 X-6.288 Y1.158 E5.65705
G1 X-6.534 Y.27 E5.70359
G1 X-6.349 Y-1.019 E5.76931
G1 X-4.175 Y-4.824 E5.99054
G1 X-3.419 Y-5.581 E6.04456
G1 X-2.784 Y-5.892 E6.08022
G1 X-2.104 Y-6.027 E6.11522
G1 X2.118 Y-6.026 E6.32837
G1 X3.245 Y-5.687 E6.38778
G1 X4.265 Y-4.681 E6.46008
G1 X6.41 Y-.854 E6.68155
G1 X6.548 Y-.034 E6.72353
G1 X6.294 Y1.144 E6.78437
G1 X4.168 Y4.835 E6.99938
G1 X3.7 Y5.366 E7.03508
G1 X2.454 Y5.98 E7.10521
G1 X.26 Y6.031 E7.21602
; printing object central_shaft.STL id:0 copy 0
;WIPE_START
G1 F8640
G1 X-2.091 Y6.028 E6.75071
G1 X-3.112 Y5.757 E6.54167
G1 X-3.701 Y5.366 E6.40176
G1 X-4.168 Y4.835 E6.26185
G1 X-6.288 Y1.158 E5.42185
G1 X-6.534 Y.27 E5.2394
G1 X-6.349 Y-1.019 E4.9817
G1 X-4.806 Y-3.72 E4.36602
;WIPE_END
G1 E4.21602 F1800
G92 E0
G1 X.091 Y.042 F10800
G1 E3 F1800
M204 S800
;TYPE:Perimeter
G1 F900
G1 X-.1 Y-.026 E3.01023
G1 X.046 Y-.036 E3.01761
M204 S1000
G1 X-.014 Y-.707 F10800
M204 S800
G1 F900
G1 X.359 Y-.708 E3.03644
G1 X.792 Y.043 E3.08022
G1 X.41 Y.7 E3.11856
G1 X-.387 Y.7 E3.15883
G1 X-.8 Y-.03 E3.20116
G1 X-.407 Y-.705 E3.24059
G1 X-.104 Y-.706 E3.25588
M204 S1000
G1 X-1.262 Y.386 F10800
M204 S800
G1 F900
G1 X-1.5 Y-.035 E3.28025
G1 X-.757 Y-1.311 E3.3548
G1 X.709 Y-1.316 E3.42879
G1 X1.494 Y.045 E3.5081
G1 X.759 Y1.307 E3.58182
G1 X-.742 Y1.307 E3.65759
G1 X-1.218 Y.464 E3.70647
M204 S1000
G1 X-1.147 Y1.823 F10800
M204 S800
G1 F900
G1 X-2.2 Y-.039 E3.81446
G1 X-1.107 Y-1.917 E3.92414
G1 X1.059 Y-1.924 E4.03345
G1 X2.196 Y.046 E4.14829
G1 X1.109 Y1.914 E4.25739
G1 X-1.103 Y1.902 E4.36902
M204 S1000
G1 X-.6 Y2.521 F10800
M204 S800
G1 F900
G1 X-1.45 Y2.521 E4.41193
G1 X-2.899 Y-.043 E4.56063
G1 X-1.457 Y-2.523 E4.70544
G1 X1.409 Y-2.533 E4.85007
G1 X2.897 Y.047 E5.00043
G1 X1.458 Y2.521 E5.14491
G1 X-.51 Y2.521 E5.24424
M204 S1000
G1 X0 Y3.108 F10800
M204 S800
;TYPE:External perimeter
;WIDTH:0.61
G1 F900
G1 X-1.793 Y3.108 E5.32876
G1 X-3.576 Y-.048 E5.4997
G1 X-1.795 Y-3.109 E5.6667
G1 X1.747 Y-3.121 E5.8337
G1 X3.576 Y.049 E6.00625
G1 X1.795 Y3.108 E6.17317
G1 X.09 Y3.108 E6.25358
M204 S1000
G1 X-.413 Y2.673 F10800
; stop printing object central_shaft.STL id:0 copy 0
M106 S127.5
;LAYER_CHANGE
;Z:0.8
;HEIGHT:0.2
; **** Start of Before Layer Change GCode: FlashForge Creator 3 ****
; FFPP-layer_z_height: 0.8 ; Value parsed by FFPP script
;layer:<FFPP-calculated-next_layer_height> ; Value substituted by FFPP script (FFPP-calculated-next_layer_height)
; **** End of Before Layer Change GCode: FlashForge Creator 3 ****
G1 Z.8 F720
; **** Start of After Layer Change GCode: FlashForge Creator 3 ****
; **** End of After Layer Change GCode: FlashForge Creator 3 ****
; printing object central_shaft.STL id:0 copy 0
G1 E3.25358 F1800
G92 E0
G1 X.091 Y.042 F10800
G1 E3 F1800
M204 S800
;TYPE:Perimeter
;WIDTH:0.65
G1 F900
G1 X-.1 Y-.026 E3.01023
G1 X.046 Y-.036 E3.01761
M204 S1000
G1 X-.014 Y-.707 F10800
M204 S800
G1 F900
G1 X.359 Y-.708 E3.03644
G1 X.792 Y.043 E3.08022
G1 X.41 Y.7 E3.11856
G1 X-.387 Y.7 E3.15883
G1 X-.8 Y-.03 E3.20116
G1 X-.407 Y-.705 E3.24059
G1 X-.104 Y-.706 E3.25588
M204 S1000
G1 X-1.262 Y.386 F10800
M204 S800
G1 F900
G1 X-1.5 Y-.035 E3.28025
G1 X-.757 Y-1.311 E3.3548
G1 X.709 Y-1.316 E3.42879
G1 X1.494 Y.045 E3.5081
G1 X.759 Y1.307 E3.58182
G1 X-.742 Y1.307 E3.65759
G1 X-1.218 Y.464 E3.70647
M204 S1000
G1 X-1.147 Y1.823 F10800
M204 S800
G1 F900
G1 X-2.2 Y-.039 E3.81446
G1 X-1.107 Y-1.917 E3.92414
G1 X1.059 Y-1.924 E4.03345
G1 X2.196 Y.046 E4.14829
G1 X1.109 Y1.914 E4.25739
G1 X-1.103 Y1.902 E4.36902
M204 S1000
G1 X-.6 Y2.521 F10800
M204 S800
G1 F900
G1 X-1.45 Y2.521 E4.41192
G1 X-2.899 Y-.043 E4.56063
G1 X-1.457 Y-2.523 E4.70544
G1 X1.409 Y-2.533 E4.85007
G1 X2.897 Y.047 E5.00043
G1 X1.458 Y2.521 E5.14491
G1 X-.51 Y2.521 E5.24423
M204 S1000
G1 X0 Y3.108 F10800
M204 S800
;TYPE:External perimeter
;WIDTH:0.61
G1 F900
G1 X-1.793 Y3.108 E5.32876
G1 X-3.576 Y-.048 E5.49969
G1 X-1.795 Y-3.109 E5.6667
G1 X1.747 Y-3.121 E5.8337
G1 X3.576 Y.049 E6.00625
G1 X1.795 Y3.108 E6.17317
G1 X.09 Y3.108 E6.25358
M204 S1000
G1 X-.413 Y2.673 F10800
; stop printing object central_shaft.STL id:0 copy 0
M106 S255
;LAYER_CHANGE
;Z:1
;HEIGHT:0.2
; **** Start of Before Layer Change GCode: FlashForge Creator 3 ****
; FFPP-layer_z_height: 1 ; Value parsed by FFPP script
;layer:<FFPP-calculated-next_layer_height> ; Value substituted by FFPP script (FFPP-calculated-next_layer_height)
; **** End of Before Layer Change GCode: FlashForge Creator 3 ****
G1 Z1 F720
; **** Start of After Layer Change GCode: FlashForge Creator 3 ****
; **** End of After Layer Change GCode: FlashForge Creator 3 ****
; printing object central_shaft.STL id:0 copy 0
G1 E3.25358 F1800
G92 E0
G1 X.091 Y.042 F10800
G1 E3 F1800
M204 S800
;TYPE:Perimeter
;WIDTH:0.65
G1 F900
G1 X-.1 Y-.026 E3.01023
G1 X.046 Y-.036 E3.01761
M204 S1000
G1 X-.014 Y-.707 F10800
M204 S800
G1 F900
G1 X.359 Y-.708 E3.03644
G1 X.792 Y.043 E3.08022
G1 X.41 Y.7 E3.11856
G1 X-.387 Y.7 E3.15883
G1 X-.8 Y-.03 E3.20116
G1 X-.407 Y-.705 E3.24059
G1 X-.104 Y-.706 E3.25588
M204 S1000
G1 X-1.262 Y.385 F10800
M204 S800
G1 F900
G1 X-1.5 Y-.035 E3.28025
G1 X-.757 Y-1.311 E3.3548
G1 X.709 Y-1.316 E3.42878
G1 X1.494 Y.045 E3.50809
G1 X.759 Y1.307 E3.58182
G1 X-.742 Y1.307 E3.65758
G1 X-1.218 Y.464 E3.70647
M204 S1000
G1 X-1.147 Y1.823 F10800
M204 S800
G1 F900
G1 X-2.2 Y-.039 E3.81446
G1 X-1.107 Y-1.917 E3.92414
G1 X1.059 Y-1.924 E4.03345
G1 X2.196 Y.046 E4.14828
G1 X1.109 Y1.914 E4.25738
G1 X-1.103 Y1.902 E4.36901
M204 S1000
G1 X-.6 Y2.521 F10800
M204 S800
G1 F900
G1 X-1.45 Y2.521 E4.41192
G1 X-2.899 Y-.044 E4.56063
G1 X-1.457 Y-2.523 E4.70543
G1 X1.409 Y-2.533 E4.85006
G1 X2.897 Y.047 E5.00042
G1 X1.458 Y2.521 E5.14491
G1 X-.51 Y2.521 E5.24423
M204 S1000
G1 X0 Y3.108 F10800
M204 S800
;TYPE:External perimeter
;WIDTH:0.61
G1 F900
G1 X-1.793 Y3.108 E5.32876
G1 X-3.576 Y-.048 E5.49969
G1 X-1.795 Y-3.109 E5.66669
G1 X1.747 Y-3.121 E5.8337
G1 X3.576 Y.049 E6.00624
G1 X1.795 Y3.108 E6.17317
G1 X.09 Y3.108 E6.25357
M204 S1000
G1 X-.413 Y2.673 F10800
; stop printing object central_shaft.STL id:0 copy 0
;LAYER_CHANGE
;Z:1.2
;HEIGHT:0.2
; **** Start of Before Layer Change GCode: FlashForge Creator 3 ****
; FFPP-layer_z_height: 1.2 ; Value parsed by FFPP script
