; generated by PrusaSlicer 2.4.0+win64 on 2022-02-13 at 20:29:15 UTC

; 

; external perimeters extrusion width = 0.61mm
; perimeters extrusion width = 0.65mm
; infill extrusion width = 0.70mm
; solid infill extrusion width = 0.65mm
; top infill extrusion width = 0.60mm
; first layer extrusion width = 0.65mm

M107
;TYPE:Custom
; **** Start of Start GCode: FlashForge Creator 3 ****
M118 X150.00 Y125.00 Z200.00 T0 T1
; todo: need to post process Active extruders in m118

G90 ; absolute positioning
M108 T0 ; tool change
G1 X187 Y0.000 F12000 ; Move initial extruder over anti-ooze plate (9-point Bed Levelling sometimes leaves it off plate)

; Set Filament Z-Offset
G1 Z0.000 F720 ;
;FFPP-UNCOMMENT; G92 Z-<FFPP-filament_extra_z_offset> ; Value substituted by FFPP script (FFPP-filament_extra_z_offset)(negative is printing higher in air)

M140 S75 T0 ; set bed temperature
M104 S220 T0 ; set right extruder temp
M104 S0 T1 ; set left extruder temp

M7 T0 ; wait for platform
M6 T0 ; wait for temp
M6 T1 ; wait for temp

M106 ; Extruder/Heat Break fan on
M651 S255 ; chassis fan on (after heating reached to speed up heating)

; Purge Filament (gets rid of any curling filament too)
G1 X172 F12000 ; Move initial extruder off anti-ooze plate
G92 E0 ; reset extrusion distance 
G1 F150 E20 ; feed 20mm of feed stock 
G92 E0 ; reset extrusion distance


; M652 ; chassis fan off 
; M109 T1/2 only if dupe or mirror

;layer_count: <FFPP-calculated-total_layer_count> ; Value substituted by FFPP script (FFPP-calculated-total_layer_count)
; **** End of Start GCode: FlashForge Creator 3 ****
G21 ; set units to millimeters
G90 ; use absolute coordinates
M82 ; use absolute distances for extrusion
G92 E0
; **** Start of Filament-Specific Start GCode: eSun PETG - Blue (Hardened 0.6mm) ****
; FFPP-filament_extra_z_offset: 0.06 ; Value parsed by FFPP script
; **** End of Filament-Specific Start GCode: eSun PETG - Blue (Hardened 0.6mm) ****
M107
;LAYER_CHANGE
;Z:0.2
;HEIGHT:0.2
; **** Start of Before Layer Change GCode: FlashForge Creator 3 ****
; FFPP-layer_z_height: 0.2 ; Value parsed by FFPP script
;layer:<FFPP-calculated-next_layer_height> ; Value substituted by FFPP script (FFPP-calculated-next_layer_height)
; **** End of Before Layer Change GCode: FlashForge Creator 3 ****
G1 Z.2 F720
; **** Start of After Layer Change GCode: FlashForge Creator 3 ****
; **** End of After Layer Change GCode: FlashForge Creator 3 ****
G1 E-4 F1500
G92 E0
G1 X-6.543 Y2.113 F12000
G1 E4 F1500
M204 S800
;TYPE:Skirt/Brim
;WIDTH:0.65
G1 F900
G1 X-7.088 Y.425 E4.08954
G1 X-7.232 Y-1.306 E4.17722
G1 X-6.28 Y-3.319 E4.28959
G1 X-3.909 Y-5.929 E4.46761
G1 X-2.48 Y-6.916 E4.55529
G1 X-.275 Y-7.095 E4.66695
G1 X3.176 Y-6.351 E4.84515
G1 X4.746 Y-5.609 E4.93283
G1 X6.008 Y-3.785 E5.04478
G1 X7.089 Y-.423 E5.22303
G1 X7.231 Y1.308 E5.31071
G1 X6.282 Y3.313 E5.42268
G1 X3.908 Y5.931 E5.60108
G1 X2.479 Y6.919 E5.68876
G1 X.266 Y7.098 E5.80083
G1 X-3.176 Y6.351 E5.97862
G1 X-4.745 Y5.606 E6.0663
G1 X-6.001 Y3.791 E6.17775
G1 X-6.516 Y2.198 E6.26224
M204 S1000
G1 X-5.942 Y2.015 F12000
M204 S800
G1 F900
G1 X-6.513 Y.23 E6.35681
G1 X-6.608 Y-1.358 E6.43712
G1 X-5.831 Y-2.911 E6.52476
G1 X-3.46 Y-5.521 E6.70278
G1 X-2.132 Y-6.397 E6.7831
G1 X-.403 Y-6.502 E6.87053
G1 X3.048 Y-5.758 E7.04873
G1 X4.472 Y-5.048 E7.12905
G1 X5.43 Y-3.599 E7.21672
G1 X6.511 Y-.237 E7.39498
G1 X6.608 Y1.351 E7.47529
G1 X5.832 Y2.905 E7.56299
G1 X3.458 Y5.523 E7.74138
G1 X2.131 Y6.401 E7.8217
G1 X.395 Y6.505 E7.90948
G1 X-3.047 Y5.758 E8.08727
G1 X-4.42 Y5.088 E8.16437
G1 X-5.439 Y3.586 E8.25601
G1 X-5.914 Y2.1 E8.33476
M204 S1000
G1 X-5.336 Y1.915 F12000
M204 S800
G1 F900
G1 X-5.935 Y.045 E8.43387
G1 X-5.98 Y-1.384 E8.50607
G1 X-5.382 Y-2.502 E8.5701
G1 X-3.011 Y-5.113 E8.74812
G1 X-1.454 Y-5.94 E8.83707
G1 X-.514 Y-5.91 E8.88458
G1 X2.923 Y-5.163 E9.06213
G1 X4.521 Y-4.09 E9.15927
G1 X4.861 Y-3.399 E9.19819
G1 X5.934 Y-.049 E9.37574
G1 X5.979 Y1.381 E9.44793
G1 X5.382 Y2.497 E9.51185
G1 X3.008 Y5.115 E9.69025
G1 X1.794 Y5.871 E9.76245
G1 X.524 Y5.912 E9.82659
G1 X-2.918 Y5.165 E10.00438
G1 X-4.032 Y4.622 E10.06692
G1 X-4.861 Y3.401 E10.1414
G1 X-5.309 Y2.001 E10.21561
M204 S1000
; printing object central_shaft.STL id:0 copy 0
;WIPE_START
G1 F9600
G1 X-5.935 Y.045 E9.9108
G1 X-5.98 Y-1.384 E9.6985
G1 X-5.382 Y-2.502 E9.51023
G1 X-3.011 Y-5.113 E8.98674
G1 X-1.454 Y-5.94 E8.72515
G1 X-.514 Y-5.91 E8.58545
G1 X2.923 Y-5.163 E8.06335
G1 X4.521 Y-4.09 E7.7777
G1 X4.861 Y-3.399 E7.66327
G1 X5.934 Y-.049 E7.14117
G1 X5.979 Y1.381 E6.92887
G1 X5.382 Y2.497 E6.74091
G1 X3.91 Y4.121 E6.41561
;WIPE_END
G1 E6.21561 F1500
G92 E0
G1 X.237 Y-.261 F12000
G1 E4 F1500
M204 S800
;TYPE:Perimeter
G1 F900
G1 X.344 Y.073 E4.01772
G1 X.106 Y.336 E4.03564
G1 X-.237 Y.261 E4.05338
G1 X-.344 Y-.073 E4.07108
G1 X-.106 Y-.336 E4.08901
G1 X.149 Y-.28 E4.10219
M204 S1000
G1 X-.526 Y-.776 F12000
M204 S800
G1 F900
G1 X-.32 Y-1.004 E4.11772
G1 X.709 Y-.78 E4.17084
G1 X1.029 Y.221 E4.22393
G1 X.32 Y1.004 E4.27723
G1 X-.709 Y.78 E4.33038
G1 X-1.029 Y-.221 E4.38345
G1 X-.587 Y-.709 E4.41669
M204 S1000
G1 X-1.546 Y.156 F12000
M204 S800
G1 F900
G1 X-1.714 Y-.369 E4.44456
G1 X-.534 Y-1.671 E4.53326
G1 X1.18 Y-1.299 E4.62179
G1 X1.714 Y.37 E4.71025
G1 X.534 Y1.671 E4.79893
G1 X-1.18 Y1.299 E4.88748
G1 X-1.518 Y.242 E4.94351
M204 S1000
G1 X-1.834 Y1.247 F12000
M204 S800
G1 F900
G1 X-2.399 Y-.518 E5.03703
G1 X-.748 Y-2.339 E5.16112
G1 X1.651 Y-1.818 E5.28505
G1 X2.399 Y.518 E5.40888
G1 X.748 Y2.339 E5.53295
G1 X-1.651 Y1.818 E5.65689
G1 X-1.807 Y1.332 E5.68264
M204 S1000
G1 X-2.123 Y2.337 F12000
M204 S800
;TYPE:External perimeter
G1 F900
G1 X-3.084 Y-.666 E5.84181
G1 X-.962 Y-3.007 E6.00129
G1 X2.123 Y-2.337 E6.16063
G1 X3.084 Y.667 E6.31982
G1 X.962 Y3.007 E6.47927
G1 X-2.035 Y2.356 E6.63408
M204 S1000
G1 X-1.995 Y1.751 F12000
; stop printing object central_shaft.STL id:0 copy 0
;LAYER_CHANGE
;Z:0.4
;HEIGHT:0.2
; **** Start of Before Layer Change GCode: FlashForge Creator 3 ****
; FFPP-layer_z_height: 0.4 ; Value parsed by FFPP script
;layer:<FFPP-calculated-next_layer_height> ; Value substituted by FFPP script (FFPP-calculated-next_layer_height)
; **** End of Before Layer Change GCode: FlashForge Creator 3 ****
G1 Z.4 F720
; **** Start of After Layer Change GCode: FlashForge Creator 3 ****
; **** End of After Layer Change GCode: FlashForge Creator 3 ****
M104 S225 ; set temperature
M140 S80 ; set bed temperature
; printing object central_shaft.STL id:0 copy 0
G1 E2.63408 F1500
G92 E0
G1 X.424 Y-.466 F12000
G1 E4 F1500
M204 S800
;TYPE:Perimeter
G1 F900
G1 X.616 Y.133 E4.03177
G1 X.192 Y.6 E4.06361
G1 X-.424 Y.467 E4.09539
G1 X-.615 Y-.132 E4.12709
G1 X-.19 Y-.6 E4.159
G1 X.336 Y-.485 E4.18618
M204 S1000
G1 X-.984 Y-.629 F12000
M204 S800
G1 F900
G1 X-.404 Y-1.267 E4.2297
G1 X.895 Y-.985 E4.29681
G1 X1.301 Y.282 E4.36395
G1 X.405 Y1.268 E4.43118
G1 X-.895 Y.985 E4.49835
G1 X-1.3 Y-.28 E4.56543
G1 X-1.044 Y-.562 E4.58467
M204 S1000
G1 X-1.732 Y.361 F12000
M204 S800
G1 F900
G1 X-1.985 Y-.429 E4.62656
G1 X-.618 Y-1.935 E4.72924
G1 X1.366 Y-1.504 E4.83174
G1 X1.986 Y.43 E4.93426
G1 X.619 Y1.935 E5.03688
G1 X-1.366 Y1.504 E5.13944
G1 X-1.705 Y.447 E5.19547
M204 S1000
G1 X-2.02 Y1.452 F12000
M204 S800
G1 F900
G1 X-2.67 Y-.577 E5.30303
G1 X-.832 Y-2.603 E5.4411
G1 X1.838 Y-2.023 E5.57899
G1 X2.671 Y.579 E5.71689
G1 X.833 Y2.603 E5.85489
G1 X-1.837 Y2.023 E5.99284
G1 X-1.993 Y1.538 E6.01858
M204 S1000
G1 X-2.332 Y2.404 F12000
M204 S800
;TYPE:External perimeter
;WIDTH:0.61
G1 F900
G1 X-3.333 Y-.721 E6.17331
G1 X-1.038 Y-3.248 E6.33426
G1 X2.294 Y-2.525 E6.49503
G1 X3.333 Y.723 E6.6558
G1 X1.04 Y3.249 E6.81668
G1 X-2.305 Y2.49 E6.97839
M204 S1000
G1 X-2.201 Y1.819 F12000
; stop printing object central_shaft.STL id:0 copy 0
;LAYER_CHANGE
;Z:0.6
;HEIGHT:0.2
; **** Start of Before Layer Change GCode: FlashForge Creator 3 ****
; FFPP-layer_z_height: 0.6 ; Value parsed by FFPP script
;layer:<FFPP-calculated-next_layer_height> ; Value substituted by FFPP script (FFPP-calculated-next_layer_height)
; **** End of Before Layer Change GCode: FlashForge Creator 3 ****
G1 Z.6 F720
; **** Start of After Layer Change GCode: FlashForge Creator 3 ****
; **** End of After Layer Change GCode: FlashForge Creator 3 ****
; printing object central_shaft.STL id:0 copy 0
G1 E2.97839 F1500
G92 E0
G1 X.103 Y-.111 F12000
G1 E4 F1500
M204 S800
;TYPE:Perimeter
;WIDTH:0.65
G1 F900
G1 X.14 Y.004 E4.00612
G1 X.024 Y.134 E4.0149
G1 X-.104 Y.106 E4.02156
G1 X-.136 Y.007 E4.02679
G1 X.015 Y-.131 E4.03713
M204 S1000
G1 X.462 Y-.654 F12000
M204 S800
G1 F900
G1 X.573 Y-.63 E4.04285
G1 X.825 Y.148 E4.08411
G1 X.242 Y.802 E4.12834
G1 X-.574 Y.625 E4.1705
G1 X-.822 Y-.139 E4.21104
G1 X-.222 Y-.805 E4.25627
G1 X.375 Y-.673 E4.28711
M204 S1000
G1 X-1.308 Y-.506 F12000
M204 S800
G1 F900
G1 X-.437 Y-1.474 E4.35283
G1 X1.044 Y-1.148 E4.42934
G1 X1.51 Y.292 E4.50575
G1 X.459 Y1.47 E4.58543
G1 X-1.044 Y1.144 E4.66309
G1 X-1.507 Y-.285 E4.73894
G1 X-1.369 Y-.439 E4.74941
M204 S1000
G1 X-1.884 Y.522 F12000
M204 S800
G1 F900
G1 X-2.193 Y-.431 E4.79999
G1 X-.651 Y-2.142 E4.91624
G1 X1.514 Y-1.666 E5.02815
G1 X2.195 Y.437 E5.13969
G1 X.676 Y2.139 E5.25483
G1 X-1.514 Y1.663 E5.36799
G1 X-1.856 Y.607 E5.42402
M204 S1000
G1 X-2.169 Y1.612 F12000
M204 S800
G1 F900
G1 X-2.878 Y-.578 E5.54019
G1 X-.866 Y-2.811 E5.69197
G1 X1.984 Y-2.184 E5.83927
G1 X2.879 Y.581 E5.98596
G1 X.894 Y2.807 E6.13655
G1 X-1.984 Y2.182 E6.28521
G1 X-2.141 Y1.697 E6.31095
M204 S1000
G1 X-2.511 Y2.462 F12000
M204 S800
;TYPE:External perimeter
;WIDTH:0.61
G1 F900
G1 X-3.541 Y-.719 E6.46862
G1 X-1.073 Y-3.458 E6.64247
G1 X2.439 Y-2.685 E6.81205
G1 X3.542 Y.72 E6.98081
G1 X1.104 Y3.454 E7.15351
G1 X-2.439 Y2.685 E7.32444
G1 X-2.483 Y2.548 E7.33123
M204 S1000
G1 X-2.275 Y1.91 F12000
; stop printing object central_shaft.STL id:0 copy 0
M106 S127.5
;LAYER_CHANGE
;Z:0.8
;HEIGHT:0.2
; **** Start of Before Layer Change GCode: FlashForge Creator 3 ****
; FFPP-layer_z_height: 0.8 ; Value parsed by FFPP script
;layer:<FFPP-calculated-next_layer_height> ; Value substituted by FFPP script (FFPP-calculated-next_layer_height)
; **** End of Before Layer Change GCode: FlashForge Creator 3 ****
G1 Z.8 F720
; **** Start of After Layer Change GCode: FlashForge Creator 3 ****
; **** End of After Layer Change GCode: FlashForge Creator 3 ****
; printing object central_shaft.STL id:0 copy 0
G1 E3.33123 F1500
G92 E0
G1 X.103 Y-.111 F12000
G1 E4 F1500
M204 S800
;TYPE:Perimeter
;WIDTH:0.65
G1 F900
G1 X.14 Y.004 E4.00612
G1 X.024 Y.134 E4.0149
G1 X-.104 Y.106 E4.02156
G1 X-.136 Y.007 E4.02679
G1 X.015 Y-.131 E4.03713
M204 S1000
G1 X.462 Y-.654 F12000
M204 S800
G1 F900
G1 X.573 Y-.63 E4.04286
G1 X.825 Y.148 E4.08412
G1 X.242 Y.802 E4.12835
G1 X-.574 Y.625 E4.17051
G1 X-.822 Y-.139 E4.21105
G1 X-.222 Y-.805 E4.25627
G1 X.375 Y-.673 E4.28712
M204 S1000
G1 X-1.308 Y-.506 F12000
M204 S800
G1 F900
G1 X-.437 Y-1.474 E4.35284
G1 X1.044 Y-1.148 E4.42935
G1 X1.51 Y.292 E4.50576
G1 X.459 Y1.47 E4.58544
G1 X-1.044 Y1.144 E4.6631
G1 X-1.507 Y-.285 E4.73894
G1 X-1.369 Y-.439 E4.74942
M204 S1000
G1 X-1.884 Y.522 F12000
M204 S800
G1 F900
G1 X-2.193 Y-.432 E4.79999
G1 X-.651 Y-2.142 E4.91625
G1 X1.514 Y-1.666 E5.02816
G1 X2.195 Y.437 E5.13971
G1 X.676 Y2.139 E5.25484
G1 X-1.514 Y1.663 E5.368
G1 X-1.856 Y.607 E5.42403
M204 S1000
G1 X-2.169 Y1.612 F12000
M204 S800
G1 F900
G1 X-2.878 Y-.578 E5.54021
G1 X-.866 Y-2.811 E5.69198
G1 X1.984 Y-2.184 E5.83929
G1 X2.88 Y.581 E5.98597
G1 X.894 Y2.807 E6.13656
G1 X-1.984 Y2.182 E6.28522
G1 X-2.141 Y1.697 E6.31097
M204 S1000
G1 X-2.511 Y2.462 F12000
M204 S800
;TYPE:External perimeter
;WIDTH:0.61
G1 F900
G1 X-3.541 Y-.719 E6.46863
G1 X-1.073 Y-3.458 E6.64249
G1 X2.439 Y-2.685 E6.81207
G1 X3.542 Y.72 E6.98083
G1 X1.104 Y3.454 E7.15353
G1 X-2.439 Y2.685 E7.32446
G1 X-2.483 Y2.548 E7.33125
M204 S1000
G1 X-2.275 Y1.91 F12000
; stop printing object central_shaft.STL id:0 copy 0
M106 S255
;LAYER_CHANGE
;Z:1
;HEIGHT:0.2
; **** Start of Before Layer Change GCode: FlashForge Creator 3 ****
; FFPP-layer_z_height: 1 ; Value parsed by FFPP script
;layer:<FFPP-calculated-next_layer_height> ; Value substituted by FFPP script (FFPP-calculated-next_layer_height)
; **** End of Before Layer Change GCode: FlashForge Creator 3 ****
G1 Z1 F720
; **** Start of After Layer Change GCode: FlashForge Creator 3 ****
; **** End of After Layer Change GCode: FlashForge Creator 3 ****
; printing object central_shaft.STL id:0 copy 0
G1 E3.33125 F1500
G92 E0
G1 X.103 Y-.111 F12000
G1 E4 F1500
M204 S800
;TYPE:Perimeter
;WIDTH:0.65
G1 F900
G1 X.14 Y.004 E4.00612
G1 X.024 Y.134 E4.0149
G1 X-.104 Y.106 E4.02156
G1 X-.136 Y.007 E4.02679
G1 X.015 Y-.131 E4.03713
M204 S1000
G1 X.462 Y-.654 F12000
M204 S800
G1 F900
G1 X.573 Y-.63 E4.04285
G1 X.825 Y.148 E4.08412
G1 X.242 Y.802 E4.12835
G1 X-.574 Y.625 E4.17051
G1 X-.822 Y-.139 E4.21105
G1 X-.222 Y-.805 E4.25627
G1 X.375 Y-.673 E4.28711
M204 S1000
G1 X-1.308 Y-.506 F12000
M204 S800
G1 F900
G1 X-.437 Y-1.474 E4.35284
G1 X1.044 Y-1.148 E4.42935
G1 X1.51 Y.292 E4.50575
G1 X.459 Y1.47 E4.58544
G1 X-1.044 Y1.144 E4.6631
G1 X-1.507 Y-.285 E4.73894
G1 X-1.369 Y-.439 E4.74942
M204 S1000
G1 X-1.884 Y.522 F12000
M204 S800
G1 F900
G1 X-2.193 Y-.432 E4.79999
G1 X-.651 Y-2.142 E4.91625
G1 X1.514 Y-1.666 E5.02816
G1 X2.195 Y.437 E5.1397
G1 X.676 Y2.139 E5.25484
G1 X-1.514 Y1.663 E5.368
G1 X-1.856 Y.607 E5.42403
M204 S1000
G1 X-2.169 Y1.612 F12000
M204 S800
G1 F900
G1 X-2.878 Y-.578 E5.5402
G1 X-.866 Y-2.811 E5.69197
G1 X1.984 Y-2.184 E5.83928
G1 X2.88 Y.581 E5.98597
G1 X.894 Y2.807 E6.13656
G1 X-1.984 Y2.182 E6.28522
G1 X-2.141 Y1.697 E6.31096
M204 S1000
G1 X-2.511 Y2.462 F12000
M204 S800
;TYPE:External perimeter
;WIDTH:0.61
G1 F900
G1 X-3.541 Y-.719 E6.46863
G1 X-1.073 Y-3.458 E6.64248
G1 X2.439 Y-2.685 E6.81206
G1 X3.542 Y.72 E6.98083
G1 X1.104 Y3.454 E7.15352
G1 X-2.439 Y2.685 E7.32446
G1 X-2.483 Y2.548 E7.33125
M204 S1000
G1 X-2.275 Y1.91 F12000
; stop printing object central_shaft.STL id:0 copy 0
;LAYER_CHANGE
;Z:1.2
;HEIGHT:0.2
; **** Start of Before Layer Change GCode: FlashForge Creator 3 ****
; FFPP-layer_z_height: 1.2 ; Value parsed by FFPP script
;layer:<FFPP-calculated-next_layer_height> ; Value substituted by FFPP script (FFPP-calculated-next_layer_height)
; **** End of Before Layer Change GCode: FlashForge Creator 3 ****
G1 Z1.2 F720
; **** Start of After Layer Change GCode: FlashForge Creator 3 ****
; **** End of After Layer Change GCode: FlashForge Creator 3 ****
; printing object central_shaft.STL id:0 copy 0
G1 E3.33125 F1500
G92 E0
G1 X.103 Y-.111 F12000
G1 E4 F1500
M204 S800
;TYPE:Perimeter
;WIDTH:0.65
G1 F900
G1 X.14 Y.004 E4.00612
G1 X.024 Y.134 E4.0149
G1 X-.104 Y.106 E4.02156
G1 X-.136 Y.007 E4.02679
G1 X.015 Y-.131 E4.03713
M204 S1000
G1 X.462 Y-.654 F12000
M204 S800
G1 F900
G1 X.573 Y-.63 E4.04285
G1 X.825 Y.148 E4.08411
G1 X.242 Y.802 E4.12835
G1 X-.574 Y.625 E4.17051
G1 X-.822 Y-.139 E4.21105
G1 X-.222 Y-.805 E4.25627
G1 X.375 Y-.673 E4.28711
M204 S1000
G1 X-1.308 Y-.506 F12000
M204 S800
G1 F900
G1 X-.437 Y-1.474 E4.35284
G1 X1.044 Y-1.148 E4.42935
G1 X1.51 Y.292 E4.50575
G1 X.459 Y1.47 E4.58543
G1 X-1.044 Y1.144 E4.66309
G1 X-1.507 Y-.285 E4.73894
G1 X-1.369 Y-.439 E4.74941
M204 S1000
G1 X-1.884 Y.522 F12000
M204 S800
G1 F900
G1 X-2.193 Y-.432 E4.79999
G1 X-.651 Y-2.142 E4.91625
G1 X1.514 Y-1.666 E5.02816
G1 X2.195 Y.437 E5.1397
G1 X.676 Y2.139 E5.25484
G1 X-1.514 Y1.663 E5.368
G1 X-1.856 Y.607 E5.42403
M204 S1000
G1 X-2.169 Y1.612 F12000
M204 S800
G1 F900
G1 X-2.878 Y-.578 E5.5402
G1 X-.866 Y-2.811 E5.69197
G1 X1.984 Y-2.184 E5.83928
G1 X2.879 Y.581 E5.98596
G1 X.894 Y2.807 E6.13655
G1 X-1.984 Y2.182 E6.28521
G1 X-2.141 Y1.697 E6.31096
M204 S1000
G1 X-2.511 Y2.462 F12000
M204 S800
;TYPE:External perimeter
;WIDTH:0.61
G1 F900
G1 X-3.541 Y-.719 E6.46862
G1 X-1.073 Y-3.458 E6.64248
G1 X2.439 Y-2.685 E6.81206
G1 X3.542 Y.72 E6.98082
G1 X1.104 Y3.454 E7.15352
G1 X-2.439 Y2.685 E7.32445
G1 X-2.483 Y2.548 E7.33124
M204 S1000
G1 X-2.275 Y1.91 F12000
; stop printing object central_shaft.STL id:0 copy 0
