; This file has been post-processed by C:\Users\melvi\git-repos\PrusaSlicer-FlashForge\flashforge_post_process.py
; Original File Location: C:\Users\melvi\AppData\Local\Temp\.50080.gcode.pp


; generated by PrusaSlicer 2.4.0+win64 on 2022-01-20 at 21:53:02 UTC

; 

; external perimeters extrusion width = 0.61mm
; perimeters extrusion width = 0.65mm
; infill extrusion width = 0.70mm
; solid infill extrusion width = 0.65mm
; top infill extrusion width = 0.60mm
; first layer extrusion width = 0.65mm

M107
;TYPE:Custom
; **** Start of Start GCode: FlashForge Creator 3 ****
M118 X150.00 Y125.00 Z200.00 T0 T1
; todo: need to post process Active extruders in m118

G90 ; absolute positioning
M108 T0 ; tool change
G1 X187 Y0.000 F10800 ; Move initial extruder over anti-ooze plate (9-point Bed Levelling sometimes leaves it off plate)

; Set Filament Z-Offset
G1 Z0.000 F720 ;
G92 Z-0.06 ; Value substituted by FFPP script (FFPP-filament_extra_z_offset)(negative is printing higher in air)

M140 S85 T0 ; set bed temperature
M104 S250 T0 ; set right extruder temp
M104 S0 T1 ; set left extruder temp

M7 T0 ; wait for platform
M6 T0 ; wait for temp
M6 T1 ; wait for temp

M106 ; Extruder/Heat Break fan on
M651 S255 ; chassis fan on (after heating reached to speed up heating)

; Purge Filament (gets rid of any curling filament too)
G1 X172 F10800 ; Move initial extruder off anti-ooze plate
G92 E0 ; reset extrusion distance 
G1 F150 E20 ; feed 20mm of feed stock 
G92 E0 ; reset extrusion distance


; M652 ; chassis fan off 
; M109 T1/2 only if dupe or mirror

;layer_count: 13 ; Value substituted by FFPP script (FFPP-calculated-total_layer_count)
; **** End of Start GCode: FlashForge Creator 3 ****
G21 ; set units to millimeters
G90 ; use absolute coordinates
M82 ; use absolute distances for extrusion
G92 E0
; **** Start of Filament-Specific Start GCode: Filaments.ca PETG Filament - Transparent (Hardened 0.6mm) ****
; FFPP-filament_extra_z_offset: 0.06 ; Value parsed by FFPP script
; **** End of Filament-Specific Start GCode: EconoFil PETG ****
M107
;LAYER_CHANGE
;Z:0.2
;HEIGHT:0.2
; **** Start of Before Layer Change GCode: FlashForge Creator 3 ****
; FFPP-layer_z_height: 0.2 ; Value parsed by FFPP script
;layer:0.200 ; Value substituted by FFPP script (FFPP-calculated-next_layer_height)
; **** End of Before Layer Change GCode: FlashForge Creator 3 ****
G1 Z.2 F720
; **** Start of After Layer Change GCode: FlashForge Creator 3 ****
; **** End of After Layer Change GCode: FlashForge Creator 3 ****
G1 E-3 F1800
G92 E0
G1 X-10.395 Y58.888 F10800
G1 E3 F1800
M204 S800
;TYPE:Skirt/Brim
;WIDTH:0.65
G1 F1200
G1 X-14.967 Y57.917 E3.23591
G1 X-20.47 Y56.208 E3.52681
G1 X-25.763 Y53.987 E3.81655
G1 X-30.819 Y51.269 E4.10631
G1 X-35.991 Y47.781 E4.42122
G1 X-40.405 Y44.111 E4.71098
G1 X-44.462 Y40.019 E5.00188
G1 X-48.388 Y35.17 E5.3168
G1 X-51.536 Y30.37 E5.60655
G1 X-54.21 Y25.291 E5.89631
G1 X-56.557 Y19.486 E6.21237
G1 X-58.164 Y13.976 E6.50213
G1 X-59.236 Y8.336 E6.79188
G1 X-59.762 Y2.62 E7.08163
G1 X-59.709 Y-3.641 E7.3977
G1 X-59.085 Y-9.347 E7.68746
G1 X-57.911 Y-14.989 E7.97835
G1 X-56.208 Y-20.47 E8.26811
G1 X-53.987 Y-25.763 E8.55786
G1 X-51.269 Y-30.819 E8.84761
G1 X-47.781 Y-35.991 E9.16253
G1 X-44.096 Y-40.422 E9.45343
G1 X-39.695 Y-44.752 E9.76508
G1 X-35.17 Y-48.388 E10.0581
G1 X-30.351 Y-51.548 E10.349
G1 X-25.271 Y-54.22 E10.63875
G1 X-19.957 Y-56.392 E10.9285
G1 X-13.976 Y-58.164 E11.24343
G1 X-8.337 Y-59.236 E11.53318
G1 X-2.621 Y-59.762 E11.82294
G1 X3.142 Y-59.737 E12.11383
G1 X9.347 Y-59.085 E12.42876
G1 X14.967 Y-57.917 E12.71851
G1 X20.47 Y-56.208 E13.0094
G1 X26.155 Y-53.798 E13.3211
G1 X31.246 Y-51.011 E13.61408
G1 X36.009 Y-47.767 E13.90498
G1 X40.422 Y-44.096 E14.19473
G1 X44.462 Y-40.019 E14.48448
G1 X48.388 Y-35.17 E14.79941
G1 X51.537 Y-30.371 E15.08916
G1 X54.22 Y-25.271 E15.38006
G1 X56.557 Y-19.486 E15.69497
G1 X58.164 Y-13.976 E15.98473
G1 X59.236 Y-8.337 E16.27448
G1 X59.763 Y-2.598 E16.56538
G1 X59.737 Y3.142 E16.85514
G1 X59.161 Y8.853 E17.14489
G1 X57.917 Y14.967 E17.45981
G1 X56.216 Y20.449 E17.74956
G1 X53.987 Y25.763 E18.04046
G1 X51.084 Y31.125 E18.34828
G1 X47.781 Y35.991 E18.64513
G1 X44.096 Y40.422 E18.93603
G1 X40.019 Y44.462 E19.22579
G1 X35.17 Y48.388 E19.54071
G1 X30.351 Y51.548 E19.83161
G1 X25.271 Y54.22 E20.12135
G1 X19.957 Y56.392 E20.41111
G1 X14.114 Y58.13 E20.71884
G1 X8.337 Y59.236 E21.01578
G1 X2.598 Y59.763 E21.30669
G1 X-3.142 Y59.737 E21.59644
G1 X-6.241 Y59.493 E21.75337
G1 X-10.307 Y58.904 E21.96073
M204 S1000
; printing object rotor_adaptor_ring.STL id:0 copy 0
;WIPE_START
G1 F8640
G1 X-14.967 Y57.917 E21.01798
G1 X-20.47 Y56.208 E19.87744
G1 X-24.042 Y54.709 E19.11073
;WIPE_END
G1 E18.96073 F1800
G92 E0
G1 X-.628 Y55.69 F10800
G1 E3 F1800
M204 S800
;TYPE:Perimeter
G1 F1200
G1 X-5.341 Y55.464 E3.23814
G1 X-10.633 Y54.696 E3.50811
G1 X-16.135 Y53.333 E3.79424
G1 X-21.323 Y51.479 E4.07231
G1 X-26.159 Y49.198 E4.34224
G1 X-30.754 Y46.464 E4.61214
G1 X-35.068 Y43.302 E4.88214
G1 X-39.399 Y39.402 E5.17635
G1 X-42.995 Y35.443 E5.44635
G1 X-46.196 Y31.157 E5.71635
G1 X-49.198 Y26.161 E6.01056
G1 X-51.479 Y21.323 E6.28057
G1 X-53.286 Y16.291 E6.55046
G1 X-54.602 Y11.109 E6.82036
G1 X-55.416 Y5.822 E7.09037
G1 X-55.721 Y.002 E7.38457
G1 X-55.465 Y-5.341 E7.6546
G1 X-54.682 Y-10.709 E7.92844
G1 X-53.287 Y-16.29 E8.21881
G1 X-51.48 Y-21.324 E8.4888
G1 X-49.199 Y-26.161 E8.75878
G1 X-46.273 Y-31.044 E9.04611
G1 X-42.997 Y-35.443 E9.32299
G1 X-39.402 Y-39.402 E9.59293
G1 X-35.443 Y-42.998 E9.8629
G1 X-30.908 Y-46.364 E10.14799
G1 X-26.161 Y-49.2 E10.42713
G1 X-21.324 Y-51.481 E10.69707
G1 X-16.292 Y-53.288 E10.96698
G1 X-11.109 Y-54.604 E11.23688
G1 X-5.823 Y-55.418 E11.50689
G1 X-.025 Y-55.723 E11.79998
G1 X5.341 Y-55.467 E12.07112
G1 X10.633 Y-54.699 E12.34105
G1 X15.883 Y-53.411 E12.61394
G1 X21.324 Y-51.481 E12.90538
G1 X26.587 Y-48.971 E13.19969
G1 X31.16 Y-46.196 E13.4697
G1 X35.444 Y-42.997 E13.73961
G1 X39.402 Y-39.402 E14.00951
G1 X42.997 Y-35.444 E14.27942
G1 X46.196 Y-31.16 E14.54933
G1 X48.97 Y-26.587 E14.81933
G1 X51.48 Y-21.325 E15.1136
G1 X53.349 Y-16.084 E15.39446
G1 X54.698 Y-10.634 E15.6779
G1 X55.465 Y-5.341 E15.94787
G1 X55.721 Y0 E16.21777
G1 X55.465 Y5.341 E16.48771
G1 X54.665 Y10.796 E16.76602
G1 X53.287 Y16.29 E17.05192
G1 X51.479 Y21.323 E17.32188
G1 X49.199 Y26.159 E17.59178
G1 X46.465 Y30.754 E17.86168
G1 X43.302 Y35.068 E18.13168
G1 X39.401 Y39.4 E18.42599
G1 X35.068 Y43.302 E18.7203
G1 X30.754 Y46.465 E18.99031
G1 X26.159 Y49.198 E19.2602
G1 X21.323 Y51.479 E19.5301
G1 X16.289 Y53.286 E19.8001
G1 X10.634 Y54.696 E20.0943
G1 X5.341 Y55.464 E20.36431
G1 X-.539 Y55.695 E20.66131
M204 S1000
G1 X0 Y55.113 F10800
M204 S800
;TYPE:External perimeter
G1 F1200
G1 X-5.282 Y54.859 E20.92827
G1 X-10.517 Y54.1 E21.19524
G1 X-15.96 Y52.751 E21.47831
G1 X-21.091 Y50.918 E21.75335
G1 X-25.874 Y48.662 E22.02032
G1 X-30.419 Y45.958 E22.28727
G1 X-34.684 Y42.83 E22.55427
G1 X-38.97 Y38.971 E22.8454
G1 X-42.526 Y35.056 E23.11238
G1 X-45.691 Y30.818 E23.37937
G1 X-48.662 Y25.874 E23.6705
G1 X-50.918 Y21.091 E23.9375
G1 X-52.705 Y16.113 E24.20446
G1 X-54.007 Y10.988 E24.47141
G1 X-54.812 Y5.76 E24.7384
G1 X-55.113 Y0 E25.02953
G1 X-54.86 Y-5.283 E25.29653
G1 X-54.086 Y-10.592 E25.56735
G1 X-52.706 Y-16.113 E25.85466
G1 X-50.919 Y-21.091 E26.12165
G1 X-48.663 Y-25.875 E26.38863
G1 X-45.768 Y-30.706 E26.6729
G1 X-42.528 Y-35.057 E26.94676
G1 X-38.972 Y-38.972 E27.21373
G1 X-35.057 Y-42.528 E27.48072
G1 X-30.571 Y-45.859 E27.76275
G1 X-25.875 Y-48.664 E28.03886
G1 X-21.092 Y-50.92 E28.30583
G1 X-16.114 Y-52.707 E28.5728
G1 X-10.988 Y-54.009 E28.83976
G1 X-5.76 Y-54.813 E29.10676
G1 X-.023 Y-55.115 E29.39677
G1 X5.283 Y-54.862 E29.6649
G1 X10.517 Y-54.103 E29.93187
G1 X15.709 Y-52.829 E30.20174
G1 X21.092 Y-50.92 E30.49005
G1 X26.298 Y-48.436 E30.78122
G1 X30.82 Y-45.692 E31.04822
G1 X35.057 Y-42.528 E31.31518
G1 X38.972 Y-38.972 E31.58214
G1 X42.528 Y-35.057 E31.8491
G1 X45.692 Y-30.82 E32.11607
G1 X48.436 Y-26.298 E32.38306
G1 X50.919 Y-21.092 E32.67421
G1 X52.767 Y-15.909 E32.95197
G1 X54.101 Y-10.517 E33.23237
G1 X54.86 Y-5.283 E33.49936
G1 X55.113 Y0 E33.76631
G1 X54.86 Y5.282 E34.03328
G1 X54.068 Y10.678 E34.30856
G1 X52.705 Y16.113 E34.5914
G1 X50.918 Y21.091 E34.85838
G1 X48.662 Y25.874 E35.12534
G1 X45.958 Y30.419 E35.39229
G1 X42.83 Y34.684 E35.65928
G1 X38.971 Y38.971 E35.95044
G1 X34.684 Y42.83 E36.24161
G1 X30.419 Y45.958 E36.5086
G1 X25.874 Y48.662 E36.77556
G1 X21.091 Y50.917 E37.04251
G1 X16.113 Y52.705 E37.3095
G1 X10.517 Y54.1 E37.60062
G1 X5.282 Y54.859 E37.86761
G1 X.09 Y55.108 E38.13003
M204 S1000
G1 X-.3 Y55.632 F10800
G1 X-.599 Y56.25
M204 S800
;TYPE:Perimeter
G1 F1200
G1 X-5.392 Y56.02 E38.37224
G1 X-11.222 Y55.149 E38.66978
G1 X-16.455 Y53.82 E38.94231
G1 X-21.537 Y51.995 E39.21491
G1 X-26.422 Y49.692 E39.48751
G1 X-31.061 Y46.931 E39.76002
G1 X-35.8 Y43.425 E40.05759
G1 X-39.795 Y39.796 E40.33003
G1 X-43.588 Y35.6 E40.61554
G1 X-46.931 Y31.061 E40.90011
G1 X-49.692 Y26.421 E41.17266
G1 X-51.994 Y21.538 E41.44518
G1 X-53.924 Y16.109 E41.73602
G1 X-55.245 Y10.738 E42.01525
G1 X-56.02 Y5.394 E42.28782
G1 X-56.279 Y0 E42.56042
G1 X-56.02 Y-5.393 E42.83296
G1 X-55.181 Y-11.058 E43.12203
G1 X-53.819 Y-16.455 E43.40301
G1 X-51.994 Y-21.537 E43.67558
G1 X-49.691 Y-26.421 E43.94818
G1 X-46.93 Y-31.06 E44.22068
G1 X-43.443 Y-35.776 E44.51673
G1 X-39.794 Y-39.795 E44.79074
G1 X-35.797 Y-43.425 E45.0633
G1 X-31.378 Y-46.718 E45.34149
G1 X-26.419 Y-49.691 E45.63335
G1 X-21.536 Y-51.994 E45.90586
G1 X-16.436 Y-53.824 E46.17939
G1 X-10.736 Y-55.244 E46.47591
G1 X-5.394 Y-56.018 E46.74838
G1 X.109 Y-56.277 E47.02649
G1 X5.884 Y-55.969 E47.31842
G1 X11.22 Y-55.148 E47.59094
G1 X16.454 Y-53.818 E47.86353
G1 X21.536 Y-51.994 E48.13613
G1 X26.42 Y-49.691 E48.40866
G1 X31.274 Y-46.787 E48.69421
G1 X35.798 Y-43.425 E48.97872
G1 X39.794 Y-39.795 E49.25126
G1 X43.425 Y-35.798 E49.52382
G1 X46.76 Y-31.316 E49.80581
G1 X49.691 Y-26.42 E50.09387
G1 X51.994 Y-21.537 E50.36641
G1 X53.819 Y-16.456 E50.63891
G1 X55.245 Y-10.737 E50.93647
G1 X56.02 Y-5.394 E51.20897
G1 X56.279 Y0 E51.48157
G1 X56.02 Y5.392 E51.75407
G1 X55.149 Y11.222 E52.05163
G1 X53.82 Y16.454 E52.32413
G1 X51.995 Y21.537 E52.59673
G1 X49.692 Y26.421 E52.86934
G1 X46.932 Y31.061 E53.14183
G1 X43.425 Y35.799 E53.4394
G1 X39.797 Y39.794 E53.71181
G1 X35.452 Y43.709 E54.007
G1 X31.062 Y46.93 E54.28188
G1 X26.422 Y49.692 E54.55448
G1 X21.537 Y51.995 E54.82708
G1 X16.456 Y53.819 E55.0996
G1 X10.838 Y55.225 E55.39195
G1 X5.394 Y56.02 E55.66967
G1 X-.509 Y56.255 E55.96789
M204 S1000
G1 X0 Y56.887 F10800
M204 S800
;TYPE:External perimeter
G1 F1200
G1 X-5.452 Y56.625 E56.2434
G1 X-11.342 Y55.745 E56.54402
G1 X-16.632 Y54.401 E56.81956
G1 X-21.77 Y52.557 E57.0951
G1 X-26.707 Y50.228 E57.37065
G1 X-31.397 Y47.438 E57.64616
G1 X-36.185 Y43.895 E57.94681
G1 X-40.225 Y40.225 E58.22231
G1 X-44.058 Y35.985 E58.51086
G1 X-47.437 Y31.397 E58.79846
G1 X-50.228 Y26.707 E59.07399
G1 X-52.556 Y21.77 E59.34951
G1 X-54.506 Y16.284 E59.64341
G1 X-55.842 Y10.854 E59.92567
G1 X-56.625 Y5.452 E60.2012
G1 X-56.887 Y0 E60.47675
G1 X-56.625 Y-5.452 E60.75227
G1 X-55.777 Y-11.177 E61.0444
G1 X-54.4 Y-16.632 E61.32841
G1 X-52.556 Y-21.77 E61.60395
G1 X-50.227 Y-26.707 E61.8795
G1 X-47.437 Y-31.397 E62.155
G1 X-43.913 Y-36.161 E62.45412
G1 X-40.224 Y-40.224 E62.73114
G1 X-36.184 Y-43.894 E63.00667
G1 X-31.716 Y-47.223 E63.28789
G1 X-26.706 Y-50.227 E63.58281
G1 X-21.769 Y-52.555 E63.85832
G1 X-16.612 Y-54.405 E64.13487
G1 X-10.853 Y-55.84 E64.43445
G1 X-5.452 Y-56.623 E64.70995
G1 X.111 Y-56.885 E64.99108
G1 X5.947 Y-56.573 E65.28608
G1 X11.341 Y-55.743 E65.5616
G1 X16.632 Y-54.4 E65.83713
G1 X21.769 Y-52.555 E66.11267
G1 X26.706 Y-50.227 E66.38819
G1 X31.612 Y-47.292 E66.67678
G1 X36.184 Y-43.894 E66.96433
G1 X40.224 Y-40.224 E67.23985
G1 X43.894 Y-36.184 E67.51537
G1 X47.265 Y-31.654 E67.80041
G1 X50.227 Y-26.706 E68.09152
G1 X52.556 Y-21.77 E68.36704
G1 X54.4 Y-16.633 E68.64255
G1 X55.841 Y-10.854 E68.94319
G1 X56.625 Y-5.453 E69.2187
G1 X56.887 Y0 E69.49424
G1 X56.625 Y5.452 E69.76976
G1 X55.745 Y11.342 E70.0704
G1 X54.401 Y16.632 E70.34591
G1 X52.557 Y21.769 E70.62145
G1 X50.228 Y26.707 E70.897
G1 X47.438 Y31.397 E71.17251
G1 X43.895 Y36.185 E71.47316
G1 X40.226 Y40.224 E71.74863
G1 X35.836 Y44.18 E72.0469
G1 X31.398 Y47.437 E72.32479
G1 X26.707 Y50.228 E72.60034
G1 X21.77 Y52.557 E72.87589
G1 X16.633 Y54.401 E73.1514
G1 X10.955 Y55.822 E73.44682
G1 X5.452 Y56.625 E73.72757
G1 X.09 Y56.883 E73.99856
M204 S1000
G1 X-.3 Y56.367 F10800
; stop printing object rotor_adaptor_ring.STL id:0 copy 0
;LAYER_CHANGE
;Z:0.4
;HEIGHT:0.2
; **** Start of Before Layer Change GCode: FlashForge Creator 3 ****
; FFPP-layer_z_height: 0.4 ; Value parsed by FFPP script
;layer:0.200 ; Value substituted by FFPP script (FFPP-calculated-next_layer_height)
; **** End of Before Layer Change GCode: FlashForge Creator 3 ****
G1 Z.4 F720
; **** Start of After Layer Change GCode: FlashForge Creator 3 ****
; **** End of After Layer Change GCode: FlashForge Creator 3 ****
M104 S245 ; set temperature
M140 S90 ; set bed temperature
G1 E70.99856 F1800
G92 E0
G1 X.141 Y59.806 F10800
G1 E3 F1800
;TYPE:Skirt/Brim
G1 F3000
G1 X-6.241 Y59.493 E3.32256
G1 X-11.937 Y58.616 E3.61347
G1 X-17.977 Y57.054 E3.92839
G1 X-23.363 Y55.068 E4.21814
G1 X-28.533 Y52.576 E4.50789
G1 X-33.46 Y49.586 E4.79879
G1 X-38.059 Y46.151 E5.08854
G1 X-42.658 Y41.936 E5.40347
G1 X-46.481 Y37.654 E5.69322
G1 X-49.889 Y33.007 E5.98412
G1 X-52.823 Y28.073 E6.27387
G1 X-55.459 Y22.419 E6.58879
G1 X-57.359 Y16.979 E6.87969
G1 X-58.723 Y11.403 E7.16944
G1 X-59.545 Y5.722 E7.45919
G1 X-59.817 Y-.511 E7.77412
G1 X-59.491 Y-6.264 E8.06501
G1 X-58.616 Y-11.938 E8.35477
G1 X-57.054 Y-17.977 E8.66969
G1 X-55.069 Y-23.363 E8.95945
G1 X-52.576 Y-28.534 E9.2492
G1 X-49.586 Y-33.46 E9.54009
G1 X-45.832 Y-38.443 E9.85502
G1 X-41.936 Y-42.659 E10.14477
G1 X-37.637 Y-46.496 E10.43566
G1 X-33.007 Y-49.889 E10.72542
G1 X-27.632 Y-53.055 E11.04034
G1 X-22.419 Y-55.46 E11.3301
G1 X-16.979 Y-57.36 E11.62099
G1 X-11.403 Y-58.723 E11.91074
G1 X-5.722 Y-59.545 E12.2005
G1 X.511 Y-59.818 E12.51542
G1 X6.264 Y-59.491 E12.80631
G1 X11.937 Y-58.617 E13.09607
G1 X17.916 Y-57.073 E13.40777
G1 X23.363 Y-55.069 E13.70075
G1 X28.553 Y-52.565 E13.99164
G1 X33.46 Y-49.586 E14.28139
G1 X38.443 Y-45.832 E14.59632
G1 X42.658 Y-41.936 E14.88607
G1 X46.496 Y-37.637 E15.17697
G1 X49.889 Y-33.007 E15.46672
G1 X53.055 Y-27.632 E15.78164
G1 X55.459 Y-22.419 E16.0714
G1 X57.359 Y-16.979 E16.36229
G1 X58.723 Y-11.403 E16.65205
G1 X59.591 Y-5.225 E16.96696
G1 X59.817 Y.511 E17.25672
G1 X59.493 Y6.241 E17.54647
G1 X58.616 Y11.937 E17.83737
G1 X57.202 Y17.5 E18.12712
G1 X55.069 Y23.363 E18.44205
G1 X52.576 Y28.533 E18.7318
G1 X49.586 Y33.46 E19.0227
G1 X45.832 Y38.442 E19.33762
G1 X41.936 Y42.658 E19.62737
G1 X37.655 Y46.481 E19.91712
G1 X33.007 Y49.889 E20.20803
G1 X27.632 Y53.055 E20.52294
G1 X22.419 Y55.459 E20.8127
G1 X17 Y57.353 E21.10246
G1 X11.403 Y58.723 E21.39336
G1 X5.367 Y59.578 E21.70108
G1 X.231 Y59.804 E21.9606
; printing object rotor_adaptor_ring.STL id:0 copy 0
;WIPE_START
G1 F8640
G1 X-6.241 Y59.493 E20.67813
G1 X-11.937 Y58.616 E19.53755
G1 X-14.026 Y58.076 E19.1106
;WIPE_END
G1 E18.9606 F1800
G92 E0
G1 X-.627 Y55.65 F10800
G1 E3 F1800
M204 S800
;TYPE:Perimeter
G1 F2700
G1 X-5.337 Y55.424 E3.238
G1 X-10.626 Y54.657 E3.50779
G1 X-16.238 Y53.26 E3.7997
G1 X-21.308 Y51.442 E4.07159
G1 X-26.142 Y49.162 E4.34139
G1 X-31.1 Y46.185 E4.63332
G1 X-35.417 Y42.964 E4.9052
G1 X-39.372 Y39.372 E5.17491
G1 X-42.965 Y35.417 E5.44462
G1 X-46.162 Y31.135 E5.71441
G1 X-49.143 Y26.178 E6.00637
G1 X-51.442 Y21.308 E6.27822
G1 X-53.248 Y16.277 E6.54803
G1 X-54.657 Y10.626 E6.84203
G1 X-55.424 Y5.337 E7.11183
G1 X-55.681 Y0 E7.38154
G1 X-55.424 Y-5.337 E7.65125
G1 X-54.657 Y-10.627 E7.92105
G1 X-53.248 Y-16.278 E8.21505
G1 X-51.442 Y-21.308 E8.48485
G1 X-49.163 Y-26.141 E8.75456
G1 X-46.43 Y-30.734 E9.02436
G1 X-42.966 Y-35.416 E9.31836
