; This file has been post-processed by C:\Users\melvi\git-repos\PrusaSlicer-FlashForge\flashforge_post_process.py
; Original File Location: C:\Users\melvi\AppData\Local\Temp\.44540.gcode.pp


; generated by PrusaSlicer 2.4.0+win64 on 2022-01-26 at 20:23:10 UTC

; 

; external perimeters extrusion width = 0.61mm
; perimeters extrusion width = 0.65mm
; infill extrusion width = 0.70mm
; solid infill extrusion width = 0.65mm
; top infill extrusion width = 0.60mm
; first layer extrusion width = 0.65mm

M107
;TYPE:Custom
; **** Start of Start GCode: FlashForge Creator 3 ****
M118 X150.00 Y125.00 Z200.00 T0 T1
; todo: need to post process Active extruders in m118

G90 ; absolute positioning
M108 T0 ; tool change
G1 X187 Y0.000 F10800 ; Move initial extruder over anti-ooze plate (9-point Bed Levelling sometimes leaves it off plate)

; Set Filament Z-Offset
G1 Z0.000 F720 ;
G92 Z-0.06 ; Value substituted by FFPP script (FFPP-filament_extra_z_offset)(negative is printing higher in air)

M140 S70 T0 ; set bed temperature
M104 S225 T0 ; set right extruder temp
M104 S0 T1 ; set left extruder temp

M7 T0 ; wait for platform
M6 T0 ; wait for temp
M6 T1 ; wait for temp

M106 ; Extruder/Heat Break fan on
M651 S255 ; chassis fan on (after heating reached to speed up heating)

; Purge Filament (gets rid of any curling filament too)
G1 X172 F10800 ; Move initial extruder off anti-ooze plate
G92 E0 ; reset extrusion distance 
G1 F150 E20 ; feed 20mm of feed stock 
G92 E0 ; reset extrusion distance


; M652 ; chassis fan off 
; M109 T1/2 only if dupe or mirror

;layer_count: 15 ; Value substituted by FFPP script (FFPP-calculated-total_layer_count)
; **** End of Start GCode: FlashForge Creator 3 ****
G21 ; set units to millimeters
G90 ; use absolute coordinates
M82 ; use absolute distances for extrusion
G92 E0
; **** Start of Filament-Specific Start GCode: EconoFil Enhanced PETG - Black (Hardened 0.6mm) ****
; FFPP-filament_extra_z_offset: 0.06 ; Value parsed by FFPP script
; **** End of Filament-Specific Start GCode: EconoFil PETG ****
M107
;LAYER_CHANGE
;Z:0.15
;HEIGHT:0.15
; **** Start of Before Layer Change GCode: FlashForge Creator 3 ****
; FFPP-layer_z_height: 0.15 ; Value parsed by FFPP script
;layer:0.150 ; Value substituted by FFPP script (FFPP-calculated-next_layer_height)
; **** End of Before Layer Change GCode: FlashForge Creator 3 ****
G1 Z.15 F720
; **** Start of After Layer Change GCode: FlashForge Creator 3 ****
; **** End of After Layer Change GCode: FlashForge Creator 3 ****
G1 E-3 F1800
G92 E0
G1 X18.471 Y56.886 F10800
G1 E3 F1800
M204 S800
;TYPE:Skirt/Brim
;WIDTH:0.65
G1 F1200
G1 X13.978 Y58.174 E3.18009
G1 X8.338 Y59.246 E3.40128
G1 X2.598 Y59.774 E3.62336
G1 X-3.143 Y59.748 E3.84455
G1 X-8.855 Y59.171 E4.06575
G1 X-14.969 Y57.927 E4.30615
G1 X-20.452 Y56.226 E4.52735
G1 X-26.11 Y53.832 E4.76403
G1 X-31.252 Y51.02 E4.98983
G1 X-35.998 Y47.789 E5.21102
G1 X-40.429 Y44.104 E5.4331
G1 X-44.47 Y40.026 E5.65429
G1 X-48.397 Y35.177 E5.8947
G1 X-51.546 Y30.376 E6.11589
G1 X-54.22 Y25.296 E6.33708
G1 X-56.567 Y19.49 E6.57837
G1 X-58.174 Y13.978 E6.79956
G1 X-59.246 Y8.338 E7.02076
G1 X-59.774 Y2.598 E7.24284
G1 X-59.748 Y-3.143 E7.46403
G1 X-59.171 Y-8.855 E7.68522
G1 X-57.927 Y-14.969 E7.92563
G1 X-56.218 Y-20.474 E8.1477
G1 X-53.997 Y-25.768 E8.3689
G1 X-51.279 Y-30.825 E8.5901
G1 X-47.789 Y-35.998 E8.8305
G1 X-44.104 Y-40.429 E9.05257
G1 X-39.653 Y-44.803 E9.29298
G1 X-35.177 Y-48.397 E9.51417
G1 X-30.376 Y-51.546 E9.73537
G1 X-25.275 Y-54.23 E9.95744
G1 X-19.532 Y-56.552 E10.19611
G1 X-13.978 Y-58.175 E10.41904
G1 X-8.338 Y-59.247 E10.64023
G1 X-2.598 Y-59.774 E10.86231
G1 X3.143 Y-59.748 E11.08351
G1 X8.855 Y-59.171 E11.3047
G1 X14.991 Y-57.922 E11.54598
G1 X20.474 Y-56.218 E11.76718
G1 X26.177 Y-53.8 E12.00584
G1 X31.252 Y-51.02 E12.22878
G1 X35.998 Y-47.79 E12.44998
G1 X40.429 Y-44.104 E12.67205
G1 X44.47 Y-40.026 E12.89324
G1 X48.369 Y-35.215 E13.13184
G1 X51.546 Y-30.376 E13.35484
G1 X54.229 Y-25.275 E13.57692
G1 X56.567 Y-19.49 E13.81732
G1 X58.174 Y-13.978 E14.03852
G1 X59.246 Y-8.338 E14.25971
G1 X59.773 Y-2.621 E14.48091
G1 X59.748 Y3.143 E14.70299
G1 X59.095 Y9.348 E14.94339
G1 X57.927 Y14.969 E15.16459
G1 X56.218 Y20.474 E15.38666
G1 X53.78 Y26.218 E15.62706
G1 X51.02 Y31.251 E15.84826
G1 X47.776 Y36.016 E16.07033
G1 X44.104 Y40.429 E16.29153
G1 X40.026 Y44.47 E16.51272
G1 X35.177 Y48.397 E16.75313
G1 X30.376 Y51.546 E16.97432
G1 X25.275 Y54.229 E17.19639
G1 X22.423 Y55.469 E17.3162
G1 X18.557 Y56.858 E17.47449
M204 S1000
; printing object rotor_adaptor_ring.STL id:0 copy 0
;WIPE_START
G1 F8640
G1 X13.978 Y58.174 E16.5316
G1 X8.338 Y59.246 E15.39535
G1 X4.46 Y59.603 E14.62449
;WIPE_END
G1 E14.47449 F1800
G92 E0
G1 X-.566 Y55.707 F10800
G1 E3 F1800
M204 S800
;TYPE:Perimeter
G1 F1200
G1 X-5.42 Y55.47 E3.18721
G1 X-11.11 Y54.616 E3.40891
G1 X-16.295 Y53.299 E3.61503
G1 X-21.33 Y51.492 E3.82114
G1 X-26.461 Y49.052 E4.04003
G1 X-31.166 Y46.207 E4.25188
G1 X-35.452 Y43.007 E4.45796
G1 X-39.411 Y39.411 E4.66402
G1 X-43.007 Y35.452 E4.87007
G1 X-46.207 Y31.167 E5.07613
G1 X-48.993 Y26.574 E5.28309
G1 X-51.493 Y21.331 E5.50689
G1 X-53.302 Y16.294 E5.7131
G1 X-54.713 Y10.637 E5.93773
G1 X-55.481 Y5.342 E6.14387
G1 X-55.738 Y0 E6.34993
G1 X-55.482 Y-5.342 E6.556
G1 X-54.715 Y-10.636 E6.76206
G1 X-53.443 Y-15.833 E6.96821
G1 X-51.497 Y-21.331 E7.19292
G1 X-48.986 Y-26.595 E7.41763
G1 X-46.211 Y-31.17 E7.62378
G1 X-43.011 Y-35.456 E7.82986
G1 X-39.415 Y-39.415 E8.03593
G1 X-35.456 Y-43.012 E8.24201
G1 X-31.17 Y-46.212 E8.44809
G1 X-26.596 Y-48.988 E8.65425
G1 X-21.334 Y-51.498 E8.87889
G1 X-16.297 Y-53.307 E9.08505
G1 X-11.113 Y-54.624 E9.29113
G1 X-5.825 Y-55.438 E9.49728
G1 X-.109 Y-55.742 E9.71782
G1 X5.342 Y-55.486 E9.92808
G1 X10.636 Y-54.718 E10.13418
G1 X15.834 Y-53.447 E10.34034
G1 X21.33 Y-51.5 E10.565
G1 X26.297 Y-49.149 E10.77674
G1 X31.169 Y-46.213 E10.99588
G1 X35.456 Y-43.012 E11.20202
G1 X39.415 Y-39.415 E11.4081
G1 X43.011 Y-35.455 E11.61418
G1 X46.211 Y-31.17 E11.82025
G1 X48.986 Y-26.595 E12.0264
G1 X51.496 Y-21.333 E12.25103
G1 X53.304 Y-16.297 E12.45718
G1 X54.62 Y-11.111 E12.66333
G1 X55.482 Y-5.344 E12.88796
G1 X55.738 Y0 E13.0941
G1 X55.481 Y5.344 E13.30024
G1 X54.619 Y11.11 E13.52487
G1 X53.301 Y16.296 E13.731
G1 X51.494 Y21.329 E13.93707
G1 X49.211 Y26.168 E14.1432
G1 X46.208 Y31.165 E14.36782
G1 X43.007 Y35.452 E14.57396
G1 X39.411 Y39.411 E14.78002
G1 X35.452 Y43.007 E14.98607
G1 X31.167 Y46.207 E15.19213
G1 X26.593 Y48.982 E15.39826
G1 X21.331 Y51.492 E15.62287
G1 X16.295 Y53.299 E15.82901
G1 X11.112 Y54.616 E16.03506
G1 X5.824 Y55.43 E16.24119
G1 X-.476 Y55.711 E16.48417
M204 S1000
G1 X.001 Y55.116 F10800
M204 S800
;TYPE:External perimeter
G1 F1200
G1 X-5.358 Y54.855 E16.69089
G1 X-10.988 Y54.01 E16.91021
G1 X-16.114 Y52.708 E17.114
G1 X-21.093 Y50.921 E17.31779
G1 X-26.168 Y48.508 E17.53431
G1 X-30.821 Y45.694 E17.7438
G1 X-35.059 Y42.529 E17.94758
G1 X-38.974 Y38.974 E18.15135
G1 X-42.53 Y35.059 E18.35512
G1 X-45.694 Y30.821 E18.55889
G1 X-48.449 Y26.28 E18.76351
G1 X-50.922 Y21.093 E18.98492
G1 X-52.71 Y16.114 E19.18874
G1 X-54.106 Y10.518 E19.41097
G1 X-54.865 Y5.283 E19.61478
G1 X-55.119 Y0 E19.81855
G1 X-54.866 Y-5.283 E20.02233
G1 X-54.108 Y-10.518 E20.22611
G1 X-52.851 Y-15.656 E20.42992
G1 X-50.925 Y-21.094 E20.65219
G1 X-48.442 Y-26.301 E20.87446
G1 X-45.698 Y-30.824 E21.07827
G1 X-42.534 Y-35.062 E21.28206
G1 X-38.978 Y-38.978 E21.48585
G1 X-35.062 Y-42.534 E21.68964
G1 X-30.825 Y-45.699 E21.89343
G1 X-26.302 Y-48.444 E22.09725
G1 X-21.096 Y-50.927 E22.3195
G1 X-16.117 Y-52.715 E22.52332
G1 X-10.99 Y-54.017 E22.72712
G1 X-5.761 Y-54.822 E22.93094
G1 X-.107 Y-55.124 E23.1491
G1 X5.283 Y-54.87 E23.35701
G1 X10.518 Y-54.111 E23.56081
G1 X15.657 Y-52.854 E23.76463
G1 X21.094 Y-50.928 E23.98689
G1 X26.005 Y-48.603 E24.19621
G1 X30.824 Y-45.7 E24.41298
G1 X35.062 Y-42.534 E24.6168
G1 X38.978 Y-38.978 E24.82059
G1 X42.534 Y-35.062 E25.02438
G1 X45.698 Y-30.824 E25.22817
G1 X48.442 Y-26.301 E25.43197
G1 X50.925 Y-21.095 E25.65422
G1 X52.712 Y-16.116 E25.85803
G1 X54.014 Y-10.989 E26.06184
G1 X54.866 Y-5.284 E26.28407
G1 X55.119 Y0 E26.48788
G1 X54.865 Y5.284 E26.69169
G1 X54.012 Y10.988 E26.91392
G1 X52.71 Y16.115 E27.11772
G1 X50.922 Y21.093 E27.3215
G1 X48.666 Y25.877 E27.52529
G1 X45.695 Y30.821 E27.74752
G1 X42.53 Y35.059 E27.95131
G1 X38.974 Y38.974 E28.15509
G1 X35.059 Y42.529 E28.35886
G1 X30.821 Y45.694 E28.56263
G1 X26.299 Y48.438 E28.76642
G1 X21.093 Y50.921 E28.98864
G1 X16.114 Y52.708 E29.19244
G1 X10.988 Y54.01 E29.3962
G1 X5.761 Y54.814 E29.59999
G1 X.09 Y55.111 E29.81875
M204 S1000
G1 X-.299 Y55.636 F10800
G1 X-.597 Y56.234
M204 S800
;TYPE:Perimeter
G1 F1200
G1 X-5.883 Y55.957 E30.0227
G1 X-11.218 Y55.136 E30.23064
G1 X-16.45 Y53.807 E30.43865
G1 X-21.532 Y51.982 E30.64667
G1 X-26.415 Y49.679 E30.85468
G1 X-31.053 Y46.92 E31.06261
G1 X-35.79 Y43.414 E31.28968
G1 X-39.784 Y39.786 E31.49755
G1 X-43.67 Y35.477 E31.72112
G1 X-46.918 Y31.054 E31.93254
G1 X-49.678 Y26.414 E32.14053
G1 X-51.981 Y21.531 E32.34854
G1 X-53.804 Y16.451 E32.55649
G1 X-55.206 Y10.849 E32.77897
G1 X-56.003 Y5.392 E32.99147
G1 X-56.262 Y0 E33.19946
G1 X-56.003 Y-5.392 E33.40744
G1 X-55.212 Y-10.813 E33.61853
G1 X-53.802 Y-16.451 E33.84241
G1 X-51.978 Y-21.53 E34.05034
G1 X-49.675 Y-26.413 E34.25834
G1 X-46.915 Y-31.05 E34.46626
G1 X-43.45 Y-35.738 E34.69087
G1 X-39.781 Y-39.781 E34.90122
G1 X-35.785 Y-43.41 E35.1092
G1 X-31.439 Y-46.653 E35.31811
G1 X-26.41 Y-49.674 E35.54414
G1 X-21.529 Y-51.975 E35.75203
G1 X-16.347 Y-53.83 E35.96408
G1 X-10.733 Y-55.224 E36.18698
G1 X-5.393 Y-55.998 E36.39487
G1 X.204 Y-56.256 E36.61072
G1 X5.882 Y-55.949 E36.8298
G1 X11.216 Y-55.128 E37.03775
G1 X16.448 Y-53.799 E37.24573
G1 X21.529 Y-51.975 E37.45372
G1 X26.411 Y-49.673 E37.6617
G1 X31.051 Y-46.913 E37.86969
G1 X35.403 Y-43.722 E38.0776
G1 X39.782 Y-39.78 E38.30464
G1 X43.41 Y-35.786 E38.51252
G1 X46.749 Y-31.298 E38.72804
G1 X49.675 Y-26.411 E38.94748
G1 X51.978 Y-21.53 E39.15542
G1 X53.802 Y-16.449 E39.36342
G1 X55.132 Y-11.217 E39.57142
G1 X55.953 Y-5.883 E39.77934
G1 X56.262 Y.002 E40.00639
G1 X56.003 Y5.392 E40.21431
G1 X55.22 Y10.781 E40.42413
G1 X53.804 Y16.451 E40.64929
G1 X51.981 Y21.531 E40.85723
G1 X49.678 Y26.414 E41.06524
G1 X46.918 Y31.054 E41.27324
G1 X43.727 Y35.407 E41.48118
G1 X39.784 Y39.786 E41.70824
G1 X35.789 Y43.415 E41.91614
G1 X31.316 Y46.744 E42.13098
G1 X26.414 Y49.68 E42.35114
G1 X21.532 Y51.982 E42.5591
G1 X16.452 Y53.806 E42.76707
G1 X10.934 Y55.192 E42.98626
G1 X5.392 Y56.006 E43.20208
G1 X-.507 Y56.239 E43.42953
M204 S1000
G1 X.001 Y56.884 F10800
M204 S800
;TYPE:External perimeter
G1 F1200
G1 X-5.947 Y56.572 E43.65899
G1 X-11.341 Y55.742 E43.86927
G1 X-16.631 Y54.398 E44.07957
G1 X-21.768 Y52.554 E44.28987
G1 X-26.705 Y50.225 E44.50017
G1 X-31.395 Y47.435 E44.71044
G1 X-36.183 Y43.892 E44.9399
G1 X-40.222 Y40.223 E45.15015
G1 X-44.149 Y35.867 E45.3761
G1 X-47.434 Y31.395 E45.58987
G1 X-50.224 Y26.705 E45.80016
G1 X-52.552 Y21.768 E46.01046
G1 X-54.396 Y16.631 E46.22073
G1 X-55.813 Y10.969 E46.44559
G1 X-56.619 Y5.452 E46.66044
G1 X-56.881 Y0 E46.87073
G1 X-56.618 Y-5.452 E47.08101
G1 X-55.819 Y-10.933 E47.29444
G1 X-54.394 Y-16.631 E47.52071
G1 X-52.549 Y-21.767 E47.73097
G1 X-50.221 Y-26.703 E47.94125
G1 X-47.43 Y-31.393 E48.15151
G1 X-43.928 Y-36.13 E48.3785
G1 X-40.218 Y-40.218 E48.59119
G1 X-36.178 Y-43.888 E48.80147
G1 X-31.784 Y-47.167 E49.01272
G1 X-26.701 Y-50.219 E49.24114
G1 X-21.766 Y-52.547 E49.45138
G1 X-16.526 Y-54.422 E49.66578
G1 X-10.852 Y-55.831 E49.89106
G1 X-5.451 Y-56.614 E50.10129
G1 X.206 Y-56.875 E50.3195
G1 X5.945 Y-56.564 E50.54096
G1 X11.339 Y-55.734 E50.75122
G1 X16.629 Y-54.391 E50.96149
G1 X21.766 Y-52.547 E51.17176
G1 X26.702 Y-50.219 E51.38203
G1 X31.392 Y-47.429 E51.59231
G1 X35.793 Y-44.202 E51.80255
G1 X40.219 Y-40.218 E52.03199
G1 X43.888 Y-36.179 E52.24223
G1 X47.264 Y-31.642 E52.46011
G1 X50.221 Y-26.702 E52.68191
G1 X52.549 Y-21.767 E52.89218
G1 X54.394 Y-16.63 E53.10246
G1 X55.738 Y-11.34 E53.31274
G1 X56.568 Y-5.946 E53.523
G1 X56.881 Y.001 E53.75245
G1 X56.619 Y5.452 E53.96271
G1 X55.827 Y10.901 E54.17487
G1 X54.396 Y16.631 E54.40242
G1 X52.552 Y21.768 E54.61269
G1 X50.224 Y26.705 E54.82299
G1 X47.434 Y31.395 E55.03328
G1 X44.207 Y35.797 E55.24355
G1 X40.222 Y40.223 E55.473
G1 X36.182 Y43.892 E55.68327
G1 X31.66 Y47.258 E55.90046
G1 X26.705 Y50.225 E56.123
G1 X21.769 Y52.554 E56.33328
G1 X16.632 Y54.398 E56.54356
G1 X11.054 Y55.799 E56.76512
G1 X5.452 Y56.622 E56.9833
G1 X.091 Y56.879 E57.19009
M204 S1000
G1 X-.298 Y56.363 F10800
; stop printing object rotor_adaptor_ring.STL id:0 copy 0
;LAYER_CHANGE
;Z:0.3
;HEIGHT:0.15
; **** Start of Before Layer Change GCode: FlashForge Creator 3 ****
; FFPP-layer_z_height: 0.3 ; Value parsed by FFPP script
;layer:0.150 ; Value substituted by FFPP script (FFPP-calculated-next_layer_height)
; **** End of Before Layer Change GCode: FlashForge Creator 3 ****
G1 Z.3 F720
; **** Start of After Layer Change GCode: FlashForge Creator 3 ****
; **** End of After Layer Change GCode: FlashForge Creator 3 ****
M104 S220 ; set temperature
M140 S60 ; set bed temperature
G1 E54.19009 F1800
G92 E0
G1 X.142 Y59.817 F10800
G1 E3 F1800
;TYPE:Skirt/Brim
G1 F3000
G1 X-6.243 Y59.504 E3.24627
G1 X-11.94 Y58.627 E3.46835
G1 X-17.504 Y57.213 E3.68955
G1 X-23.367 Y55.078 E3.92995
G1 X-28.559 Y52.574 E4.15203
G1 X-33.466 Y49.595 E4.37322
G1 X-38.065 Y46.159 E4.59441
G1 X-42.666 Y41.944 E4.83482
G1 X-46.49 Y37.661 E5.05602
G1 X-49.898 Y33.013 E5.27809
G1 X-52.832 Y28.078 E5.49929
G1 X-55.469 Y22.423 E5.73969
G1 X-57.37 Y16.982 E5.96176
G1 X-58.733 Y11.405 E6.18296
G1 X-59.556 Y5.723 E6.40415
G1 X-59.828 Y-.511 E6.64456
G1 X-59.504 Y-6.243 E6.86576
G1 X-58.627 Y-11.94 E7.08783
G1 X-57.065 Y-17.98 E7.32824
G1 X-55.079 Y-23.367 E7.54943
G1 X-52.585 Y-28.539 E7.77063
G1 X-49.595 Y-33.466 E7.9927
G1 X-45.87 Y-38.414 E8.23131
G1 X-41.944 Y-42.666 E8.4543
G1 X-37.644 Y-46.504 E8.67637
G1 X-33.013 Y-49.898 E8.89757
G1 X-27.677 Y-53.044 E9.13622
G1 X-22.423 Y-55.47 E9.35917
G1 X-16.982 Y-57.37 E9.58124
G1 X-11.405 Y-58.733 E9.80244
G1 X-5.723 Y-59.556 E10.02363
G1 X.511 Y-59.828 E10.26404
G1 X6.243 Y-59.504 E10.48523
G1 X11.939 Y-58.627 E10.70731
G1 X17.98 Y-57.065 E10.94771
G1 X23.367 Y-55.079 E11.16891
G1 X28.559 Y-52.575 E11.39098
G1 X33.466 Y-49.595 E11.61218
G1 X38.449 Y-45.84 E11.85258
G1 X42.666 Y-41.944 E12.07378
G1 X46.49 Y-37.661 E12.29497
G1 X49.898 Y-33.013 E12.51705
G1 X53.065 Y-27.637 E12.75745
G1 X55.469 Y-22.424 E12.97865
G1 X57.37 Y-16.982 E13.20072
G1 X58.733 Y-11.405 E13.42191
G1 X59.556 Y-5.723 E13.64311
G1 X59.828 Y.511 E13.88352
G1 X59.501 Y6.265 E14.10559
G1 X58.627 Y11.939 E14.32679
G1 X57.213 Y17.504 E14.54798
G1 X55.079 Y23.367 E14.78839
G1 X52.574 Y28.558 E15.01046
G1 X49.595 Y33.466 E15.23165
G1 X45.84 Y38.449 E15.47206
G1 X41.944 Y42.666 E15.69326
G1 X37.661 Y46.49 E15.91445
G1 X33.013 Y49.898 E16.13653
G1 X27.742 Y53.009 E16.37236
G1 X22.423 Y55.469 E16.59813
G1 X16.982 Y57.37 E16.8202
G1 X11.405 Y58.733 E17.04139
G1 X5.226 Y59.602 E17.2818
G1 X.232 Y59.815 E17.47439
; printing object rotor_adaptor_ring.STL id:0 copy 0
;WIPE_START
G1 F8640
G1 X-6.243 Y59.504 E16.19152
G1 X-11.94 Y58.627 E15.05072
G1 X-14.027 Y58.096 E14.62439
;WIPE_END
G1 E14.47439 F1800
G92 E0
G1 X-.628 Y55.661 F10800
G1 E3 F1800
M204 S800
;TYPE:Perimeter
G1 F2700
G1 X-5.338 Y55.435 E3.18167
G1 X-10.628 Y54.668 E3.38764
G1 X-16.253 Y53.267 E3.61096
G1 X-21.312 Y51.452 E3.81804
G1 X-26.147 Y49.172 E4.02401
G1 X-31.117 Y46.187 E4.24735
G1 X-35.424 Y42.973 E4.45442
G1 X-39.38 Y39.38 E4.66032
G1 X-42.973 Y35.424 E4.86621
G1 X-46.171 Y31.141 E5.07218
G1 X-49.158 Y26.172 E5.29555
G1 X-51.452 Y21.312 E5.50259
G1 X-53.259 Y16.281 E5.70856
G1 X-54.663 Y10.655 E5.93195
G1 X-55.435 Y5.338 E6.13897
G1 X-55.691 Y0 E6.34487
G1 X-55.435 Y-5.338 E6.55076
G1 X-54.668 Y-10.628 E6.75673
G1 X-53.259 Y-16.281 E6.98117
G1 X-51.452 Y-21.312 E7.18714
G1 X-49.173 Y-26.146 E7.39303
G1 X-46.439 Y-30.74 E7.599
G1 X-42.974 Y-35.423 E7.82344
