; This file has been post-processed by \\wsl.localhost\Ubuntu\home\wmmc88\git-repos\PrusaSlicer-FlashForge\flashforge_post_process.py
; Original File Location: C:\Users\melvi\AppData\Local\Temp\.40552.gcode.pp


; generated by PrusaSlicer 2.4.0+win64 on 2022-02-19 at 07:01:21 UTC

; 

; external perimeters extrusion width = 0.61mm
; perimeters extrusion width = 0.65mm
; infill extrusion width = 0.70mm
; solid infill extrusion width = 0.65mm
; top infill extrusion width = 0.60mm
; first layer extrusion width = 0.65mm

M107
;TYPE:Custom
; **** Start of Start GCode: FlashForge Creator 3 ****
M118 X150.00 Y125.00 Z200.00 T0 T1
; todo: need to post process Active extruders in m118

G90 ; absolute positioning
M108 T1 ; tool change
G1 X-187 Y0.000 F12000 ; Move initial extruder over anti-ooze plate (9-point Bed Levelling sometimes leaves it off plate)

; Set Filament Z-Offset
G1 Z0.000 F720 ;
G92 Z-0.06 ; Value substituted by FFPP script (FFPP-filament_extra_z_offset)(negative is printing higher in air)

M140 S75 T0 ; set bed temperature
M104 S0 T0 ; set right extruder temp
M104 S230 T1 ; set left extruder temp

M7 T0 ; wait for platform
M6 T0 ; wait for temp
M6 T1 ; wait for temp

M106 ; Extruder/Heat Break fan on
M651 S255 ; chassis fan on (after heating reached to speed up heating)

; Purge Filament (gets rid of any curling filament too)
G1 X-172 F12000 ; Move initial extruder off anti-ooze plate
G92 E0 ; reset extrusion distance 
G1 F150 E20 ; feed 20mm of feed stock 
G92 E0 ; reset extrusion distance


; M652 ; chassis fan off 
; M109 T1/2 only if dupe or mirror

;layer_count: 143 ; Value substituted by FFPP script (FFPP-calculated-total_layer_count)
; **** End of Start GCode: FlashForge Creator 3 ****
G21 ; set units to millimeters
G90 ; use absolute coordinates
M82 ; use absolute distances for extrusion
G92 E0
; **** Start of Tool Change GCode: FlashForge Creator 3 ****
M108 T1
; **** End of Tool Change GCode: FlashForge Creator 3 ****
G92 E0
; **** Start of Filament-Specific Start GCode: eSun PETG - Blue (Hardened 0.6mm) ****
; FFPP-filament_extra_z_offset: 0.06 ; Value parsed by FFPP script
; **** End of Filament-Specific Start GCode: eSun PETG - Blue (Hardened 0.6mm) ****
M107
;LAYER_CHANGE
;Z:0.2
;HEIGHT:0.2
; **** Start of Before Layer Change GCode: FlashForge Creator 3 ****
; FFPP-layer_z_height: 0.2 ; Value parsed by FFPP script
;layer:0.200 ; Value substituted by FFPP script (FFPP-calculated-next_layer_height)
; **** End of Before Layer Change GCode: FlashForge Creator 3 ****
G1 Z.2 F720
; **** Start of After Layer Change GCode: FlashForge Creator 3 ****
; **** End of After Layer Change GCode: FlashForge Creator 3 ****
G1 E-4 F1500
G92 E0
G1 X2.9 Y5.024 F12000
G1 E4 F1500
M204 S800
;TYPE:Skirt/Brim
;WIDTH:0.65
G1 F1200
G1 X1.304 Y5.946 E4.09308
G1 X-.084 Y6.293 E4.16528
G1 X-1.304 Y5.946 E4.2293
G1 X-24.004 Y-7.16 E5.55245
G1 X-24.999 Y-8.188 E5.62465
G1 X-25.307 Y-9.418 E5.68867
G1 X-25.307 Y-41.838 E7.32516
G1 X-24.915 Y-43.213 E7.39736
G1 X-23.856 Y-44.174 E7.46956
G1 X-22.7 Y-44.445 E7.52948
G1 X22.7 Y-44.445 E9.82122
G1 X24.075 Y-44.052 E9.89342
G1 X25.037 Y-42.993 E9.96562
G1 X25.307 Y-41.838 E10.02554
G1 X25.307 Y-9.418 E11.66203
G1 X24.915 Y-8.043 E11.73423
G1 X24.004 Y-7.16 E11.79826
G1 X2.978 Y4.979 E13.02378
M204 S1000
; printing object knee_upper_bracket.STL id:0 copy 0
;WIPE_START
G1 F9600
G1 X1.304 Y5.946 E12.73672
G1 X-.084 Y6.293 E12.52441
G1 X-1.304 Y5.946 E12.33613
G1 X-19.462 Y-4.538 E9.22378
;WIPE_END
G1 E9.02378 F1500
G92 E0
G1 X0 Y-2.295 F12000
G1 E4 F1500
M204 S800
;TYPE:Perimeter
G1 F1200
G1 X-2.716 Y-3.864 E4.15833
G1 X-1.552 Y-3.524 E4.21955
G1 X.085 Y-3.381 E4.30252
G1 X1.747 Y-3.563 E4.38691
G1 X2.736 Y-3.875 E4.43923
G1 X.078 Y-2.34 E4.59415
M204 S1000
;WIPE_START
G1 F9600
G1 X-2.716 Y-3.864 E4.12174
G1 X-1.552 Y-3.524 E3.94172
G1 X.085 Y-3.381 E3.69774
G1 X1.747 Y-3.563 E3.44959
G1 X2.736 Y-3.875 E3.29573
G1 X.078 Y-2.34 E2.84019
;WIPE_END
G1 E.59415 F1500
G92 E0
G1 X-2.117 Y-4.321 F12000
G1 E4 F1500
M204 S800
G1 F1200
G1 X-2.94 Y-4.561 E4.04327
G1 X-4.323 Y-5.289 E4.12215
G1 X-5.507 Y-6.248 E4.19908
G1 X-6.499 Y-7.441 E4.27744
G1 X-7.222 Y-8.772 E4.35387
G1 X-7.677 Y-10.216 E4.4303
G1 X-7.846 Y-11.759 E4.50865
G1 X-7.713 Y-13.277 E4.58558
G1 X-7.276 Y-14.777 E4.66446
G1 X-6.549 Y-16.16 E4.74333
G1 X-5.59 Y-17.345 E4.82027
G1 X-4.396 Y-18.337 E4.89863
G1 X-3.057 Y-19.064 E4.97556
G1 X-1.574 Y-19.525 E5.05392
G1 X-.059 Y-19.684 E5.13085
G1 X1.487 Y-19.542 E5.20921
G1 X2.939 Y-19.112 E5.28564
G1 X4.282 Y-18.413 E5.36206
G1 X5.5 Y-17.435 E5.44093
G1 X6.499 Y-16.234 E5.5198
G1 X7.227 Y-14.894 E5.59674
G1 X7.687 Y-13.412 E5.6751
G1 X7.846 Y-11.896 E5.75203
G1 X7.704 Y-10.35 E5.8304
G1 X7.274 Y-8.898 E5.90682
G1 X6.575 Y-7.555 E5.98325
G1 X5.597 Y-6.337 E6.06212
G1 X4.396 Y-5.338 E6.14099
G1 X3.066 Y-4.615 E6.21741
G1 X1.622 Y-4.16 E6.29384
G1 X.079 Y-3.991 E6.37219
G1 X-1.44 Y-4.124 E6.44912
G1 X-2.03 Y-4.296 E6.48018
M204 S1000
G1 X-1.715 Y-4.837 F12000
M204 S800
G1 F1200
G1 X-2.711 Y-5.127 E6.53255
G1 X-3.987 Y-5.798 E6.60532
G1 X-5.078 Y-6.682 E6.67621
G1 X-5.995 Y-7.783 E6.74853
G1 X-6.661 Y-9.01 E6.819
G1 X-7.08 Y-10.341 E6.88945
G1 X-7.236 Y-11.765 E6.96177
G1 X-7.114 Y-13.165 E7.03266
G1 X-6.711 Y-14.549 E7.10544
G1 X-6.039 Y-15.825 E7.17821
G1 X-5.155 Y-16.916 E7.24911
G1 X-4.054 Y-17.832 E7.32144
G1 X-2.819 Y-18.502 E7.39233
G1 X-1.451 Y-18.927 E7.46465
G1 X-.055 Y-19.074 E7.53554
G1 X1.372 Y-18.943 E7.60787
G1 X2.711 Y-18.546 E7.67832
G1 X3.949 Y-17.902 E7.74878
G1 X5.073 Y-17 E7.82155
G1 X5.995 Y-15.892 E7.89431
G1 X6.665 Y-14.657 E7.96521
G1 X7.09 Y-13.289 E8.03754
G1 X7.236 Y-11.892 E8.10843
G1 X7.105 Y-10.465 E8.18076
G1 X6.709 Y-9.127 E8.25122
G1 X6.064 Y-7.889 E8.32168
G1 X5.162 Y-6.765 E8.39444
G1 X4.054 Y-5.843 E8.46721
G1 X2.827 Y-5.177 E8.53766
G1 X1.496 Y-4.757 E8.60812
G1 X.072 Y-4.601 E8.68043
G1 X-1.327 Y-4.724 E8.75133
G1 X-1.629 Y-4.811 E8.76719
M204 S1000
G1 X-1.314 Y-5.352 F12000
M204 S800
G1 F1200
G1 X-2.483 Y-5.693 E8.82865
G1 X-3.651 Y-6.308 E8.89532
G1 X-4.65 Y-7.116 E8.96018
G1 X-5.49 Y-8.126 E9.02646
G1 X-6.099 Y-9.249 E9.09096
G1 X-6.483 Y-10.467 E9.15544
G1 X-6.626 Y-11.772 E9.22172
G1 X-6.514 Y-13.052 E9.28658
G1 X-6.145 Y-14.32 E9.35325
G1 X-5.53 Y-15.489 E9.41992
G1 X-4.721 Y-16.488 E9.48478
G1 X-3.712 Y-17.327 E9.55107
G1 X-2.582 Y-17.94 E9.61593
G1 X-1.328 Y-18.33 E9.68221
G1 X-.051 Y-18.464 E9.74707
G1 X1.257 Y-18.344 E9.81336
G1 X2.482 Y-17.981 E9.87784
G1 X3.615 Y-17.391 E9.94233
G1 X4.645 Y-16.565 E10.00899
G1 X5.49 Y-15.549 E10.07565
G1 X6.103 Y-14.42 E10.14052
G1 X6.492 Y-13.166 E10.20681
G1 X6.626 Y-11.888 E10.27166
G1 X6.506 Y-10.58 E10.33796
G1 X6.143 Y-9.355 E10.40244
G1 X5.554 Y-8.222 E10.46694
G1 X4.727 Y-7.192 E10.53359
G1 X3.712 Y-6.348 E10.60026
G1 X2.589 Y-5.738 E10.66475
G1 X1.371 Y-5.354 E10.72923
G1 X.065 Y-5.211 E10.79551
G1 X-1.227 Y-5.327 E10.86102
M204 S1000
G1 X-.905 Y-5.905 F12000
M204 S800
G1 F1200
G1 X-2.254 Y-6.258 E10.93141
G1 X-3.316 Y-6.817 E10.99197
G1 X-4.221 Y-7.55 E11.05079
G1 X-4.985 Y-8.468 E11.11104
G1 X-5.538 Y-9.487 E11.16957
G1 X-5.886 Y-10.593 E11.22809
G1 X-6.016 Y-11.779 E11.28833
G1 X-5.915 Y-12.94 E11.34715
G1 X-5.579 Y-14.092 E11.40771
G1 X-5.02 Y-15.153 E11.46828
G1 X-4.287 Y-16.059 E11.52711
G1 X-3.369 Y-16.822 E11.58736
G1 X-2.345 Y-17.378 E11.64618
G1 X-1.205 Y-17.732 E11.70643
G1 X-.047 Y-17.854 E11.76525
G1 X1.142 Y-17.745 E11.8255
G1 X2.254 Y-17.416 E11.88402
G1 X3.282 Y-16.88 E11.94254
G1 X4.217 Y-16.129 E12.0031
G1 X4.985 Y-15.207 E12.06365
G1 X5.541 Y-14.183 E12.12248
G1 X5.895 Y-13.043 E12.18274
G1 X6.016 Y-11.884 E12.24155
G1 X5.907 Y-10.695 E12.30181
G1 X5.578 Y-9.584 E12.36033
G1 X5.043 Y-8.555 E12.41885
G1 X4.292 Y-7.62 E12.4794
G1 X3.369 Y-6.853 E12.53997
G1 X2.351 Y-6.3 E12.59848
G1 X1.245 Y-5.951 E12.657
G1 X.059 Y-5.821 E12.71725
G1 X-.815 Y-5.898 E12.76154
M204 S1000
G1 X-.493 Y-6.479 F12000
M204 S800
G1 F1200
G1 X-.99 Y-6.522 E12.78672
G1 X-2.025 Y-6.824 E12.84118
G1 X-2.98 Y-7.326 E12.89564
G1 X-3.793 Y-7.984 E12.94842
G1 X-4.48 Y-8.81 E13.00263
G1 X-4.976 Y-9.725 E13.05519
G1 X-5.289 Y-10.718 E13.10774
G1 X-5.406 Y-11.785 E13.16195
G1 X-5.315 Y-12.827 E13.21474
G1 X-5.013 Y-13.863 E13.26919
G1 X-4.511 Y-14.818 E13.32365
G1 X-3.853 Y-15.63 E13.37644
G1 X-3.027 Y-16.317 E13.43066
G1 X-2.108 Y-16.816 E13.48345
G1 X-1.082 Y-17.135 E13.53766
G1 X-.043 Y-17.244 E13.59044
G1 X1.027 Y-17.146 E13.64466
G1 X2.025 Y-16.85 E13.69721
G1 X2.949 Y-16.369 E13.74976
G1 X3.79 Y-15.694 E13.80421
G1 X4.48 Y-14.865 E13.85866
G1 X4.979 Y-13.946 E13.91146
G1 X5.297 Y-12.92 E13.96567
G1 X5.406 Y-11.88 E14.01845
G1 X5.308 Y-10.81 E14.07268
G1 X5.013 Y-9.812 E14.12522
G1 X4.532 Y-8.889 E14.17778
G1 X3.857 Y-8.048 E14.23223
G1 X3.027 Y-7.358 E14.28668
G1 X2.112 Y-6.861 E14.33923
G1 X1.119 Y-6.548 E14.39178
G1 X.052 Y-6.431 E14.44599
G1 X-.403 Y-6.471 E14.46904
M204 S1000
G1 X-.08 Y-7.052 F12000
M204 S800
G1 F1200
G1 X-.877 Y-7.122 E14.50943
G1 X-1.797 Y-7.39 E14.55778
G1 X-2.645 Y-7.836 E14.60614
G1 X-3.364 Y-8.419 E14.65288
G1 X-3.975 Y-9.152 E14.70106
G1 X-4.415 Y-9.963 E14.74765
G1 X-4.692 Y-10.844 E14.79423
G1 X-4.796 Y-11.792 E14.8424
G1 X-4.716 Y-12.715 E14.88915
G1 X-4.448 Y-13.634 E14.9375
G1 X-4.002 Y-14.482 E14.98586
G1 X-3.419 Y-15.202 E15.03261
G1 X-2.685 Y-15.812 E15.08079
G1 X-1.871 Y-16.254 E15.12754
G1 X-.96 Y-16.537 E15.17572
G1 X-.039 Y-16.634 E15.22246
G1 X.912 Y-16.547 E15.27064
G1 X1.797 Y-16.285 E15.31723
G1 X2.615 Y-15.858 E15.36381
G1 X3.362 Y-15.259 E15.41216
G1 X3.975 Y-14.523 E15.4605
G1 X4.417 Y-13.709 E15.50726
G1 X4.7 Y-12.797 E15.55544
G1 X4.796 Y-11.876 E15.60218
G1 X4.709 Y-10.926 E15.65037
G1 X4.447 Y-10.041 E15.69695
G1 X4.021 Y-9.222 E15.74354
G1 X3.421 Y-8.475 E15.79188
G1 X2.685 Y-7.863 E15.84023
G1 X1.874 Y-7.422 E15.88681
G1 X.994 Y-7.145 E15.93339
G1 X.009 Y-7.044 E15.98335
M204 S1000
G1 X.331 Y-7.683 F12000
M204 S800
G1 F1200
G1 X-.765 Y-7.721 E16.03873
G1 X-1.568 Y-7.956 E16.08097
G1 X-2.309 Y-8.345 E16.12322
G1 X-2.936 Y-8.853 E16.16394
G1 X-3.47 Y-9.495 E16.20607
G1 X-3.854 Y-10.202 E16.24669
G1 X-4.096 Y-10.969 E16.28731
G1 X-4.186 Y-11.799 E16.32944
G1 X-4.116 Y-12.602 E16.37016
G1 X-3.882 Y-13.406 E16.4124
G1 X-3.492 Y-14.147 E16.45465
G1 X-2.985 Y-14.773 E16.49537
G1 X-2.343 Y-15.307 E16.53751
G1 X-1.634 Y-15.692 E16.57823
G1 X-.837 Y-15.94 E16.62037
G1 X-.035 Y-16.024 E16.66108
G1 X.797 Y-15.948 E16.70322
G1 X1.568 Y-15.719 E16.74383
G1 X2.282 Y-15.348 E16.78445
G1 X2.935 Y-14.824 E16.82669
G1 X3.47 Y-14.18 E16.86893
G1 X3.855 Y-13.471 E16.90965
G1 X4.102 Y-12.674 E16.9518
G1 X4.186 Y-11.872 E16.99251
G1 X4.11 Y-11.041 E17.03466
G1 X3.882 Y-10.269 E17.07526
G1 X3.51 Y-9.556 E17.11588
G1 X2.986 Y-8.903 E17.15812
G1 X2.343 Y-8.368 E17.20037
G1 X1.636 Y-7.984 E17.24098
G1 X.868 Y-7.742 E17.28159
G1 X.421 Y-7.693 E17.30432
M204 S1000
G1 X.743 Y-8.339 F12000
M204 S800
;TYPE:External perimeter
G1 F1200
G1 X.032 Y-8.261 E17.34042
G1 X-.652 Y-8.321 E17.3751
G1 X-1.34 Y-8.521 E17.41124
G1 X-1.973 Y-8.855 E17.44739
G1 X-2.507 Y-9.287 E17.48206
G1 X-2.965 Y-9.837 E17.51816
G1 X-3.292 Y-10.44 E17.55282
G1 X-3.499 Y-11.095 E17.58746
G1 X-3.576 Y-11.805 E17.62356
G1 X-3.517 Y-12.49 E17.65824
G1 X-3.316 Y-13.177 E17.69438
G1 X-2.983 Y-13.811 E17.73053
G1 X-2.55 Y-14.345 E17.76521
G1 X-2 Y-14.802 E17.80131
G1 X-1.397 Y-15.13 E17.83599
G1 X-.714 Y-15.342 E17.87209
G1 X-.031 Y-15.414 E17.90677
G1 X.682 Y-15.349 E17.94287
G1 X1.34 Y-15.154 E17.97752
G1 X1.949 Y-14.837 E18.01216
G1 X2.507 Y-14.389 E18.0483
G1 X2.965 Y-13.838 E18.08444
G1 X3.293 Y-13.234 E18.11913
G1 X3.505 Y-12.551 E18.15523
G1 X3.576 Y-11.868 E18.1899
G1 X3.511 Y-11.156 E18.22602
G1 X3.316 Y-10.498 E18.26066
G1 X2.999 Y-9.889 E18.2953
G1 X2.551 Y-9.331 E18.33144
G1 X2.001 Y-8.873 E18.36759
G1 X1.397 Y-8.545 E18.40223
G1 X.829 Y-8.366 E18.43233
M204 S1000
G1 X.556 Y-7.769 F12000
;WIPE_START
G1 F9600
G1 X.032 Y-8.261 E18.31304
G1 X-.652 Y-8.321 E18.21106
G1 X-1.34 Y-8.521 E18.10478
G1 X-1.973 Y-8.855 E17.99849
G1 X-2.507 Y-9.287 E17.89653
G1 X-2.965 Y-9.837 E17.79037
G1 X-3.292 Y-10.44 E17.68847
G1 X-3.499 Y-11.095 E17.5866
G1 X-3.576 Y-11.805 E17.48045
G1 X-3.517 Y-12.49 E17.37847
G1 X-3.316 Y-13.177 E17.27219
G1 X-2.983 Y-13.811 E17.1659
G1 X-2.55 Y-14.345 E17.06392
G1 X-2 Y-14.802 E16.95775
G1 X-1.397 Y-15.13 E16.85578
G1 X-.714 Y-15.342 E16.74961
G1 X-.031 Y-15.414 E16.64765
G1 X.682 Y-15.349 E16.54147
G1 X1.34 Y-15.154 E16.4396
G1 X1.949 Y-14.837 E16.33772
G1 X2.507 Y-14.389 E16.23145
G1 X2.965 Y-13.838 E16.12519
G1 X3.293 Y-13.234 E16.02319
G1 X3.505 Y-12.551 E15.91701
G1 X3.576 Y-11.868 E15.81506
G1 X3.511 Y-11.156 E15.70886
G1 X3.316 Y-10.498 E15.60701
G1 X2.999 Y-9.889 E15.50512
G1 X2.551 Y-9.331 E15.39886
G1 X2.001 Y-8.873 E15.29257
G1 X1.397 Y-8.545 E15.1907
G1 X.829 Y-8.366 E15.10219
;WIPE_END
G1 E14.43233 F1500
G92 E0
G1 X16.911 Y-12.76 F12000
G1 E4 F1500
M204 S800
;TYPE:Perimeter
G1 F1200
G1 X7.965 Y-7.595 E4.52148
G1 X8.405 Y-8.442 E4.56967
G1 X8.903 Y-10.12 E4.65803
G1 X9.066 Y-11.904 E4.74847
G1 X8.882 Y-13.657 E4.83747
G1 X8.351 Y-15.368 E4.9279
G1 X7.509 Y-16.918 E5.01692
G1 X6.356 Y-18.305 E5.10799
G1 X4.949 Y-19.435 E5.19907
G1 X3.396 Y-20.243 E5.28743
G1 X1.717 Y-20.74 E5.3758
G1 X-.067 Y-20.904 E5.46623
G1 X-1.82 Y-20.72 E5.55523
G1 X-3.531 Y-20.188 E5.64566
G1 X-5.08 Y-19.347 E5.73467
G1 X-6.458 Y-18.202 E5.8251
G1 X-7.568 Y-16.831 E5.91411
G1 X-8.408 Y-15.234 E6.0052
G1 X-8.913 Y-13.502 E6.09628
G1 X-9.066 Y-11.745 E6.18529
G1 X-8.871 Y-9.965 E6.27571
G1 X-8.345 Y-8.295 E6.36407
G1 X-7.964 Y-7.595 E6.40432
G1 X-16.911 Y-12.76 E6.92581
G1 X-16.911 Y-36.049 E8.10139
G1 X16.911 Y-36.049 E9.80872
G1 X16.911 Y-12.85 E10.97976
M204 S1000
G1 X17.518 Y-12.41 F12000
M204 S800
G1 F1200
G1 X5.518 Y-5.481 E11.67925
G1 X6.033 Y-5.909 E11.71306
G1 X7.086 Y-7.222 E11.79802
G1 X7.84 Y-8.67 E11.88042
G1 X8.303 Y-10.235 E11.96282
G1 X8.456 Y-11.9 E12.04722
G1 X8.285 Y-13.535 E12.13018
G1 X7.789 Y-15.131 E12.21458
G1 X7.004 Y-16.576 E12.29756
G1 X5.928 Y-17.87 E12.38253
G1 X4.615 Y-18.924 E12.4675
G1 X3.167 Y-19.677 E12.5499
G1 X1.602 Y-20.141 E12.63229
G1 X-.063 Y-20.294 E12.71669
G1 X-1.697 Y-20.122 E12.79966
G1 X-3.294 Y-19.626 E12.88405
G1 X-4.738 Y-18.842 E12.96702
G1 X-6.024 Y-17.773 E13.05142
G1 X-7.058 Y-16.496 E13.13439
G1 X-7.842 Y-15.006 E13.21937
G1 X-8.313 Y-13.39 E13.30435
G1 X-8.456 Y-11.752 E13.38732
G1 X-8.274 Y-10.09 E13.47171
G1 X-7.783 Y-8.534 E13.5541
G1 X-7.004 Y-7.099 E13.63651
G1 X-5.935 Y-5.814 E13.7209
G1 X-5.542 Y-5.495 E13.74643
G1 X-17.518 Y-12.41 E14.4445
G1 X-17.518 Y-36.656 E15.66841
G1 X17.518 Y-36.656 E17.43703
G1 X17.518 Y-12.5 E18.6564
M204 S1000
;WIPE_START
G1 F9600
G1 X5.518 Y-5.481 E16.59277
G1 X6.033 Y-5.909 E16.49336
G1 X7.086 Y-7.222 E16.24351
G1 X7.84 Y-8.67 E16.0012
G1 X8.303 Y-10.235 E15.75892
G1 X8.456 Y-11.9 E15.51072
G1 X8.285 Y-13.535 E15.26677
G1 X7.789 Y-15.131 E15.01858
G1 X7.268 Y-16.091 E14.8564
;WIPE_END
G1 E14.6564 F1500
G92 E0
G1 X-3.637 Y-3.694 F12000
G1 E4 F1500
M204 S800
G1 F1200
G1 X-18.125 Y-12.059 E4.84448
G1 X-18.125 Y-37.263 E6.11674
G1 X18.125 Y-37.263 E7.94664
G1 X18.125 Y-12.059 E9.2189
G1 X0 Y-1.594 E10.2754
G1 X-3.559 Y-3.649 E10.48286
M204 S1000
G1 X-3.118 Y-2.693 F12000
M204 S800
G1 F1200
G1 X-18.733 Y-11.709 E11.39302
G1 X-18.733 Y-37.87 E12.71361
G1 X18.733 Y-37.87 E14.60481
G1 X18.733 Y-11.709 E15.9254
G1 X0 Y-.893 E17.01728
G1 X-3.04 Y-2.648 E17.19446
M204 S1000
G1 X-2.598 Y-1.692 F12000
M204 S800
G1 F1200
G1 X-19.34 Y-11.358 E18.17029
G1 X-19.34 Y-38.477 E19.53922
G1 X19.34 Y-38.477 E21.49171
G1 X19.34 Y-11.358 E22.86064
G1 X0 Y-.192 E23.9879
G1 X-2.52 Y-1.647 E24.1348
M204 S1000
G1 X-2.078 Y-.692 F12000
M204 S800
G1 F1200
G1 X-19.947 Y-11.008 E25.1763
G1 X-19.947 Y-39.084 E26.59357
G1 X19.947 Y-39.084 E28.60734
G1 X19.947 Y-11.008 E30.02461
G1 X0 Y.508 E31.18726
G1 X-2.001 Y-.647 E31.30387
M204 S1000
G1 X-1.559 Y.309 F12000
M204 S800
G1 F1200
G1 X-20.554 Y-10.657 E32.41104
G1 X-20.554 Y-39.691 E33.87665
G1 X20.554 Y-39.691 E35.95171
G1 X20.554 Y-10.657 E37.41732
G1 X0 Y1.209 E38.61535
