; This file has been post-processed by C:\Users\melvi\git-repos\PrusaSlicer-FlashForge\flashforge_post_process.py
; Original File Location: C:\Users\melvi\AppData\Local\Temp\.49276.gcode.pp


; generated by PrusaSlicer 2.4.0+win64 on 2022-01-25 at 15:01:52 UTC

; 

; external perimeters extrusion width = 0.61mm
; perimeters extrusion width = 0.65mm
; infill extrusion width = 0.70mm
; solid infill extrusion width = 0.65mm
; top infill extrusion width = 0.60mm
; first layer extrusion width = 0.65mm

M107
;TYPE:Custom
; **** Start of Start GCode: FlashForge Creator 3 ****
M118 X150.00 Y125.00 Z200.00 T0 T1
; todo: need to post process Active extruders in m118

G90 ; absolute positioning
M108 T0 ; tool change
G1 X187 Y0.000 F10800 ; Move initial extruder over anti-ooze plate (9-point Bed Levelling sometimes leaves it off plate)

; Set Filament Z-Offset
G1 Z0.000 F720 ;
G92 Z-0.06 ; Value substituted by FFPP script (FFPP-filament_extra_z_offset)(negative is printing higher in air)

M140 S85 T0 ; set bed temperature
M104 S250 T0 ; set right extruder temp
M104 S0 T1 ; set left extruder temp

M7 T0 ; wait for platform
M6 T0 ; wait for temp
M6 T1 ; wait for temp

M106 ; Extruder/Heat Break fan on
M651 S255 ; chassis fan on (after heating reached to speed up heating)

; Purge Filament (gets rid of any curling filament too)
G1 X172 F10800 ; Move initial extruder off anti-ooze plate
G92 E0 ; reset extrusion distance 
G1 F150 E20 ; feed 20mm of feed stock 
G92 E0 ; reset extrusion distance


; M652 ; chassis fan off 
; M109 T1/2 only if dupe or mirror

;layer_count: 9 ; Value substituted by FFPP script (FFPP-calculated-total_layer_count)
; **** End of Start GCode: FlashForge Creator 3 ****
G21 ; set units to millimeters
G90 ; use absolute coordinates
M82 ; use absolute distances for extrusion
G92 E0
; **** Start of Filament-Specific Start GCode: Filaments.ca PETG - Transparent (Hardened 0.6mm) ****
; FFPP-filament_extra_z_offset: 0.06 ; Value parsed by FFPP script
; **** End of Filament-Specific Start GCode: EconoFil PETG ****
M107
;LAYER_CHANGE
;Z:0.2
;HEIGHT:0.2
; **** Start of Before Layer Change GCode: FlashForge Creator 3 ****
; FFPP-layer_z_height: 0.2 ; Value parsed by FFPP script
;layer:0.200 ; Value substituted by FFPP script (FFPP-calculated-next_layer_height)
; **** End of Before Layer Change GCode: FlashForge Creator 3 ****
G1 Z.2 F720
; **** Start of After Layer Change GCode: FlashForge Creator 3 ****
; **** End of After Layer Change GCode: FlashForge Creator 3 ****
G1 E-3 F1800
G92 E0
G1 X-10.395 Y58.889 F10800
G1 E3 F1800
M204 S800
;TYPE:Skirt/Brim
;WIDTH:0.65
G1 F1200
G1 X-14.967 Y57.917 E3.23591
G1 X-20.47 Y56.208 E3.52681
G1 X-25.763 Y53.987 E3.81655
G1 X-30.819 Y51.269 E4.10631
G1 X-35.991 Y47.781 E4.42123
G1 X-40.422 Y44.096 E4.71213
G1 X-44.462 Y40.019 E5.00188
G1 X-48.388 Y35.17 E5.3168
G1 X-51.536 Y30.37 E5.60655
G1 X-54.22 Y25.27 E5.89745
G1 X-56.392 Y19.957 E6.18721
G1 X-58.045 Y14.461 E6.47696
G1 X-59.236 Y8.336 E6.79188
G1 X-59.763 Y2.598 E7.08278
G1 X-59.715 Y-3.523 E7.39177
G1 X-59.085 Y-9.347 E7.68746
G1 X-57.911 Y-14.989 E7.97836
G1 X-56.208 Y-20.47 E8.26811
G1 X-53.987 Y-25.763 E8.55786
G1 X-51.269 Y-30.819 E8.84762
G1 X-47.781 Y-35.991 E9.16254
G1 X-44.096 Y-40.422 E9.45344
G1 X-39.732 Y-44.718 E9.76256
G1 X-35.17 Y-48.388 E10.05811
G1 X-30.351 Y-51.548 E10.34901
G1 X-25.271 Y-54.22 E10.63876
G1 X-19.957 Y-56.392 E10.92851
G1 X-13.976 Y-58.164 E11.24343
G1 X-8.337 Y-59.236 E11.53318
G1 X-2.621 Y-59.762 E11.82294
G1 X3.142 Y-59.737 E12.11384
G1 X8.853 Y-59.161 E12.40359
G1 X14.967 Y-57.917 E12.71851
G1 X20.47 Y-56.208 E13.00941
G1 X26.213 Y-53.771 E13.32433
G1 X31.246 Y-51.011 E13.61409
G1 X36.009 Y-47.767 E13.90498
G1 X40.422 Y-44.096 E14.19474
G1 X44.462 Y-40.019 E14.48449
G1 X48.388 Y-35.17 E14.79941
G1 X51.537 Y-30.371 E15.08916
G1 X54.22 Y-25.271 E15.38006
G1 X56.392 Y-19.958 E15.66982
G1 X58.045 Y-14.461 E15.95956
G1 X59.239 Y-8.314 E16.27563
G1 X59.763 Y-2.598 E16.56539
G1 X59.737 Y3.142 E16.85515
G1 X59.085 Y9.347 E17.17007
G1 X57.917 Y14.967 E17.45982
G1 X56.208 Y20.47 E17.75072
G1 X53.77 Y26.213 E18.06564
G1 X51.01 Y31.246 E18.35539
G1 X47.767 Y36.009 E18.64629
G1 X44.096 Y40.422 E18.93604
G1 X40.019 Y44.462 E19.22579
G1 X35.17 Y48.388 E19.54072
G1 X30.371 Y51.536 E19.83047
G1 X25.271 Y54.22 E20.12136
G1 X19.957 Y56.392 E20.41112
G1 X14.256 Y58.095 E20.7115
G1 X8.337 Y59.236 E21.01579
G1 X2.598 Y59.763 E21.30669
G1 X-3.142 Y59.737 E21.59645
G1 X-6.241 Y59.493 E21.75338
G1 X-10.307 Y58.904 E21.96073
M204 S1000
; printing object rotor_adaptor_ring.STL id:0 copy 0
;WIPE_START
G1 F8640
G1 X-14.967 Y57.917 E21.01799
G1 X-20.47 Y56.208 E19.87744
G1 X-24.042 Y54.709 E19.11073
;WIPE_END
G1 E18.96073 F1800
G92 E0
G1 X-.628 Y55.69 F10800
G1 E3 F1800
M204 S800
;TYPE:Perimeter
G1 F1200
G1 X-5.341 Y55.464 E3.23814
G1 X-10.633 Y54.696 E3.50811
G1 X-16.135 Y53.333 E3.79424
G1 X-21.323 Y51.479 E4.07231
G1 X-26.159 Y49.198 E4.34224
G1 X-30.754 Y46.464 E4.61214
G1 X-35.068 Y43.302 E4.88214
G1 X-39.399 Y39.402 E5.17635
G1 X-42.995 Y35.443 E5.44635
G1 X-46.196 Y31.157 E5.71635
G1 X-49.198 Y26.161 E6.01056
G1 X-51.479 Y21.323 E6.28057
G1 X-53.286 Y16.291 E6.55046
G1 X-54.602 Y11.109 E6.82036
G1 X-55.416 Y5.822 E7.09037
G1 X-55.721 Y.002 E7.38457
G1 X-55.465 Y-5.341 E7.6546
G1 X-54.682 Y-10.709 E7.92844
G1 X-53.287 Y-16.29 E8.21881
G1 X-51.48 Y-21.324 E8.4888
G1 X-49.199 Y-26.161 E8.75878
G1 X-46.273 Y-31.044 E9.04611
G1 X-42.997 Y-35.443 E9.32299
G1 X-39.402 Y-39.402 E9.59293
G1 X-35.443 Y-42.998 E9.8629
G1 X-30.908 Y-46.364 E10.14799
G1 X-26.161 Y-49.2 E10.42713
G1 X-21.324 Y-51.481 E10.69707
G1 X-16.292 Y-53.288 E10.96698
G1 X-11.109 Y-54.604 E11.23688
G1 X-5.823 Y-55.418 E11.50689
G1 X-.025 Y-55.723 E11.79998
G1 X5.341 Y-55.467 E12.07112
G1 X10.633 Y-54.699 E12.34105
G1 X15.883 Y-53.411 E12.61394
G1 X21.324 Y-51.481 E12.90538
G1 X26.587 Y-48.971 E13.19969
G1 X31.16 Y-46.196 E13.4697
G1 X35.444 Y-42.997 E13.73961
G1 X39.402 Y-39.402 E14.00951
G1 X42.997 Y-35.444 E14.27942
G1 X46.196 Y-31.16 E14.54933
G1 X48.97 Y-26.587 E14.81933
G1 X51.48 Y-21.325 E15.1136
G1 X53.349 Y-16.084 E15.39446
G1 X54.698 Y-10.634 E15.6779
G1 X55.465 Y-5.341 E15.94787
G1 X55.721 Y0 E16.21777
G1 X55.465 Y5.341 E16.48771
G1 X54.665 Y10.796 E16.76602
G1 X53.287 Y16.29 E17.05192
G1 X51.479 Y21.323 E17.32188
G1 X49.199 Y26.159 E17.59178
G1 X46.465 Y30.754 E17.86168
G1 X43.302 Y35.068 E18.13168
G1 X39.401 Y39.4 E18.42599
G1 X35.068 Y43.302 E18.7203
G1 X30.754 Y46.465 E18.99031
G1 X26.159 Y49.198 E19.2602
G1 X21.323 Y51.479 E19.5301
G1 X16.289 Y53.286 E19.8001
G1 X10.634 Y54.696 E20.0943
G1 X5.341 Y55.464 E20.36431
G1 X-.539 Y55.695 E20.66131
M204 S1000
G1 X0 Y55.113 F10800
M204 S800
;TYPE:External perimeter
G1 F1200
G1 X-5.282 Y54.859 E20.92827
G1 X-10.517 Y54.1 E21.19524
G1 X-15.96 Y52.751 E21.47831
G1 X-21.091 Y50.918 E21.75335
G1 X-25.874 Y48.662 E22.02032
G1 X-30.419 Y45.958 E22.28727
G1 X-34.684 Y42.83 E22.55427
G1 X-38.97 Y38.971 E22.8454
G1 X-42.526 Y35.056 E23.11238
G1 X-45.691 Y30.818 E23.37937
G1 X-48.662 Y25.874 E23.6705
G1 X-50.918 Y21.091 E23.9375
G1 X-52.705 Y16.113 E24.20446
G1 X-54.007 Y10.988 E24.47141
G1 X-54.812 Y5.76 E24.7384
G1 X-55.113 Y0 E25.02953
G1 X-54.86 Y-5.283 E25.29653
G1 X-54.086 Y-10.592 E25.56735
G1 X-52.706 Y-16.113 E25.85466
G1 X-50.919 Y-21.091 E26.12165
G1 X-48.663 Y-25.875 E26.38863
G1 X-45.768 Y-30.706 E26.6729
G1 X-42.528 Y-35.057 E26.94676
G1 X-38.972 Y-38.972 E27.21373
G1 X-35.057 Y-42.528 E27.48072
G1 X-30.571 Y-45.859 E27.76275
G1 X-25.875 Y-48.664 E28.03886
G1 X-21.092 Y-50.92 E28.30583
G1 X-16.114 Y-52.707 E28.5728
G1 X-10.988 Y-54.009 E28.83976
G1 X-5.76 Y-54.813 E29.10676
G1 X-.023 Y-55.115 E29.39677
G1 X5.283 Y-54.862 E29.6649
G1 X10.517 Y-54.103 E29.93187
G1 X15.709 Y-52.829 E30.20174
G1 X21.092 Y-50.92 E30.49005
G1 X26.298 Y-48.436 E30.78122
G1 X30.82 Y-45.692 E31.04822
G1 X35.057 Y-42.528 E31.31518
G1 X38.972 Y-38.972 E31.58214
G1 X42.528 Y-35.057 E31.8491
G1 X45.692 Y-30.82 E32.11607
G1 X48.436 Y-26.298 E32.38306
G1 X50.919 Y-21.092 E32.67421
G1 X52.767 Y-15.909 E32.95197
G1 X54.101 Y-10.517 E33.23237
G1 X54.86 Y-5.283 E33.49936
G1 X55.113 Y0 E33.76631
G1 X54.86 Y5.282 E34.03328
G1 X54.068 Y10.678 E34.30856
G1 X52.705 Y16.113 E34.5914
G1 X50.918 Y21.091 E34.85838
G1 X48.662 Y25.874 E35.12534
G1 X45.958 Y30.419 E35.39229
G1 X42.83 Y34.684 E35.65928
G1 X38.971 Y38.971 E35.95044
G1 X34.684 Y42.83 E36.24161
G1 X30.419 Y45.958 E36.5086
G1 X25.874 Y48.662 E36.77556
G1 X21.091 Y50.917 E37.04251
G1 X16.113 Y52.705 E37.3095
G1 X10.517 Y54.1 E37.60062
G1 X5.282 Y54.859 E37.86761
G1 X.09 Y55.108 E38.13003
M204 S1000
G1 X-.3 Y55.632 F10800
G1 X-.599 Y56.25
M204 S800
;TYPE:Perimeter
G1 F1200
G1 X-5.392 Y56.02 E38.37224
G1 X-11.222 Y55.149 E38.66978
G1 X-16.455 Y53.82 E38.94231
G1 X-21.537 Y51.995 E39.21491
G1 X-26.422 Y49.692 E39.48751
G1 X-31.061 Y46.931 E39.76002
G1 X-35.8 Y43.425 E40.05759
G1 X-39.795 Y39.796 E40.33003
G1 X-43.588 Y35.6 E40.61554
G1 X-46.931 Y31.061 E40.90011
G1 X-49.692 Y26.421 E41.17266
G1 X-51.994 Y21.538 E41.44518
G1 X-53.924 Y16.109 E41.73602
G1 X-55.245 Y10.738 E42.01525
G1 X-56.02 Y5.394 E42.28782
G1 X-56.279 Y0 E42.56042
G1 X-56.02 Y-5.393 E42.83296
G1 X-55.181 Y-11.058 E43.12203
G1 X-53.819 Y-16.455 E43.40301
G1 X-51.994 Y-21.537 E43.67558
G1 X-49.691 Y-26.421 E43.94818
G1 X-46.93 Y-31.06 E44.22068
G1 X-43.443 Y-35.776 E44.51673
G1 X-39.794 Y-39.795 E44.79074
G1 X-35.797 Y-43.425 E45.0633
G1 X-31.378 Y-46.718 E45.34149
G1 X-26.419 Y-49.691 E45.63335
G1 X-21.536 Y-51.994 E45.90586
G1 X-16.436 Y-53.824 E46.17939
G1 X-10.736 Y-55.244 E46.47591
G1 X-5.394 Y-56.018 E46.74838
G1 X.109 Y-56.277 E47.02649
G1 X5.884 Y-55.969 E47.31842
G1 X11.22 Y-55.148 E47.59094
G1 X16.454 Y-53.818 E47.86353
G1 X21.536 Y-51.994 E48.13613
G1 X26.42 Y-49.691 E48.40866
G1 X31.274 Y-46.787 E48.69421
G1 X35.798 Y-43.425 E48.97872
G1 X39.794 Y-39.795 E49.25126
G1 X43.425 Y-35.798 E49.52382
G1 X46.76 Y-31.316 E49.80581
G1 X49.691 Y-26.42 E50.09387
G1 X51.994 Y-21.537 E50.36641
G1 X53.819 Y-16.456 E50.63891
G1 X55.245 Y-10.737 E50.93647
G1 X56.02 Y-5.394 E51.20897
G1 X56.279 Y0 E51.48157
G1 X56.02 Y5.392 E51.75407
G1 X55.149 Y11.222 E52.05163
G1 X53.82 Y16.454 E52.32413
G1 X51.995 Y21.537 E52.59673
G1 X49.692 Y26.421 E52.86934
G1 X46.932 Y31.061 E53.14183
G1 X43.425 Y35.799 E53.4394
G1 X39.797 Y39.794 E53.71181
G1 X35.452 Y43.709 E54.007
G1 X31.062 Y46.93 E54.28188
G1 X26.422 Y49.692 E54.55448
G1 X21.537 Y51.995 E54.82708
G1 X16.456 Y53.819 E55.0996
G1 X10.838 Y55.225 E55.39195
G1 X5.394 Y56.02 E55.66967
G1 X-.509 Y56.255 E55.96789
M204 S1000
G1 X0 Y56.887 F10800
M204 S800
;TYPE:External perimeter
G1 F1200
G1 X-5.452 Y56.625 E56.2434
G1 X-11.342 Y55.745 E56.54402
G1 X-16.632 Y54.401 E56.81956
G1 X-21.77 Y52.557 E57.0951
G1 X-26.707 Y50.228 E57.37065
G1 X-31.397 Y47.438 E57.64616
G1 X-36.185 Y43.895 E57.94681
G1 X-40.225 Y40.225 E58.22231
G1 X-44.058 Y35.985 E58.51086
G1 X-47.437 Y31.397 E58.79846
G1 X-50.228 Y26.707 E59.07399
G1 X-52.556 Y21.77 E59.34951
G1 X-54.506 Y16.284 E59.64341
G1 X-55.842 Y10.854 E59.92567
G1 X-56.625 Y5.452 E60.2012
G1 X-56.887 Y0 E60.47675
G1 X-56.625 Y-5.452 E60.75227
G1 X-55.777 Y-11.177 E61.0444
G1 X-54.4 Y-16.632 E61.32841
G1 X-52.556 Y-21.77 E61.60395
G1 X-50.227 Y-26.707 E61.8795
G1 X-47.437 Y-31.397 E62.155
G1 X-43.913 Y-36.161 E62.45412
G1 X-40.224 Y-40.224 E62.73114
G1 X-36.184 Y-43.894 E63.00667
G1 X-31.716 Y-47.223 E63.28789
G1 X-26.706 Y-50.227 E63.58281
G1 X-21.769 Y-52.555 E63.85832
G1 X-16.612 Y-54.405 E64.13487
G1 X-10.853 Y-55.84 E64.43445
G1 X-5.452 Y-56.623 E64.70995
G1 X.111 Y-56.885 E64.99108
G1 X5.947 Y-56.573 E65.28608
G1 X11.341 Y-55.743 E65.5616
G1 X16.632 Y-54.4 E65.83713
G1 X21.769 Y-52.555 E66.11267
G1 X26.706 Y-50.227 E66.38819
G1 X31.612 Y-47.292 E66.67678
G1 X36.184 Y-43.894 E66.96433
G1 X40.224 Y-40.224 E67.23985
G1 X43.894 Y-36.184 E67.51537
G1 X47.265 Y-31.654 E67.80041
G1 X50.227 Y-26.706 E68.09152
G1 X52.556 Y-21.77 E68.36704
G1 X54.4 Y-16.633 E68.64255
G1 X55.841 Y-10.854 E68.94319
G1 X56.625 Y-5.453 E69.2187
G1 X56.887 Y0 E69.49424
G1 X56.625 Y5.452 E69.76976
G1 X55.745 Y11.342 E70.0704
G1 X54.401 Y16.632 E70.34591
G1 X52.557 Y21.769 E70.62145
G1 X50.228 Y26.707 E70.897
G1 X47.438 Y31.397 E71.17251
G1 X43.895 Y36.185 E71.47316
G1 X40.226 Y40.224 E71.74863
G1 X35.836 Y44.18 E72.0469
G1 X31.398 Y47.437 E72.32479
G1 X26.707 Y50.228 E72.60034
G1 X21.77 Y52.557 E72.87589
G1 X16.633 Y54.401 E73.1514
G1 X10.955 Y55.822 E73.44682
G1 X5.452 Y56.625 E73.72757
G1 X.09 Y56.883 E73.99856
M204 S1000
G1 X-.3 Y56.367 F10800
; stop printing object rotor_adaptor_ring.STL id:0 copy 0
;LAYER_CHANGE
;Z:0.68
;HEIGHT:0.48
; **** Start of Before Layer Change GCode: FlashForge Creator 3 ****
; FFPP-layer_z_height: 0.68 ; Value parsed by FFPP script
;layer:0.480 ; Value substituted by FFPP script (FFPP-calculated-next_layer_height)
; **** End of Before Layer Change GCode: FlashForge Creator 3 ****
G1 Z.68 F720
; **** Start of After Layer Change GCode: FlashForge Creator 3 ****
; **** End of After Layer Change GCode: FlashForge Creator 3 ****
M104 S245 ; set temperature
M140 S90 ; set bed temperature
G1 E70.99856 F1800
G92 E0
G1 X.141 Y59.806 F10800
G1 E3 F1800
;TYPE:Skirt/Brim
G1 F3000
G1 X-6.241 Y59.493 E3.69752
G1 X-11.937 Y58.616 E4.32659
G1 X-17.977 Y57.054 E5.00759
G1 X-23.363 Y55.069 E5.63417
G1 X-28.533 Y52.576 E6.26074
G1 X-33.46 Y49.586 E6.88979
G1 X-38.221 Y46.016 E7.53942
G1 X-42.658 Y41.936 E8.19737
G1 X-46.481 Y37.654 E8.82395
G1 X-49.889 Y33.007 E9.453
G1 X-52.823 Y28.073 E10.07957
G1 X-55.459 Y22.419 E10.76057
G1 X-57.353 Y17.001 E11.38714
G1 X-58.723 Y11.403 E12.0162
G1 X-59.545 Y5.722 E12.64278
G1 X-59.817 Y-.511 E13.32379
G1 X-59.491 Y-6.264 E13.95283
G1 X-58.616 Y-11.937 E14.57942
G1 X-57.054 Y-17.977 E15.26042
G1 X-55.069 Y-23.363 E15.887
G1 X-52.576 Y-28.534 E16.51358
G1 X-49.586 Y-33.46 E17.14261
G1 X-45.905 Y-38.354 E17.81108
G1 X-41.936 Y-42.659 E18.4502
G1 X-37.637 Y-46.496 E19.07924
G1 X-33.007 Y-49.889 E19.70582
G1 X-27.632 Y-53.055 E20.38682
G1 X-22.419 Y-55.46 E21.01341
G1 X-16.979 Y-57.36 E21.64246
G1 X-11.403 Y-58.723 E22.26903
G1 X-5.722 Y-59.545 E22.8956
G1 X.511 Y-59.818 E23.57661
G1 X6.241 Y-59.493 E24.20317
G1 X11.937 Y-58.617 E24.83224
G1 X17.5 Y-57.203 E25.45881
G1 X23.363 Y-55.069 E26.13982
G1 X28.553 Y-52.565 E26.76886
G1 X33.46 Y-49.586 E27.39545
G1 X38.442 Y-45.832 E28.07643
G1 X42.658 Y-41.936 E28.70302
G1 X46.496 Y-37.637 E29.33208
G1 X49.889 Y-33.007 E29.95866
G1 X53.055 Y-27.632 E30.63964
G1 X55.459 Y-22.419 E31.26623
G1 X57.353 Y-17.001 E31.89279
G1 X58.723 Y-11.403 E32.52185
G1 X59.591 Y-5.225 E33.20285
G1 X59.817 Y.511 E33.82945
G1 X59.491 Y6.264 E34.45849
G1 X58.616 Y11.937 E35.08507
G1 X57.139 Y17.704 E35.73491
G1 X55.069 Y23.363 E36.39265
G1 X52.565 Y28.553 E37.02169
G1 X49.586 Y33.46 E37.64827
G1 X45.832 Y38.443 E38.32928
G1 X41.936 Y42.658 E38.95585
G1 X37.655 Y46.481 E39.58242
G1 X33.007 Y49.889 E40.21149
G1 X27.887 Y52.921 E40.86107
G1 X22.419 Y55.459 E41.51906
G1 X17.001 Y57.353 E42.14563
G1 X11.403 Y58.723 E42.77469
G1 X5.225 Y59.591 E43.45568
G1 X.231 Y59.804 E44.00132
; printing object rotor_adaptor_ring.STL id:0 copy 0
;WIPE_START
G1 F8640
G1 X-6.241 Y59.493 E42.71886
G1 X-11.937 Y58.616 E41.57827
G1 X-14.026 Y58.076 E41.15132
;WIPE_END
G1 E41.00132 F1800
G92 E0
G1 X-.574 Y55.593 F10800
G1 E3 F1800
M204 S800
;TYPE:Perimeter
G1 F2700
G1 X-5.331 Y55.364 E3.51987
G1 X-10.615 Y54.598 E4.10265
G1 X-16.26 Y53.191 E4.73776
G1 X-21.285 Y51.386 E5.32055
G1 X-26.114 Y49.109 E5.9033
G1 X-31.042 Y46.152 E6.53073
G1 X-35.379 Y42.918 E7.12121
G1 X-39.33 Y39.329 E7.70383
G1 X-42.918 Y35.379 E8.28642
G1 X-46.112 Y31.101 E8.86918
G1 X-49.076 Y26.175 E9.49669
G1 X-51.387 Y21.285 E10.08707
G1 X-53.191 Y16.26 E10.6699
G1 X-54.598 Y10.615 E11.305
G1 X-55.364 Y5.331 E11.88778
G1 X-55.62 Y0 E12.47039
G1 X-55.364 Y-5.331 E13.05299
G1 X-54.598 Y-10.615 E13.63577
G1 X-53.191 Y-16.26 E14.27087
G1 X-51.387 Y-21.285 E14.85367
G1 X-49.11 Y-26.112 E15.43626
G1 X-46.38 Y-30.701 E16.01904
