; generated by PrusaSlicer 2.4.0+win64 on 2022-02-28 at 13:30:03 UTC

; 

; external perimeters extrusion width = 0.61mm
; perimeters extrusion width = 0.65mm
; infill extrusion width = 0.70mm
; solid infill extrusion width = 0.65mm
; top infill extrusion width = 0.60mm
; support material extrusion width = 0.55mm
; first layer extrusion width = 0.65mm

; external perimeters extrusion width = 0.61mm
; perimeters extrusion width = 0.65mm
; infill extrusion width = 0.70mm
; solid infill extrusion width = 0.65mm
; top infill extrusion width = 0.60mm
; support material extrusion width = 0.55mm
; first layer extrusion width = 0.65mm

M107
;TYPE:Custom
; **** Start of Start GCode: FlashForge Creator 3 ****
M118 X150.00 Y125.00 Z200.00 T0 T1 D2
; todo: need to post process Active extruders in m118

M108 T0 ; tool change
G90 ; absolute positioning
M108 T0 ; tool change
G90 ; absolute positioning
G1 X187 Y0.000 F12000 ; Move initial extruder over anti-ooze plate

; Set Filament Z-Offset
G1 Z0.000 F720 ;
;FFPP-UNCOMMENT; G92 Z-<FFPP-filament_extra_z_offset> ; Value substituted by FFPP script (FFPP-filament_extra_z_offset)(negative is printing higher in air)

M140 S75 T0 ; set bed temperature
M104 S230 T0 ; set right extruder temp
M104 S0 T1 ; set left extruder temp

M7 T0 ; wait for platform
M6 T0 ; wait for temp
M6 T1 ; wait for temp

M106 ; Extruder/Heat Break fan on
M651 S255 ; chassis fan on (after heating reached to speed up heating)

; Purge Filament (gets rid of any curling filament too)
G1 X172 F12000 ; Move initial extruder off anti-ooze plate
G92 E0 ; reset extrusion distance 
G1 F150 E20 ; feed 20mm of feed stock 
G92 E0 ; reset extrusion distance


; M652 ; chassis fan off 
M109 T2

;layer_count: <FFPP-calculated-total_layer_count> ; Value substituted by FFPP script (FFPP-calculated-total_layer_count)
; **** End of Start GCode: FlashForge Creator 3 ****
G21 ; set units to millimeters
G90 ; use absolute coordinates
M82 ; use absolute distances for extrusion
G92 E0
; **** Start of Filament-Specific Start GCode: eSun PETG - Blue (Hardened 0.6mm) ****
; FFPP-filament_extra_z_offset: 0.06 ; Value parsed by FFPP script
; **** End of Filament-Specific Start GCode: eSun PETG - Blue (Hardened 0.6mm) ****
M107
;LAYER_CHANGE
;Z:0.2
;HEIGHT:0.2
; **** Start of Before Layer Change GCode: FlashForge Creator 3 ****
; FFPP-layer_z_height: 0.2 ; Value parsed by FFPP script
;layer:<FFPP-calculated-next_layer_height> ; Value substituted by FFPP script (FFPP-calculated-next_layer_height)
; **** End of Before Layer Change GCode: FlashForge Creator 3 ****
G1 Z.2 F720
; **** Start of After Layer Change GCode: FlashForge Creator 3 ****
; **** End of After Layer Change GCode: FlashForge Creator 3 ****
G1 E-4 F1500
G92 E0
G1 X-25.011 Y-18.843 F12000
G1 E4 F1500
M204 S800
;TYPE:Skirt/Brim
;WIDTH:0.65
G1 F1200
G1 X-24.028 Y-20.147 E4.08241
G1 X-21.987 Y-22.357 E4.23428
G1 X-19.742 Y-24.362 E4.3862
G1 X-17.298 Y-26.154 E4.53923
G1 X-14.711 Y-27.692 E4.69112
G1 X-11.762 Y-29.068 E4.8554
G1 X-8.917 Y-30.063 E5.00755
G1 X-5.977 Y-30.782 E5.1603
G1 X-2.994 Y-31.214 E5.31246
G1 X.262 Y-31.356 E5.47697
G1 X3.289 Y-31.184 E5.63003
G1 X6.263 Y-30.725 E5.78192
G1 X9.413 Y-29.911 E5.94617
G1 X12.241 Y-28.869 E6.09831
G1 X14.967 Y-27.554 E6.25109
G1 X17.544 Y-25.99 E6.40325
G1 X20.147 Y-24.028 E6.56777
G1 X22.357 Y-21.987 E6.71965
G1 X24.362 Y-19.742 E6.87156
G1 X26.154 Y-17.298 E7.02459
G1 X27.806 Y-14.494 E7.18885
G1 X29.068 Y-11.762 E7.34076
G1 X30.063 Y-8.917 E7.4929
G1 X30.782 Y-5.977 E7.64566
G1 X31.214 Y-2.994 E7.79782
G1 X31.356 Y.262 E7.96233
G1 X31.184 Y3.289 E8.11539
G1 X30.725 Y6.263 E8.26728
G1 X29.911 Y9.413 E8.43153
G1 X28.869 Y12.241 E8.58367
G1 X27.554 Y14.967 E8.73645
G1 X25.993 Y17.54 E8.88834
G1 X24.028 Y20.147 E9.05313
G1 X21.99 Y22.354 E9.20478
G1 X19.743 Y24.362 E9.35692
G1 X17.298 Y26.155 E9.50996
G1 X14.494 Y27.806 E9.67421
G1 X11.762 Y29.068 E9.82612
G1 X8.917 Y30.063 E9.97827
G1 X5.977 Y30.782 E10.13102
G1 X2.994 Y31.214 E10.28319
G1 X-.262 Y31.356 E10.4477
G1 X-3.266 Y31.186 E10.5996
G1 X-6.263 Y30.725 E10.75264
G1 X-9.413 Y29.911 E10.9169
G1 X-12.241 Y28.869 E11.06903
G1 X-14.952 Y27.563 E11.22095
G1 X-17.54 Y25.993 E11.3737
G1 X-20.147 Y24.029 E11.53849
G1 X-22.354 Y21.99 E11.69015
G1 X-24.362 Y19.743 E11.84228
G1 X-26.151 Y17.302 E11.99504
G1 X-27.809 Y14.49 E12.15983
G1 X-29.068 Y11.762 E12.31149
G1 X-30.063 Y8.917 E12.46363
G1 X-30.782 Y5.977 E12.61638
G1 X-31.214 Y2.994 E12.76855
G1 X-31.356 Y-.262 E12.93308
G1 X-31.186 Y-3.266 E13.08497
G1 X-30.725 Y-6.263 E13.238
G1 X-29.911 Y-9.413 E13.40226
G1 X-28.869 Y-12.241 E13.55439
G1 X-27.565 Y-14.948 E13.70605
G1 X-25.993 Y-17.54 E13.85907
G1 X-25.065 Y-18.771 E13.93691
M204 S1000
; printing object output_shaft.STL id:0 copy 0
;WIPE_START
G1 F9600
G1 X-24.028 Y-20.147 E13.68123
G1 X-21.987 Y-22.357 E13.23462
G1 X-19.742 Y-24.362 E12.7879
G1 X-17.298 Y-26.154 E12.3379
G1 X-14.711 Y-27.692 E11.89126
G1 X-11.762 Y-29.068 E11.40818
G1 X-8.917 Y-30.063 E10.96078
G1 X-5.977 Y-30.782 E10.5116
G1 X-3.479 Y-31.144 E10.13691
;WIPE_END
G1 E9.93691 F1500
G92 E0
G1 X.038 Y-5.094 F12000
G1 E4 F1500
M204 S800
;TYPE:Support material
G1 F1200
G1 X1.016 Y-4.992 E4.0496
G1 X1.95 Y-4.707 E4.0989
G1 X2.812 Y-4.248 E4.14819
G1 X3.602 Y-3.602 E4.19972
G1 X4.248 Y-2.812 E4.25125
G1 X4.707 Y-1.949 E4.30055
G1 X5 Y-.978 E4.35177
G1 X5.094 Y0 E4.40137
G1 X4.993 Y1.01 E4.45259
G1 X4.707 Y1.95 E4.5022
G1 X4.248 Y2.812 E4.55149
G1 X3.602 Y3.602 E4.60302
G1 X2.812 Y4.248 E4.65454
G1 X1.95 Y4.707 E4.70385
G1 X.978 Y5 E4.75507
G1 X0 Y5.094 E4.80468
G1 X-1.016 Y4.992 E4.8562
G1 X-1.95 Y4.707 E4.9055
G1 X-2.812 Y4.248 E4.9548
G1 X-3.598 Y3.607 E5.00602
G1 X-4.224 Y2.849 E5.05562
G1 X-4.689 Y1.991 E5.10491
G1 X-4.983 Y1.059 E5.15421
G1 X-5.094 Y.044 E5.20575
G1 X-5.002 Y-.966 E5.25697
G1 X-4.724 Y-1.908 E5.30657
G1 X-4.273 Y-2.775 E5.35586
G1 X-3.634 Y-3.571 E5.40739
G1 X-2.886 Y-4.198 E5.45669
G1 X-1.991 Y-4.689 E5.50822
G1 X-1.059 Y-4.983 E5.55752
G1 X-.053 Y-5.094 E5.60863
M204 S1000
G1 X4.047 Y2.62 F12000
M204 S800
G1 F1200
G1 X4.047 Y-2.075 E5.84563
G1 X3.373 Y-3.051 E5.90554
G1 X3.373 Y3.051 E6.21358
G1 X2.698 Y3.661 E6.25949
G1 X2.698 Y-3.661 E6.62913
G1 X2.024 Y-4.073 E6.66902
G1 X2.024 Y4.073 E7.08023
G1 X1.349 Y4.343 E7.11691
G1 X1.349 Y-4.343 E7.55541
G1 X.675 Y-4.498 E7.59034
G1 X.675 Y4.498 E8.04443
G1 X0 Y4.548 E8.07857
G1 X0 Y-4.548 E8.53774
G1 X-.675 Y-4.498 E8.57188
G1 X-.675 Y4.498 E9.02597
G1 X-1.349 Y4.343 E9.0609
G1 X-1.349 Y-4.343 E9.4994
G1 X-2.024 Y-4.073 E9.53608
G1 X-2.024 Y4.073 E9.94729
G1 X-2.477 Y3.814 E9.97364
G1 X-2.698 Y3.661 E9.98722
G1 X-2.698 Y-3.661 E10.35686
G1 X-3.373 Y-3.051 E10.40277
G1 X-3.373 Y3.051 E10.71081
G1 X-4.047 Y2.075 E10.77072
G1 X-4.047 Y-2.62 E11.00771
M204 S1000
;WIPE_START
G1 F9600
G1 X-4.047 Y2.075 E10.3108
G1 X-3.373 Y3.051 E10.13465
G1 X-3.373 Y-3.051 E9.22881
G1 X-2.698 Y-3.661 E9.09381
G1 X-2.698 Y3.661 E8.00686
G1 X-2.477 Y3.814 E7.96694
G1 X-2.024 Y4.073 E7.88945
G1 X-2.024 Y-.52 E7.20771
;WIPE_END
G1 E7.00771 F1500
G92 E0
G1 X-19.625 Y-14.182 F12000
G1 E4 F1500
M204 S800
;TYPE:Perimeter
G1 F1200
G1 X-19.62 Y-14.76 E4.02917
G1 X-19.176 Y-16.39 E4.11449
G1 X-18.651 Y-17.299 E4.16747
G1 X-18.034 Y-18.034 E4.2159
G1 X-17.299 Y-18.651 E4.26434
G1 X-16.391 Y-19.176 E4.31731
G1 X-14.76 Y-19.62 E4.40263
G1 X-13.71 Y-19.63 E4.45562
G1 X-12.416 Y-19.348 E4.52246
G1 X-11.165 Y-20.144 E4.59731
G1 X-8.636 Y-21.35 E4.73875
G1 X-6.34 Y-22.141 E4.86136
G1 X-4.902 Y-22.461 E4.93572
G1 X-4.704 Y-22.875 E4.95889
G1 X-3.612 Y-24.165 E5.04421
G1 X-2.752 Y-24.767 E5.09719
G1 X-1.798 Y-25.212 E5.15032
G1 X-.02 Y-25.528 E5.24152
G1 X1.754 Y-25.227 E5.33232
G1 X2.711 Y-24.791 E5.38539
G1 X3.501 Y-24.247 E5.43383
G1 X4.186 Y-23.575 E5.48226
G1 X4.902 Y-22.461 E5.54911
G1 X6.34 Y-22.141 E5.62348
G1 X8.636 Y-21.35 E5.74608
G1 X11.165 Y-20.144 E5.88753
G1 X12.416 Y-19.348 E5.96237
G1 X13.71 Y-19.63 E6.02922
G1 X14.76 Y-19.62 E6.08219
G1 X16.39 Y-19.176 E6.16752
G1 X17.299 Y-18.651 E6.2205
G1 X18.106 Y-17.975 E6.27362
G1 X19.144 Y-16.496 E6.36483
G1 X19.62 Y-14.762 E6.45563
G1 X19.63 Y-13.71 E6.5087
G1 X19.348 Y-12.416 E6.57555
G1 X20.144 Y-11.165 E6.65039
G1 X21.35 Y-8.636 E6.79184
G1 X22.141 Y-6.34 E6.91444
G1 X22.461 Y-4.902 E6.98881
G1 X23.575 Y-4.186 E7.05566
G1 X24.31 Y-3.437 E7.10864
G1 X25.149 Y-1.97 E7.19396
G1 X25.421 Y-.956 E7.24694
G1 X25.504 Y0 E7.29537
G1 X25.421 Y.956 E7.3438
G1 X25.149 Y1.97 E7.39678
G1 X24.31 Y3.437 E7.4821
G1 X23.575 Y4.186 E7.53508
G1 X22.461 Y4.902 E7.60193
G1 X22.139 Y6.349 E7.67677
G1 X21.204 Y8.99 E7.81822
G1 X20.139 Y11.173 E7.94082
G1 X19.348 Y12.416 E8.01519
G1 X19.63 Y13.71 E8.08205
G1 X19.62 Y14.76 E8.13502
G1 X19.176 Y16.39 E8.22034
G1 X18.651 Y17.299 E8.27332
G1 X17.975 Y18.106 E8.32644
G1 X16.496 Y19.144 E8.41765
G1 X14.762 Y19.62 E8.50845
G1 X13.71 Y19.63 E8.56153
G1 X12.416 Y19.348 E8.62837
G1 X11.165 Y20.144 E8.70321
G1 X8.636 Y21.35 E8.84466
G1 X6.34 Y22.141 E8.96726
G1 X4.902 Y22.461 E9.04163
G1 X4.186 Y23.575 E9.10848
G1 X3.435 Y24.313 E9.16161
G1 X1.864 Y25.205 E9.25281
G1 X.092 Y25.512 E9.34362
G1 X-.956 Y25.421 E9.39669
G1 X-1.97 Y25.149 E9.44966
G1 X-3.437 Y24.31 E9.53499
G1 X-4.186 Y23.575 E9.58796
G1 X-4.902 Y22.461 E9.65481
G1 X-6.34 Y22.141 E9.72918
G1 X-8.636 Y21.35 E9.85178
G1 X-11.165 Y20.144 E9.99323
G1 X-12.416 Y19.348 E10.06807
G1 X-13.71 Y19.63 E10.13493
G1 X-14.67 Y19.621 E10.18336
G1 X-15.613 Y19.446 E10.23179
G1 X-16.596 Y19.079 E10.28477
G1 X-17.976 Y18.103 E10.37009
G1 X-18.651 Y17.299 E10.42307
G1 X-19.176 Y16.39 E10.47604
G1 X-19.62 Y14.76 E10.56136
G1 X-19.63 Y13.71 E10.61435
G1 X-19.348 Y12.416 E10.68119
G1 X-20.144 Y11.165 E10.75603
G1 X-21.35 Y8.636 E10.89748
G1 X-22.141 Y6.34 E11.02009
G1 X-22.461 Y4.902 E11.09445
G1 X-23.575 Y4.186 E11.1613
G1 X-24.312 Y3.435 E11.21443
G1 X-25.205 Y1.864 E11.30563
G1 X-25.529 Y-.001 E11.40118
G1 X-25.202 Y-1.872 E11.49708
G1 X-24.312 Y-3.436 E11.58789
G1 X-23.575 Y-4.186 E11.64095
G1 X-22.461 Y-4.902 E11.7078
G1 X-22.141 Y-6.34 E11.78217
G1 X-21.35 Y-8.636 E11.90477
G1 X-20.144 Y-11.165 E12.04622
G1 X-19.348 Y-12.416 E12.12106
G1 X-19.63 Y-13.71 E12.18791
G1 X-19.626 Y-14.092 E12.20717
M204 S1000
G1 X-18.978 Y-13.497 F12000
M204 S800
G1 F1200
G1 X-19.014 Y-14.676 E12.26672
G1 X-18.611 Y-16.155 E12.34411
G1 X-18.152 Y-16.95 E12.39044
G1 X-17.603 Y-17.603 E12.43351
G1 X-16.95 Y-18.152 E12.47658
G1 X-16.155 Y-18.611 E12.52291
G1 X-14.676 Y-19.014 E12.6003
G1 X-13.758 Y-19.022 E12.64664
G1 X-12.917 Y-18.881 E12.6897
G1 X-12.34 Y-18.677 E12.72058
G1 X-10.871 Y-19.612 E12.80849
G1 X-8.406 Y-20.788 E12.94633
G1 X-6.175 Y-21.556 E13.06546
G1 X-4.481 Y-21.932 E13.15303
G1 X-4.19 Y-22.543 E13.18717
G1 X-3.199 Y-23.713 E13.26456
G1 X-2.448 Y-24.239 E13.31089
G1 X-1.614 Y-24.628 E13.35733
G1 X-.017 Y-24.912 E13.43919
G1 X1.574 Y-24.642 E13.52066
G1 X2.41 Y-24.26 E13.56706
G1 X3.114 Y-23.777 E13.61013
G1 X3.722 Y-23.179 E13.6532
G1 X4.218 Y-22.484 E13.69627
G1 X4.481 Y-21.932 E13.72715
G1 X6.175 Y-21.556 E13.81472
G1 X8.406 Y-20.788 E13.93385
G1 X10.871 Y-19.612 E14.0717
G1 X12.34 Y-18.677 E14.15961
G1 X12.917 Y-18.881 E14.19048
G1 X13.758 Y-19.022 E14.23355
G1 X14.676 Y-19.014 E14.27988
G1 X16.155 Y-18.611 E14.35727
G1 X16.95 Y-18.152 E14.40361
G1 X17.655 Y-17.561 E14.45004
G1 X18.587 Y-16.234 E14.5319
G1 X19.014 Y-14.677 E14.61337
G1 X19.022 Y-13.758 E14.65978
G1 X18.881 Y-12.916 E14.70285
G1 X18.677 Y-12.34 E14.73372
G1 X19.612 Y-10.871 E14.82163
G1 X20.788 Y-8.406 E14.95947
G1 X21.556 Y-6.175 E15.07861
G1 X21.932 Y-4.481 E15.16618
G1 X22.484 Y-4.218 E15.19705
G1 X23.179 Y-3.722 E15.24012
G1 X23.822 Y-3.068 E15.28646
G1 X24.583 Y-1.737 E15.36384
G1 X24.821 Y-.85 E15.41018
G1 X24.895 Y0 E15.45325
G1 X24.821 Y.85 E15.49632
G1 X24.583 Y1.737 E15.54265
G1 X23.822 Y3.068 E15.62004
G1 X23.179 Y3.722 E15.66636
G1 X22.484 Y4.218 E15.70944
G1 X21.932 Y4.481 E15.74031
G1 X21.555 Y6.181 E15.82822
G1 X20.643 Y8.755 E15.96607
G1 X19.608 Y10.876 E16.0852
G1 X18.677 Y12.34 E16.17277
G1 X18.881 Y12.917 E16.20365
G1 X19.022 Y13.758 E16.24672
G1 X19.014 Y14.676 E16.29305
G1 X18.611 Y16.155 E16.37044
G1 X18.152 Y16.95 E16.41677
G1 X17.561 Y17.655 E16.4632
G1 X16.234 Y18.587 E16.54506
G1 X14.677 Y19.014 E16.62654
G1 X13.758 Y19.022 E16.67294
G1 X12.916 Y18.881 E16.71601
G1 X12.34 Y18.677 E16.74689
G1 X10.871 Y19.612 E16.8348
G1 X8.406 Y20.788 E16.97264
G1 X6.175 Y21.556 E17.09177
G1 X4.481 Y21.932 E17.17934
G1 X4.218 Y22.484 E17.21022
G1 X3.722 Y23.179 E17.25329
G1 X3.066 Y23.824 E17.29973
G1 X1.656 Y24.625 E17.38159
G1 X.066 Y24.901 E17.46306
G1 X-.85 Y24.821 E17.50946
G1 X-1.736 Y24.583 E17.55579
G1 X-3.068 Y23.822 E17.63318
G1 X-3.722 Y23.179 E17.67951
G1 X-4.218 Y22.484 E17.72258
G1 X-4.481 Y21.932 E17.75346
G1 X-6.175 Y21.556 E17.84103
G1 X-8.406 Y20.788 E17.96016
G1 X-10.871 Y19.612 E18.098
G1 X-12.34 Y18.677 E18.18591
G1 X-12.917 Y18.881 E18.21679
G1 X-13.758 Y19.022 E18.25987
G1 X-14.611 Y19.015 E18.30294
G1 X-15.45 Y18.859 E18.34601
G1 X-16.31 Y18.538 E18.39234
G1 X-17.562 Y17.653 E18.46972
G1 X-18.152 Y16.95 E18.51605
G1 X-18.611 Y16.155 E18.56238
G1 X-19.014 Y14.676 E18.63977
G1 X-19.022 Y13.758 E18.68611
G1 X-18.881 Y12.917 E18.72917
G1 X-18.677 Y12.34 E18.76005
G1 X-19.612 Y10.871 E18.84796
G1 X-20.788 Y8.406 E18.9858
G1 X-21.556 Y6.175 E19.10493
G1 X-21.932 Y4.481 E19.19251
G1 X-22.484 Y4.218 E19.22338
G1 X-23.179 Y3.722 E19.26645
G1 X-23.824 Y3.066 E19.31289
G1 X-24.625 Y1.656 E19.39475
G1 X-24.912 Y-.001 E19.47963
G1 X-24.622 Y-1.664 E19.56486
G1 X-23.823 Y-3.067 E19.64634
G1 X-23.179 Y-3.722 E19.69273
G1 X-22.484 Y-4.218 E19.73581
G1 X-21.932 Y-4.481 E19.76668
G1 X-21.556 Y-6.175 E19.85425
G1 X-20.788 Y-8.406 E19.97338
G1 X-19.612 Y-10.871 E20.11122
G1 X-18.677 Y-12.34 E20.19913
G1 X-18.964 Y-13.408 E20.25495
M204 S1000
G1 X-18.21 Y-12.84 F12000
M204 S800
G1 F1200
G1 X-18.415 Y-13.806 E20.30478
G1 X-18.408 Y-14.592 E20.34447
G1 X-18.046 Y-15.919 E20.41392
G1 X-17.653 Y-16.6 E20.4536
G1 X-17.173 Y-17.173 E20.49131
G1 X-16.6 Y-17.653 E20.52902
G1 X-15.92 Y-18.046 E20.5687
G1 X-14.592 Y-18.408 E20.63816
G1 X-13.806 Y-18.415 E20.67785
G1 X-13.069 Y-18.291 E20.71555
G1 X-12.281 Y-17.995 E20.75804
G1 X-10.576 Y-19.08 E20.86008
G1 X-8.176 Y-20.225 E20.99432
G1 X-6.009 Y-20.971 E21.10998
G1 X-4.04 Y-21.409 E21.21182
G1 X-3.676 Y-22.21 E21.25628
G1 X-2.787 Y-23.261 E21.32573
G1 X-2.143 Y-23.711 E21.36541
G1 X-1.429 Y-24.044 E21.40516
G1 X-.015 Y-24.296 E21.47768
G1 X1.394 Y-24.056 E21.54983
G1 X2.11 Y-23.73 E21.58955
G1 X2.726 Y-23.307 E21.62727
G1 X3.259 Y-22.783 E21.66497
G1 X3.693 Y-22.175 E21.70268
G1 X4.04 Y-21.409 E21.74516
G1 X6.009 Y-20.971 E21.84701
G1 X8.176 Y-20.225 E21.96266
G1 X10.576 Y-19.08 E22.0969
G1 X12.281 Y-17.995 E22.19895
G1 X13.069 Y-18.291 E22.24143
G1 X13.806 Y-18.415 E22.27914
G1 X14.592 Y-18.408 E22.31882
G1 X15.919 Y-18.046 E22.38828
G1 X16.6 Y-17.653 E22.42796
G1 X17.203 Y-17.147 E22.46771
G1 X18.029 Y-15.971 E22.54023
G1 X18.408 Y-14.593 E22.61237
G1 X18.415 Y-13.806 E22.6521
G1 X18.291 Y-13.069 E22.68981
G1 X17.995 Y-12.281 E22.73229
G1 X19.08 Y-10.576 E22.83434
G1 X20.225 Y-8.176 E22.96857
G1 X20.971 Y-6.009 E23.08423
G1 X21.409 Y-4.04 E23.18608
G1 X22.175 Y-3.693 E23.22855
G1 X22.783 Y-3.259 E23.26626
G1 X23.334 Y-2.698 E23.30595
G1 X24.017 Y-1.504 E23.3754
G1 X24.221 Y-.744 E23.41509
G1 X24.286 Y0 E23.4528
G1 X24.221 Y.744 E23.49051
G1 X24.017 Y1.504 E23.53019
G1 X23.334 Y2.698 E23.59965
G1 X22.783 Y3.259 E23.63933
G1 X22.175 Y3.693 E23.67704
G1 X21.409 Y4.04 E23.71952
G1 X20.97 Y6.013 E23.82157
G1 X20.082 Y8.52 E23.9558
G1 X19.078 Y10.579 E24.07146
G1 X17.995 Y12.281 E24.1733
G1 X18.291 Y13.069 E24.21579
G1 X18.415 Y13.806 E24.2535
G1 X18.408 Y14.592 E24.29318
G1 X18.046 Y15.919 E24.36263
G1 X17.653 Y16.6 E24.40232
G1 X17.147 Y17.203 E24.44206
G1 X15.971 Y18.029 E24.51458
G1 X14.593 Y18.408 E24.58674
G1 X13.806 Y18.415 E24.62646
G1 X13.069 Y18.291 E24.66417
G1 X12.281 Y17.995 E24.70665
G1 X10.576 Y19.08 E24.80869
G1 X8.176 Y20.225 E24.94293
G1 X6.009 Y20.971 E25.05859
G1 X4.04 Y21.409 E25.16043
G1 X3.693 Y22.175 E25.20291
