; generated by PrusaSlicer 2.4.0+win64 on 2022-01-20 at 20:00:24 UTC

; 

; external perimeters extrusion width = 0.61mm
; perimeters extrusion width = 0.65mm
; infill extrusion width = 0.70mm
; solid infill extrusion width = 0.65mm
; top infill extrusion width = 0.60mm
; first layer extrusion width = 0.65mm

M107
;TYPE:Custom
; **** Start of Start GCode: FlashForge Creator 3 ****
M118 X150.00 Y125.00 Z200.00 T0 T1
; todo: need to post process Active extruders in m118

G90 ; absolute positioning
M108 T0 ; tool change
G1 X187 Y0.000 F10800 ; Move initial extruder over anti-ooze plate (9-point Bed Levelling sometimes leaves it off plate)

; Set Filament Z-Offset
G1 Z0.000 F720 ;
;FFPP-UNCOMMENT; G92 Z-<FFPP-filament_extra_z_offset> ; Value substituted by FFPP script (FFPP-filament_extra_z_offset)(negative is printing higher in air)

M140 S85 T0 ; set bed temperature
M104 S250 T0 ; set right extruder temp
M104 S215 T1 ; set left extruder temp

M7 T0 ; wait for platform
M6 T0 ; wait for temp
M6 T1 ; wait for temp

M106 ; Extruder/Heat Break fan on
M651 S255 ; chassis fan on (after heating reached to speed up heating)

; Purge Filament (gets rid of any curling filament too)
G1 X172 F10800 ; Move initial extruder off anti-ooze plate
G92 E0 ; reset extrusion distance 
G1 F150 E20 ; feed 20mm of feed stock 
G92 E0 ; reset extrusion distance


; M652 ; chassis fan off 
; M109 T1/2 only if dupe or mirror

;layer_count: <FFPP-calculated-total_layer_count> ; Value substituted by FFPP script (FFPP-calculated-total_layer_count)
; **** End of Start GCode: FlashForge Creator 3 ****
G21 ; set units to millimeters
G90 ; use absolute coordinates
M82 ; use absolute distances for extrusion
G92 E0
; **** Start of Filament-Specific Start GCode: Filaments.ca PETG Filament - Transparent (Hardened 0.6mm) ****
; FFPP-filament_extra_z_offset: 0.06 ; Value parsed by FFPP script
; **** End of Filament-Specific Start GCode: EconoFil PETG ****
M107
;LAYER_CHANGE
;Z:0.2
;HEIGHT:0.2
; **** Start of Before Layer Change GCode: FlashForge Creator 3 ****
; FFPP-layer_z_height: 0.2 ; Value parsed by FFPP script
;layer:<FFPP-calculated-next_layer_height> ; Value substituted by FFPP script (FFPP-calculated-next_layer_height)
; **** End of Before Layer Change GCode: FlashForge Creator 3 ****
G1 Z.2 F720
; **** Start of After Layer Change GCode: FlashForge Creator 3 ****
; **** End of After Layer Change GCode: FlashForge Creator 3 ****
G1 E-3 F1800
G92 E0
G1 X51.793 Y29.89 F10800
G1 E3 F1800
M204 S800
;TYPE:Skirt/Brim
;WIDTH:0.65
G1 F1200
G1 X49.586 Y33.46 E3.21188
G1 X47.767 Y36.009 E3.36998
G1 X44.096 Y40.422 E3.65973
G1 X40.019 Y44.462 E3.94947
G1 X35.17 Y48.388 E4.2644
G1 X30.37 Y51.537 E4.55415
G1 X25.271 Y54.22 E4.84505
G1 X19.957 Y56.392 E5.13481
G1 X14.461 Y58.045 E5.42455
G1 X8.336 Y59.236 E5.73948
G1 X2.598 Y59.763 E6.03038
G1 X-3.142 Y59.737 E6.32013
G1 X-9.347 Y59.085 E6.63505
G1 X-14.989 Y57.911 E6.92595
G1 X-20.47 Y56.208 E7.2157
G1 X-25.763 Y53.987 E7.50545
G1 X-31.246 Y51.01 E7.82038
G1 X-35.991 Y47.781 E8.11013
G1 X-40.405 Y44.111 E8.39988
G1 X-44.462 Y40.019 E8.69078
G1 X-48.388 Y35.17 E9.0057
G1 X-51.537 Y30.37 E9.29546
G1 X-54.22 Y25.271 E9.58635
G1 X-56.392 Y19.957 E9.87611
G1 X-58.045 Y14.461 E10.16586
G1 X-59.236 Y8.336 E10.48078
G1 X-59.763 Y2.598 E10.77168
G1 X-59.737 Y-3.142 E11.06143
G1 X-59.085 Y-9.347 E11.37635
G1 X-57.911 Y-14.989 E11.66725
G1 X-56.208 Y-20.47 E11.957
G1 X-53.987 Y-25.763 E12.24676
G1 X-51.269 Y-30.819 E12.53651
G1 X-47.781 Y-35.991 E12.85143
G1 X-44.111 Y-40.405 E13.14118
G1 X-40.019 Y-44.462 E13.43208
G1 X-35.197 Y-48.369 E13.74533
G1 X-30.371 Y-51.537 E14.03676
G1 X-25.271 Y-54.22 E14.32765
G1 X-19.957 Y-56.392 E14.6174
G1 X-14.461 Y-58.045 E14.90716
G1 X-8.337 Y-59.236 E15.22208
G1 X-2.621 Y-59.762 E15.51184
G1 X3.142 Y-59.737 E15.80274
G1 X8.853 Y-59.161 E16.09248
G1 X14.967 Y-57.917 E16.40741
G1 X20.449 Y-56.216 E16.69716
G1 X26.123 Y-53.814 E17.00819
G1 X31.246 Y-51.01 E17.30298
G1 X36.009 Y-47.767 E17.59388
G1 X40.422 Y-44.096 E17.88363
G1 X44.462 Y-40.019 E18.17338
G1 X48.369 Y-35.197 E18.48663
G1 X51.537 Y-30.371 E18.77806
G1 X54.22 Y-25.271 E19.06895
G1 X56.392 Y-19.957 E19.3587
G1 X58.045 Y-14.461 E19.64846
G1 X59.236 Y-8.337 E19.96338
G1 X59.762 Y-2.621 E20.25314
G1 X59.737 Y3.142 E20.54404
G1 X59.085 Y9.347 E20.85896
G1 X57.917 Y14.967 E21.14871
G1 X56.216 Y20.449 E21.43846
G1 X53.987 Y25.763 E21.72936
G1 X51.838 Y29.812 E21.96073
M204 S1000
; printing object rotor_adaptor_ring.STL id:0 copy 0
;WIPE_START
G1 F8640
G1 X49.586 Y33.46 E21.11217
G1 X47.767 Y36.009 E20.49233
G1 X44.096 Y40.422 E19.35627
G1 X43.215 Y41.295 E19.11073
;WIPE_END
G1 E18.96073 F1800
G92 E0
G1 X-.57 Y55.693 F10800
G1 E3 F1800
M204 S800
;TYPE:Perimeter
G1 F1200
G1 X-5.341 Y55.464 E3.24108
G1 X-10.634 Y54.697 E3.51109
G1 X-16.289 Y53.287 E3.80529
G1 X-21.323 Y51.479 E4.07529
G1 X-26.161 Y49.198 E4.34528
G1 X-31.141 Y46.206 E4.63853
G1 X-35.443 Y42.995 E4.9095
G1 X-39.4 Y39.4 E5.1794
G1 X-42.995 Y35.443 E5.4493
G1 X-46.196 Y31.157 E5.71929
G1 X-49.188 Y26.178 E6.01253
G1 X-51.479 Y21.324 E6.2835
G1 X-53.287 Y16.289 E6.5535
G1 X-54.693 Y10.653 E6.84674
G1 X-55.464 Y5.341 E7.1177
G1 X-55.721 Y0 E7.38761
G1 X-55.464 Y-5.341 E7.65751
G1 X-54.697 Y-10.634 E7.92751
G1 X-53.287 Y-16.289 E8.22171
G1 X-51.479 Y-21.323 E8.49172
G1 X-49.198 Y-26.159 E8.76161
G1 X-46.464 Y-30.756 E9.03161
G1 X-42.997 Y-35.441 E9.32582
G1 X-39.4 Y-39.4 E9.59582
G1 X-35.443 Y-42.995 E9.86572
G1 X-31.157 Y-46.196 E10.13572
G1 X-26.161 Y-49.198 E10.42992
G1 X-21.323 Y-51.479 E10.69993
G1 X-16.291 Y-53.286 E10.96983
G1 X-11.109 Y-54.602 E11.23973
G1 X-5.822 Y-55.416 E11.50973
G1 X-.021 Y-55.721 E11.80296
G1 X5.34 Y-55.464 E12.07393
G1 X10.634 Y-54.697 E12.34394
G1 X16.289 Y-53.287 E12.63814
G1 X21.323 Y-51.479 E12.90814
G1 X26.159 Y-49.198 E13.17804
G1 X30.756 Y-46.464 E13.44804
G1 X35.441 Y-42.997 E13.74224
G1 X39.4 Y-39.4 E14.01225
G1 X42.997 Y-35.441 E14.28225
G1 X46.464 Y-30.756 E14.57646
G1 X49.198 Y-26.159 E14.84645
G1 X51.479 Y-21.323 E15.11636
G1 X53.287 Y-16.289 E15.38635
G1 X54.693 Y-10.653 E15.67959
G1 X55.464 Y-5.341 E15.95056
G1 X55.721 Y0 E16.22046
G1 X55.464 Y5.341 E16.49036
G1 X54.697 Y10.634 E16.76036
G1 X53.287 Y16.289 E17.05457
G1 X51.479 Y21.323 E17.32456
G1 X49.198 Y26.161 E17.59457
G1 X46.206 Y31.141 E17.8878
G1 X42.996 Y35.443 E18.15877
G1 X39.4 Y39.4 E18.42867
G1 X35.441 Y42.997 E18.69867
G1 X30.756 Y46.464 E18.99288
G1 X26.159 Y49.198 E19.26288
G1 X21.323 Y51.479 E19.53278
G1 X16.291 Y53.286 E19.80268
G1 X11.107 Y54.603 E20.07268
G1 X5.343 Y55.464 E20.36688
G1 X-.48 Y55.698 E20.66106
M204 S1000
G1 X0 Y55.113 F10800
M204 S800
;TYPE:External perimeter
G1 F1200
G1 X-5.282 Y54.859 E20.92801
G1 X-10.517 Y54.1 E21.195
G1 X-16.113 Y52.705 E21.48613
G1 X-21.091 Y50.918 E21.75312
G1 X-25.874 Y48.662 E22.0201
G1 X-30.802 Y45.702 E22.31027
G1 X-35.056 Y42.526 E22.57823
G1 X-38.971 Y38.971 E22.84518
G1 X-42.526 Y35.056 E23.11214
G1 X-45.691 Y30.818 E23.37913
G1 X-48.652 Y25.891 E23.66929
G1 X-50.918 Y21.091 E23.93724
G1 X-52.705 Y16.113 E24.20423
G1 X-54.096 Y10.536 E24.4944
G1 X-54.859 Y5.282 E24.76235
G1 X-55.113 Y0 E25.02931
G1 X-54.859 Y-5.282 E25.29626
G1 X-54.1 Y-10.517 E25.56325
G1 X-52.705 Y-16.113 E25.85438
G1 X-50.918 Y-21.091 E26.12137
G1 X-48.662 Y-25.874 E26.38832
G1 X-45.957 Y-30.419 E26.65531
G1 X-42.527 Y-35.056 E26.94644
G1 X-38.971 Y-38.971 E27.21343
G1 X-35.056 Y-42.526 E27.48039
G1 X-30.818 Y-45.691 E27.74738
G1 X-25.875 Y-48.661 E28.0385
G1 X-21.091 Y-50.918 E28.30549
G1 X-16.113 Y-52.705 E28.57245
G1 X-10.988 Y-54.006 E28.83941
G1 X-5.76 Y-54.811 E29.10639
G1 X-.02 Y-55.113 E29.39655
G1 X5.282 Y-54.859 E29.66451
G1 X10.517 Y-54.1 E29.9315
G1 X16.113 Y-52.705 E30.22263
G1 X21.091 Y-50.918 E30.48962
G1 X25.874 Y-48.662 E30.75658
G1 X30.419 Y-45.958 E31.02356
G1 X35.056 Y-42.527 E31.31469
G1 X38.971 Y-38.971 E31.58168
G1 X42.527 Y-35.056 E31.84868
G1 X45.958 Y-30.419 E32.1398
G1 X48.662 Y-25.874 E32.40679
G1 X50.918 Y-21.091 E32.67375
G1 X52.705 Y-16.113 E32.94073
G1 X54.096 Y-10.536 E33.2309
G1 X54.859 Y-5.282 E33.49885
G1 X55.113 Y0 E33.76581
G1 X54.859 Y5.282 E34.03276
G1 X54.1 Y10.517 E34.29975
G1 X52.705 Y16.113 E34.59088
G1 X50.918 Y21.091 E34.85787
G1 X48.661 Y25.875 E35.12486
G1 X45.702 Y30.802 E35.41502
G1 X42.527 Y35.056 E35.68297
G1 X38.971 Y38.971 E35.94993
G1 X35.056 Y42.527 E36.21692
G1 X30.419 Y45.957 E36.50805
G1 X25.874 Y48.662 E36.77504
G1 X21.091 Y50.918 E37.04199
G1 X16.113 Y52.705 E37.30895
G1 X10.987 Y54.007 E37.57594
G1 X5.283 Y54.859 E37.86706
G1 X.09 Y55.109 E38.12951
M204 S1000
G1 X-.299 Y55.633 F10800
G1 X-1.088 Y56.24
M204 S800
;TYPE:Perimeter
G1 F1200
G1 X-6.373 Y55.917 E38.3968
G1 X-11.701 Y55.05 E38.6693
G1 X-16.923 Y53.675 E38.9419
G1 X-21.988 Y51.806 E39.2144
G1 X-27.287 Y49.222 E39.51197
G1 X-31.877 Y46.381 E39.78447
G1 X-36.176 Y43.113 E40.05707
G1 X-40.141 Y39.447 E40.32968
G1 X-43.737 Y35.418 E40.60229
G1 X-46.929 Y31.064 E40.87478
G1 X-49.921 Y25.985 E41.17235
G1 X-52.181 Y21.083 E41.44485
G1 X-53.961 Y15.986 E41.71735
G1 X-55.337 Y10.254 E42.01492
G1 X-56.065 Y4.905 E42.28742
G1 X-56.277 Y-.489 E42.55993
G1 X-55.917 Y-6.373 E42.8575
G1 X-55.05 Y-11.701 E43.12999
G1 X-53.675 Y-16.924 E43.4026
G1 X-51.805 Y-21.99 E43.6752
G1 X-49.46 Y-26.852 E43.94771
G1 X-46.38 Y-31.879 E44.24527
G1 X-43.113 Y-36.176 E44.51777
G1 X-39.447 Y-40.141 E44.79038
G1 X-35.418 Y-43.737 E45.06298
G1 X-31.064 Y-46.929 E45.33548
G1 X-25.985 Y-49.921 E45.63305
G1 X-21.083 Y-52.181 E45.90556
G1 X-15.984 Y-53.962 E46.17816
G1 X-10.739 Y-55.245 E46.45076
G1 X-5.396 Y-56.02 E46.72327
G1 X.46 Y-56.277 E47.01917
G1 X5.883 Y-55.971 E47.29333
G1 X11.22 Y-55.15 E47.56593
G1 X16.453 Y-53.821 E47.83844
G1 X21.992 Y-51.805 E48.136
G1 X26.852 Y-49.46 E48.4084
G1 X31.879 Y-46.38 E48.70597
G1 X36.176 Y-43.112 E48.97847
G1 X40.141 Y-39.447 E49.25108
G1 X43.737 Y-35.418 E49.52368
G1 X46.931 Y-31.063 E49.79628
G1 X49.691 Y-26.423 E50.06879
G1 X52.182 Y-21.081 E50.36635
G1 X53.962 Y-15.984 E50.63885
G1 X55.245 Y-10.739 E50.91146
G1 X56.02 Y-5.396 E51.18396
G1 X56.277 Y.493 E51.48153
G1 X55.971 Y5.883 E51.75403
G1 X55.15 Y11.22 E52.02663
G1 X53.821 Y16.453 E52.29914
G1 X51.805 Y21.99 E52.59661
G1 X49.238 Y27.258 E52.8924
G1 X46.381 Y31.877 E53.16657
G1 X43.112 Y36.176 E53.43918
G1 X39.447 Y40.141 E53.71178
G1 X35.418 Y43.737 E53.98438
G1 X31.063 Y46.931 E54.25698
G1 X26.423 Y49.691 E54.52949
G1 X21.081 Y52.182 E54.82705
G1 X15.986 Y53.961 E55.09945
G1 X10.254 Y55.337 E55.39702
G1 X4.905 Y56.065 E55.66952
G1 X-.998 Y56.246 E55.96765
M204 S1000
G1 X-.496 Y56.885 F10800
M204 S800
;TYPE:External perimeter
G1 F1200
G1 X-6.441 Y56.521 E56.2683
G1 X-11.827 Y55.644 E56.54381
G1 X-17.106 Y54.254 E56.81935
G1 X-22.227 Y52.365 E57.09486
G1 X-27.58 Y49.754 E57.39552
G1 X-32.221 Y46.882 E57.67102
G1 X-36.566 Y43.578 E57.94657
G1 X-40.575 Y39.873 E58.22212
G1 X-44.21 Y35.8 E58.49767
G1 X-47.437 Y31.399 E58.77318
G1 X-50.46 Y26.267 E59.07383
G1 X-52.745 Y21.31 E59.34934
G1 X-54.544 Y16.158 E59.62485
G1 X-55.935 Y10.366 E59.9255
G1 X-56.671 Y4.958 E60.20101
G1 X-56.885 Y-.496 E60.47653
G1 X-56.521 Y-6.441 E60.77717
G1 X-55.644 Y-11.827 E61.05268
G1 X-54.254 Y-17.106 E61.32823
G1 X-52.365 Y-22.228 E61.60378
G1 X-49.994 Y-27.144 E61.87929
G1 X-46.882 Y-32.222 E62.17993
G1 X-43.578 Y-36.566 E62.45545
G1 X-39.873 Y-40.575 E62.731
G1 X-35.8 Y-44.21 E63.00655
G1 X-31.399 Y-47.437 E63.28206
G1 X-26.267 Y-50.46 E63.5827
G1 X-21.31 Y-52.745 E63.85822
G1 X-16.157 Y-54.544 E64.13376
G1 X-10.855 Y-55.842 E64.40931
G1 X-5.453 Y-56.625 E64.68483
G1 X.464 Y-56.885 E64.9838
G1 X5.946 Y-56.575 E65.26098
G1 X11.341 Y-55.745 E65.53653
G1 X16.631 Y-54.402 E65.81204
G1 X22.228 Y-52.365 E66.11269
G1 X27.143 Y-49.994 E66.38816
G1 X32.222 Y-46.882 E66.68881
G1 X36.566 Y-43.578 E66.96432
G1 X40.575 Y-39.873 E67.23987
G1 X44.21 Y-35.8 E67.51542
G1 X47.437 Y-31.398 E67.79096
G1 X50.228 Y-26.707 E68.06648
G1 X52.745 Y-21.31 E68.36712
G1 X54.544 Y-16.157 E68.64264
G1 X55.842 Y-10.855 E68.91818
G1 X56.625 Y-5.453 E69.1937
G1 X56.885 Y.497 E69.49435
G1 X56.576 Y5.946 E69.76985
G1 X55.745 Y11.341 E70.0454
G1 X54.402 Y16.631 E70.32092
G1 X52.365 Y22.228 E70.62153
G1 X49.77 Y27.551 E70.92047
G1 X46.882 Y32.221 E71.19765
G1 X43.578 Y36.566 E71.4732
G1 X39.873 Y40.575 E71.74874
G1 X35.8 Y44.21 E72.02429
G1 X31.398 Y47.437 E72.29984
G1 X26.707 Y50.228 E72.57536
G1 X21.31 Y52.745 E72.876
G1 X16.158 Y54.544 E73.15147
G1 X10.366 Y55.935 E73.45212
G1 X4.958 Y56.671 E73.72763
G1 X-.406 Y56.881 E73.99861
M204 S1000
G1 X-.79 Y56.362 F10800
; stop printing object rotor_adaptor_ring.STL id:0 copy 0
;LAYER_CHANGE
;Z:0.4
;HEIGHT:0.2
; **** Start of Before Layer Change GCode: FlashForge Creator 3 ****
; FFPP-layer_z_height: 0.4 ; Value parsed by FFPP script
;layer:<FFPP-calculated-next_layer_height> ; Value substituted by FFPP script (FFPP-calculated-next_layer_height)
; **** End of Before Layer Change GCode: FlashForge Creator 3 ****
G1 Z.4 F720
; **** Start of After Layer Change GCode: FlashForge Creator 3 ****
; **** End of After Layer Change GCode: FlashForge Creator 3 ****
M104 S245 ; set temperature
M140 S90 ; set bed temperature
G1 E70.99861 F1800
G92 E0
G1 X-.355 Y59.815 F10800
G1 E3 F1800
;TYPE:Skirt/Brim
G1 F3000
G1 X-6.264 Y59.491 E3.29875
G1 X-11.937 Y58.616 E3.58851
G1 X-17.977 Y57.054 E3.90343
G1 X-23.363 Y55.069 E4.19318
G1 X-28.553 Y52.565 E4.48408
G1 X-33.46 Y49.586 E4.77383
G1 X-38.059 Y46.151 E5.06358
G1 X-42.658 Y41.936 E5.37851
G1 X-46.496 Y37.637 E5.66941
G1 X-49.889 Y33.007 E5.95916
G1 X-53.055 Y27.632 E6.27408
G1 X-55.459 Y22.419 E6.56383
G1 X-57.353 Y17.001 E6.85358
G1 X-58.723 Y11.403 E7.14448
G1 X-59.545 Y5.722 E7.43423
G1 X-59.817 Y-.511 E7.74916
G1 X-59.491 Y-6.264 E8.04005
G1 X-58.616 Y-11.937 E8.32981
G1 X-57.054 Y-17.977 E8.64473
G1 X-55.069 Y-23.363 E8.93448
G1 X-52.576 Y-28.533 E9.22424
G1 X-49.586 Y-33.46 E9.51513
G1 X-46.151 Y-38.059 E9.80489
G1 X-41.936 Y-42.658 E10.11981
G1 X-37.655 Y-46.481 E10.40956
G1 X-33.007 Y-49.889 E10.70046
G1 X-27.632 Y-53.055 E11.01538
G1 X-22.419 Y-55.459 E11.30514
G1 X-17.001 Y-57.353 E11.59488
G1 X-11.403 Y-58.723 E11.88578
G1 X-5.722 Y-59.545 E12.17554
G1 X.344 Y-59.818 E12.48207
G1 X6.241 Y-59.493 E12.78021
G1 X11.937 Y-58.616 E13.07111
G1 X17.5 Y-57.202 E13.36086
G1 X23.363 Y-55.069 E13.67578
G1 X28.553 Y-52.565 E13.96668
G1 X33.46 Y-49.586 E14.25643
G1 X38.443 Y-45.832 E14.57136
G1 X42.658 Y-41.936 E14.86111
G1 X46.481 Y-37.654 E15.15086
G1 X49.889 Y-33.007 E15.44176
G1 X53.055 Y-27.632 E15.75668
G1 X55.459 Y-22.419 E16.04643
G1 X57.353 Y-17.001 E16.33618
G1 X58.723 Y-11.403 E16.62709
G1 X59.545 Y-5.722 E16.91684
G1 X59.817 Y.511 E17.23176
G1 X59.491 Y6.264 E17.52265
G1 X58.616 Y11.937 E17.81241
G1 X57.202 Y17.5 E18.10216
G1 X55.069 Y23.363 E18.41708
G1 X52.576 Y28.533 E18.70684
G1 X49.586 Y33.46 E18.99774
G1 X45.832 Y38.443 E19.31266
G1 X41.936 Y42.658 E19.60241
G1 X37.655 Y46.481 E19.89216
G1 X33.007 Y49.889 E20.18306
G1 X27.632 Y53.055 E20.49798
G1 X22.419 Y55.459 E20.78774
G1 X17.001 Y57.353 E21.07749
G1 X11.403 Y58.723 E21.36838
G1 X5.722 Y59.545 E21.65814
G1 X-.265 Y59.813 E21.96065
; printing object rotor_adaptor_ring.STL id:0 copy 0
;WIPE_START
G1 F8640
G1 X-6.264 Y59.491 E20.77154
G1 X-11.937 Y58.616 E19.63548
G1 X-14.505 Y57.952 E19.11065
;WIPE_END
G1 E18.96065 F1800
G92 E0
G1 X-.627 Y55.65 F10800
G1 E3 F1800
M204 S800
;TYPE:Perimeter
G1 F2700
G1 X-5.337 Y55.424 E3.238
G1 X-10.626 Y54.657 E3.5078
G1 X-16.278 Y53.248 E3.8018
G1 X-21.308 Y51.442 E4.0716
G1 X-26.142 Y49.162 E4.34139
G1 X-31.087 Y46.195 E4.63249
G1 X-35.417 Y42.965 E4.9052
G1 X-39.372 Y39.372 E5.17491
G1 X-42.964 Y35.417 E5.44461
G1 X-46.162 Y31.135 E5.71441
G1 X-49.135 Y26.193 E6.00551
G1 X-51.442 Y21.308 E6.27821
G1 X-53.248 Y16.278 E6.54802
G1 X-54.646 Y10.683 E6.83912
G1 X-55.424 Y5.337 E7.11182
G1 X-55.681 Y0 E7.38154
G1 X-55.424 Y-5.337 E7.65125
G1 X-54.657 Y-10.626 E7.92105
G1 X-53.248 Y-16.278 E8.21505
G1 X-51.442 Y-21.308 E8.48485
G1 X-49.163 Y-26.14 E8.75456
G1 X-46.43 Y-30.734 E9.02435
G1 X-43.002 Y-35.371 E9.31545
