; generated by PrusaSlicer 2.4.0-beta4+win64 on 2021-12-11 at 22:13:36 UTC

; 

; external perimeters extrusion width = 0.68mm
; perimeters extrusion width = 0.68mm
; infill extrusion width = 0.68mm
; solid infill extrusion width = 0.68mm
; top infill extrusion width = 0.60mm
; support material extrusion width = 0.40mm

; external perimeters extrusion width = 0.68mm
; perimeters extrusion width = 0.68mm
; infill extrusion width = 0.68mm
; solid infill extrusion width = 0.68mm
; top infill extrusion width = 0.60mm
; support material extrusion width = 0.40mm

;TYPE:Custom
; **** Start of Start GCode: FlashForge Creator 3 ****
M118 X150.00 Y125.00 Z200.00 T0 T1
; todo: need to post process Active extruders in m118

G90 ; absolute positioning
M108 T0 ; tool change
G1 X187 Y0.000 F9000 ; Move initial extruder over anti-ooze plate (9-point Bed Levelling sometimes leaves it off plate)

; Set Filament Z-Offset
G1 Z0.000 F420 ;
;FFPP-UNCOMMENT; G92 Z-<FFPP-filament_extra_z_offset> ; Value substituted by FFPP script (FFPP-filament_extra_z_offset)(negative is printing higher in air)

M140 S90 T0 ; set bed temperature
M104 S265 T0 ; set right extruder temp
M104 S0 T1 ; set left extruder temp

M7 T0 ; wait for platform
M6 T0 ; wait for temp
M6 T1 ; wait for temp

M106 ; Extruder/Heat Break fan on
M651 S255 ; chassis fan on (after heating reached to speed up heating)

; Purge Filament (gets rid of any curling filament too)
G1 X172 F9000 ; Move initial extruder off anti-ooze plate
G92 E0 ; reset extrusion distance 
G1 F150 E20 ; feed 20mm of feed stock 
G92 E0 ; reset extrusion distance


; M652 ; chassis fan off 
; M109 T1/2 only if dupe or mirror

;layer_count: <FFPP-calculated-total_layer_count> ; Value substituted by FFPP script (FFPP-calculated-total_layer_count)
; **** End of Start GCode: FlashForge Creator 3 ****
G21 ; set units to millimeters
G90 ; use absolute coordinates
M82 ; use absolute distances for extrusion
G92 E0
; **** Start of Filament-Specific Start GCode: EconoFil PETG ****
; FFPP-filament_extra_z_offset: 0.06 ; Value parsed by FFPP script
; **** End of Filament-Specific Start GCode: EconoFil PETG ****
M106 S255
;LAYER_CHANGE
;Z:0.3
;HEIGHT:0.3
; **** Start of Before Layer Change GCode: FlashForge Creator 3 ****
; FFPP-layer_z_height: 0.3 ; Value parsed by FFPP script
;layer:<FFPP-calculated-next_layer_height> ; Value substituted by FFPP script (FFPP-calculated-next_layer_height)
; **** End of Before Layer Change GCode: FlashForge Creator 3 ****
G1 E-3 F1500
G92 E0
G1 Z.3 F420
; **** Start of After Layer Change GCode: FlashForge Creator 3 ****
; **** End of After Layer Change GCode: FlashForge Creator 3 ****
G1 X63.828 Y-1.143 F9000
G1 E3 F1500
M204 S1000
;TYPE:Skirt/Brim
;WIDTH:0.675
G1 F1800
G1 X63.858 Y.529 E3.12859
G1 X63.772 Y3.371 E3.34733
G1 X63.514 Y6.647 E3.60008
G1 X63.086 Y9.912 E3.85341
G1 X62.573 Y12.76 E4.07601
G1 X61.834 Y15.962 E4.32875
G1 X60.928 Y19.128 E4.58208
G1 X59.999 Y21.869 E4.80467
G1 X58.795 Y24.926 E5.05741
G1 X57.627 Y27.519 E5.27617
G1 X56.135 Y30.446 E5.52892
G1 X54.491 Y33.3 E5.78225
G1 X52.927 Y35.734 E6.00485
G1 X51.019 Y38.409 E6.25759
G1 X48.939 Y41.027 E6.51475
G1 X47.063 Y43.165 E6.73352
G1 X44.781 Y45.528 E6.98625
G1 X42.71 Y47.477 E7.20501
G1 X40.211 Y49.611 E7.45775
G1 X37.56 Y51.647 E7.71492
G1 X35.223 Y53.268 E7.93369
G1 X32.436 Y55.01 E8.18642
G1 X29.955 Y56.399 E8.40518
G1 X26.962 Y57.89 E8.66235
G1 X23.949 Y59.2 E8.91509
G1 X21.29 Y60.207 E9.13385
G1 X18.165 Y61.223 E9.3866
G1 X15.421 Y61.971 E9.60535
G1 X12.157 Y62.693 E9.86252
G1 X8.916 Y63.235 E10.11526
G1 X5.595 Y63.615 E10.37243
G1 X2.757 Y63.801 E10.59119
G1 X-.528 Y63.858 E10.84393
G1 X-3.87 Y63.743 E11.1011
G1 X-6.704 Y63.508 E11.31986
G1 X-9.962 Y63.079 E11.57261
G1 X-12.76 Y62.573 E11.79136
G1 X-15.962 Y61.834 E12.0441
G1 X-19.128 Y60.928 E12.29743
G1 X-21.869 Y59.999 E12.52002
G1 X-24.926 Y58.795 E12.77277
G1 X-27.519 Y57.627 E12.99152
G1 X-30.446 Y56.135 E13.24427
G1 X-32.915 Y54.724 E13.46302
G1 X-35.734 Y52.927 E13.7202
G1 X-38.455 Y50.984 E13.97737
G1 X-41.027 Y48.939 E14.23011
G1 X-43.165 Y47.063 E14.44887
G1 X-45.528 Y44.781 E14.7016
G1 X-47.477 Y42.71 E14.92036
G1 X-49.611 Y40.211 E15.1731
G1 X-51.618 Y37.6 E15.42643
G1 X-53.268 Y35.223 E15.64904
G1 X-55.01 Y32.436 E15.90178
G1 X-56.399 Y29.955 E16.12053
G1 X-57.89 Y26.962 E16.3777
G1 X-59.2 Y23.949 E16.63044
G1 X-60.207 Y21.29 E16.8492
G1 X-61.223 Y18.165 E17.10195
G1 X-62.089 Y14.936 E17.35911
G1 X-62.693 Y12.157 E17.57787
G1 X-63.235 Y8.916 E17.83061
G1 X-63.615 Y5.595 E18.08778
G1 X-63.801 Y2.757 E18.30654
G1 X-63.858 Y-.528 E18.55928
G1 X-63.772 Y-3.371 E18.77803
G1 X-63.514 Y-6.647 E19.03077
G1 X-63.086 Y-9.912 E19.28411
G1 X-62.573 Y-12.76 E19.50671
G1 X-61.834 Y-15.962 E19.75945
G1 X-60.914 Y-19.176 E20.01661
G1 X-59.999 Y-21.869 E20.23538
G1 X-58.795 Y-24.926 E20.48811
G1 X-57.41 Y-27.969 E20.74528
G1 X-56.108 Y-30.497 E20.96405
G1 X-54.465 Y-33.342 E21.21679
G1 X-52.927 Y-35.734 E21.43555
G1 X-51.019 Y-38.409 E21.68829
G1 X-48.939 Y-41.027 E21.94545
G1 X-47.063 Y-43.165 E22.16422
G1 X-44.781 Y-45.528 E22.41695
G1 X-42.71 Y-47.477 E22.63571
G1 X-40.211 Y-49.611 E22.88845
G1 X-37.56 Y-51.647 E23.14562
G1 X-35.223 Y-53.268 E23.36439
G1 X-32.436 Y-55.01 E23.61713
G1 X-29.955 Y-56.399 E23.83588
G1 X-27.015 Y-57.865 E24.08863
G1 X-23.949 Y-59.2 E24.34579
G1 X-21.29 Y-60.207 E24.56455
G1 X-18.11 Y-61.239 E24.82172
G1 X-14.936 Y-62.089 E25.07446
G1 X-12.157 Y-62.693 E25.29322
G1 X-8.916 Y-63.235 E25.54597
G1 X-6.092 Y-63.569 E25.76472
G1 X-2.757 Y-63.801 E26.02189
G1 X.529 Y-63.858 E26.27464
G1 X3.371 Y-63.772 E26.49338
G1 X6.647 Y-63.514 E26.74614
G1 X9.912 Y-63.086 E26.99946
G1 X12.76 Y-62.573 E27.22206
G1 X16.017 Y-61.819 E27.47923
G1 X19.176 Y-60.914 E27.73196
G1 X21.869 Y-59.999 E27.95072
G1 X24.926 Y-58.795 E28.20347
G1 X27.519 Y-57.627 E28.42222
G1 X30.446 Y-56.135 E28.67497
G1 X33.3 Y-54.491 E28.9283
G1 X35.734 Y-52.927 E29.1509
G1 X38.409 Y-51.019 E29.40364
G1 X41.027 Y-48.939 E29.6608
G1 X43.165 Y-47.063 E29.87958
G1 X45.528 Y-44.781 E30.1323
G1 X47.477 Y-42.71 E30.35106
G1 X49.611 Y-40.211 E30.6038
G1 X51.647 Y-37.56 E30.86096
G1 X53.268 Y-35.223 E31.07974
G1 X55.01 Y-32.436 E31.33248
G1 X56.608 Y-29.557 E31.5858
G1 X57.889 Y-26.963 E31.8084
G1 X59.2 Y-23.949 E32.06114
G1 X60.356 Y-20.865 E32.31448
G1 X61.239 Y-18.11 E32.53707
G1 X62.089 Y-14.936 E32.7898
G1 X62.693 Y-12.157 E33.00857
G1 X63.235 Y-8.916 E33.26131
G1 X63.569 Y-6.092 E33.48007
G1 X63.799 Y-2.814 E33.7328
G1 X63.827 Y-1.233 E33.85448
; printing object rope_holder.STL id:1 copy 0
G1 E30.85448 F1500
G92 E0
G1 X11.55 Y22.978 F9000
G1 E3 F1500
;TYPE:Support material
;WIDTH:0.4
G1 F1800
G1 X3.093 Y22.978 E3.35755
G1 X3.093 Y20.807 E3.44931
G1 X3.193 Y20.807 E3.45354
G1 X3.666 Y20.334 E3.48182
G1 X3.666 Y-20.334 E5.20126
G1 X3.193 Y-20.807 E5.22954
G1 X3.093 Y-20.807 E5.23377
G1 X3.093 Y-22.978 E5.32553
G1 X11.55 Y-22.978 E5.68308
G1 X11.55 Y22.928 E7.62392
G1 X4.046 Y20.378 F9000
G1 F1800
G1 X6.093 Y20.378 E7.71046
G1 X6.093 Y-20.378 E9.4336
G1 X4.046 Y-20.378 E9.52013
G1 X4.046 Y20.328 E11.24114
G1 X11.187 Y22.827 F9000
G1 F1800
G1 X11.187 Y-22.676 E13.16495
G1 X10.814 Y-22.676 E13.18072
G1 X10.814 Y22.676 E15.09815
G1 X10.441 Y22.676 E15.11392
G1 X10.441 Y-22.676 E17.03134
G1 X10.069 Y-22.676 E17.04711
G1 X10.069 Y22.676 E18.96454
G1 X9.696 Y22.676 E18.98031
G1 X9.696 Y-22.676 E20.89773
G1 X9.323 Y-22.676 E20.9135
G1 X9.323 Y22.676 E22.83093
G1 X8.95 Y22.676 E22.8467
G1 X8.95 Y-22.676 E24.76412
G1 X8.577 Y-22.676 E24.77989
G1 X8.577 Y22.676 E26.69732
G1 X8.204 Y22.676 E26.71309
G1 X8.204 Y-22.676 E28.63052
G1 X7.831 Y-22.676 E28.64628
G1 X7.831 Y22.676 E30.56371
G1 X7.458 Y22.676 E30.57948
G1 X7.458 Y-22.676 E32.49691
G1 X7.085 Y-22.676 E32.51267
G1 X7.085 Y22.676 E34.4301
G1 X6.712 Y22.676 E34.44587
G1 X6.712 Y-22.676 E36.3633
G1 X6.339 Y-22.676 E36.37906
G1 X6.339 Y22.676 E38.29649
G1 X5.967 Y22.676 E38.31226
G1 X5.967 Y20.68 E38.39663
G1 X5.594 Y20.68 E38.4124
G1 X5.594 Y22.676 E38.49677
G1 X5.221 Y22.676 E38.51254
G1 X5.221 Y20.68 E38.59692
G1 X4.848 Y20.68 E38.61268
G1 X4.848 Y22.676 E38.69706
G1 X4.475 Y22.676 E38.71282
G1 X4.475 Y20.68 E38.7972
G1 X4.102 Y20.68 E38.81297
G1 X4.102 Y22.676 E38.89734
G1 X3.729 Y22.676 E38.91311
G1 X3.729 Y20.485 E39.00575
G1 E36.00575 F1500
G92 E0
G1 X5.967 Y-20.529 F9000
G1 E3 F1500
G1 F1800
G1 X5.967 Y-22.676 E3.09076
G1 X5.594 Y-22.676 E3.10653
G1 X5.594 Y-20.68 E3.1909
G1 X5.221 Y-20.68 E3.20667
G1 X5.221 Y-22.676 E3.29104
G1 X4.848 Y-22.676 E3.30681
G1 X4.848 Y-20.68 E3.39119
G1 X4.475 Y-20.68 E3.40695
G1 X4.475 Y-22.676 E3.49133
G1 X4.102 Y-22.676 E3.50709
G1 X4.102 Y-20.68 E3.59147
G1 X3.747 Y-20.68 E3.60647
G1 X3.729 Y-20.698 E3.60755
G1 X3.729 Y-22.827 E3.69755
G1 E.69755 F1500
G92 E0
G1 X-3.093 Y-20.807 F9000
G1 E3 F1500
G1 F1800
G1 X-3.193 Y-20.807 E3.00422
G1 X-3.666 Y-20.334 E3.03251
G1 X-3.666 Y20.334 E4.75195
G1 X-3.193 Y20.807 E4.78023
G1 X-3.093 Y20.807 E4.78445
G1 X-3.093 Y22.978 E4.87622
G1 X-11.55 Y22.978 E5.23377
G1 X-11.55 Y-22.978 E7.17674
G1 X-3.093 Y-22.978 E7.53428
G1 X-3.093 Y-20.858 E7.62392
G1 E4.62392 F1500
G92 E0
G1 X-6.093 Y20.378 F9000
G1 E3 F1500
G1 F1800
G1 X-4.046 Y20.378 E3.08654
G1 X-4.046 Y-20.378 E4.80967
G1 X-6.093 Y-20.378 E4.89621
G1 X-6.093 Y20.328 E6.61721
G1 X-3.729 Y22.827 F9000
G1 F1800
G1 X-3.729 Y20.698 E6.70721
G1 X-3.747 Y20.68 E6.70829
G1 X-4.102 Y20.68 E6.7233
G1 X-4.102 Y22.676 E6.80767
G1 X-4.475 Y22.676 E6.82344
G1 X-4.475 Y20.68 E6.90781
G1 X-4.848 Y20.68 E6.92358
G1 X-4.848 Y22.676 E7.00795
G1 X-5.221 Y22.676 E7.02372
G1 X-5.221 Y20.68 E7.1081
G1 X-5.594 Y20.68 E7.12386
G1 X-5.594 Y22.676 E7.20824
G1 X-5.967 Y22.676 E7.224
G1 X-5.967 Y20.529 E7.31477
G1 E4.31477 F1500
G92 E0
G1 X-3.729 Y-20.485 F9000
G1 E3 F1500
G1 F1800
G1 X-3.729 Y-22.676 E3.09264
G1 X-4.102 Y-22.676 E3.10841
G1 X-4.102 Y-20.68 E3.19279
G1 X-4.475 Y-20.68 E3.20855
G1 X-4.475 Y-22.676 E3.29293
G1 X-4.848 Y-22.676 E3.30869
G1 X-4.848 Y-20.68 E3.39307
G1 X-5.221 Y-20.68 E3.40884
G1 X-5.221 Y-22.676 E3.49321
G1 X-5.594 Y-22.676 E3.50898
G1 X-5.594 Y-20.68 E3.59335
G1 X-5.967 Y-20.68 E3.60912
G1 X-5.967 Y-22.676 E3.69349
G1 X-6.339 Y-22.676 E3.70926
G1 X-6.339 Y22.676 E5.62669
G1 X-6.712 Y22.676 E5.64246
G1 X-6.712 Y-22.676 E7.55988
G1 X-7.085 Y-22.676 E7.57565
G1 X-7.085 Y22.676 E9.49308
G1 X-7.458 Y22.676 E9.50885
G1 X-7.458 Y-22.676 E11.42627
G1 X-7.831 Y-22.676 E11.44204
G1 X-7.831 Y22.676 E13.35947
G1 X-8.204 Y22.676 E13.37524
G1 X-8.204 Y-22.676 E15.29267
G1 X-8.577 Y-22.676 E15.30843
G1 X-8.577 Y22.676 E17.22586
G1 X-8.95 Y22.676 E17.24163
G1 X-8.95 Y-22.676 E19.15906
G1 X-9.323 Y-22.676 E19.17482
G1 X-9.323 Y22.676 E21.09225
G1 X-9.696 Y22.676 E21.10802
G1 X-9.696 Y-22.676 E23.02545
G1 X-10.069 Y-22.676 E23.04121
G1 X-10.069 Y22.676 E24.95864
G1 X-10.441 Y22.676 E24.97441
G1 X-10.441 Y-22.676 E26.89184
G1 X-10.814 Y-22.676 E26.9076
G1 X-10.814 Y22.676 E28.82503
G1 X-11.187 Y22.676 E28.8408
G1 X-11.187 Y-22.827 E30.76461
G1 E27.76461 F1500
G92 E0
G1 X-5.535 Y20.16 F9000
G1 E3 F1500
;TYPE:Support material interface
G1 F1800
G1 X-5.535 Y-20 E4.69791
G1 X-5.178 Y-20 E4.71301
G1 X-5.178 Y20 E6.40413
G1 X-4.821 Y20 E6.41923
G1 X-4.821 Y-20 E8.11035
G1 X-4.464 Y-20 E8.12545
G1 X-4.464 Y20.16 E9.82336
G1 E6.82336 F1500
G92 E0
G1 X4.463 Y20.16 F9000
G1 E3 F1500
G1 F1800
G1 X4.463 Y-20 E4.69791
G1 X4.821 Y-20 E4.71301
G1 X4.821 Y20 E6.40413
G1 X5.178 Y20 E6.41923
G1 X5.178 Y-20 E8.11035
G1 X5.535 Y-20 E8.12545
G1 X5.535 Y20.16 E9.82336
G1 E6.82336 F1500
G92 E0
G1 X0 Y17.314 F9000
G1 E3 F1500
;TYPE:External perimeter
;WIDTH:0.675
G1 F1800
G1 X-.442 Y17.271 E3.03418
G1 X-.885 Y17.138 E3.06974
G1 X-1.278 Y16.929 E3.10397
G1 X-1.636 Y16.636 E3.13958
G1 X-1.929 Y16.278 E3.17517
G1 X-2.138 Y15.885 E3.2094
G1 X-2.27 Y15.452 E3.24426
G1 X-2.314 Y15 E3.27916
G1 X-2.27 Y14.548 E3.31407
G1 X-2.138 Y14.114 E3.34899
G1 X-1.919 Y13.707 E3.38454
G1 X-1.636 Y13.363 E3.4188
G1 X-1.278 Y13.071 E3.45436
G1 X-.886 Y12.862 E3.48854
G1 X-.461 Y12.732 E3.52272
G1 X-.001 Y12.686 E3.55824
G1 X.442 Y12.729 E3.5925
G1 X.886 Y12.862 E3.62812
G1 X1.293 Y13.081 E3.6637
G1 X1.637 Y13.364 E3.69796
G1 X1.929 Y13.722 E3.73352
G1 X2.138 Y14.115 E3.76773
G1 X2.27 Y14.548 E3.80258
G1 X2.314 Y15 E3.83749
G1 X2.27 Y15.452 E3.8724
G1 X2.138 Y15.886 E3.90731
G1 X1.919 Y16.293 E3.94289
G1 X1.636 Y16.637 E3.97713
G1 X1.278 Y16.929 E4.01268
G1 X.885 Y17.138 E4.04692
G1 X.443 Y17.271 E4.08245
G1 X.09 Y17.305 E4.10973
G1 X-.222 Y17.699 F9000
G1 E1.10973 F1500
G92 E0
G1 X.689 Y-6.022 F9000
G1 E3 F1500
;TYPE:Perimeter
G1 F1800
G1 X.689 Y10.912 E4.30258
G1 X-.005 Y10.845 E4.35622
G1 X-.689 Y10.914 E4.40907
G1 X-.689 Y-10.914 E6.08812
G1 X0 Y-10.845 E6.14138
G1 X.689 Y-10.914 E6.19463
G1 X.689 Y-6.112 E6.56402
G1 E3.56402 F1500
G92 E0
G1 X1.3 Y-8.119 F9000
G1 E3 F1500
G1 F1800
G1 X1.3 Y11.711 E4.52536
G1 X.679 Y11.524 E4.57521
G1 X-.004 Y11.459 E4.62798
G1 X-.703 Y11.529 E4.682
G1 X-1.299 Y11.712 E4.73001
G1 X-1.299 Y-11.712 E6.53176
G1 X-.702 Y-11.529 E6.5798
G1 X0 Y-11.458 E6.63409
G1 X.703 Y-11.529 E6.68841
G1 X1.3 Y-11.712 E6.73642
G1 X1.3 Y-8.209 E7.00585
G1 E4.00585 F1500
G92 E0
G1 X1.91 Y-10.626 F9000
G1 E3 F1500
G1 F1800
G1 X1.91 Y12.798 E4.80182
G1 X1.635 Y12.571 E4.82924
G1 X1.12 Y12.295 E4.87418
G1 X.561 Y12.126 E4.91915
G1 X-.002 Y12.072 E4.96266
G1 X-.582 Y12.131 E5.00744
G1 X-1.12 Y12.295 E5.05076
G1 X-1.618 Y12.56 E5.0941
G1 X-1.91 Y12.799 E5.12315
G1 X-1.91 Y-12.798 E7.09209
G1 X-1.635 Y-12.572 E7.11948
G1 X-1.122 Y-12.296 E7.16428
G1 X-.581 Y-12.131 E7.2078
G1 X0 Y-12.072 E7.25274
G1 X.582 Y-12.131 E7.2977
G1 X1.12 Y-12.295 E7.34103
G1 X1.618 Y-12.56 E7.38439
G1 X1.91 Y-12.799 E7.41341
G1 X1.91 Y-10.716 E7.57362
G1 E4.57362 F1500
G92 E0
G1 X-.793 Y18.441 F9000
G1 E3 F1500
G1 F1800
G1 X-1.299 Y18.441 E3.03896
G1 X-1.299 Y18.289 E3.05068
G1 X-.879 Y18.415 E3.08445
G1 E.08445 F1500
G92 E0
G1 X1.3 Y18.441 F9000
G1 E3 F1500
G1 F1800
G1 X.793 Y18.441 E3.03895
G1 X1.3 Y18.289 E3.07963
G1 X1.3 Y18.351 E3.08443
G1 E.08443 F1500
G92 E0
G1 X-1.91 Y17.962 F9000
G1 E3 F1500
G1 F1800
G1 X-1.91 Y17.201 E3.05852
G1 X-1.618 Y17.44 E3.08756
G1 X-1.119 Y17.706 E3.13105
G1 X-.561 Y17.874 E3.17587
G1 X0 Y17.928 E3.2192
G1 X.561 Y17.873 E3.26255
G1 X1.119 Y17.706 E3.30733
G1 X1.618 Y17.44 E3.35082
G1 X1.91 Y17.201 E3.37987
G1 X1.91 Y19.052 E3.52222
G1 X-1.91 Y19.052 E3.81608
G1 X-1.91 Y18.052 E3.89299
G1 E.89299 F1500
G92 E0
G1 X1.3 Y-18.289 F9000
G1 E3 F1500
G1 F1800
G1 X.793 Y-18.441 E3.04069
G1 X1.3 Y-18.441 E3.07965
G1 X1.3 Y-18.379 E3.08445
G1 E.08445 F1500
G92 E0
G1 X-.793 Y-18.441 F9000
G1 E3 F1500
G1 F1800
G1 X-1.299 Y-18.289 E3.04068
G1 X-1.299 Y-18.441 E3.0524
G1 X-.883 Y-18.441 E3.08443
G1 X-.883 Y-19.052 F9000
G1 F1800
G1 X1.91 Y-19.052 E3.29929
G1 X1.91 Y-17.202 E3.4416
G1 X1.635 Y-17.428 E3.46898
G1 X1.12 Y-17.705 E3.51395
G1 X.561 Y-17.874 E3.55892
G1 X0 Y-17.928 E3.60228
G1 X-.561 Y-17.873 E3.64561
G1 X-1.118 Y-17.706 E3.69038
G1 X-1.618 Y-17.44 E3.73386
G1 X-1.91 Y-17.201 E3.76292
G1 X-1.91 Y-19.052 E3.90527
G1 X-.973 Y-19.052 E3.97734
G1 E.97734 F1500
G92 E0
G1 X0 Y-12.686 F9000
G1 E3 F1500
;TYPE:External perimeter
G1 F1800
G1 X-.46 Y-12.732 E3.03559
G1 X-.886 Y-12.862 E3.06985
G1 X-1.293 Y-13.081 E3.1054
G1 X-1.636 Y-13.364 E3.13958
G1 X-1.919 Y-13.707 E3.17376
G1 X-2.138 Y-14.114 E3.20935
G1 X-2.27 Y-14.548 E3.24426
G1 X-2.314 Y-15 E3.27916
G1 X-2.27 Y-15.452 E3.31407
G1 X-2.138 Y-15.886 E3.34899
G1 X-1.919 Y-16.293 E3.38454
G1 X-1.636 Y-16.637 E3.4188
G1 X-1.278 Y-16.929 E3.45436
G1 X-.885 Y-17.138 E3.4886
G1 X-.443 Y-17.271 E3.52412
G1 X0 Y-17.314 E3.5583
G1 X.442 Y-17.271 E3.59251
G1 X.886 Y-17.138 E3.62812
G1 X1.293 Y-16.919 E3.66373
G1 X1.637 Y-16.636 E3.69796
G1 X1.929 Y-16.278 E3.73352
G1 X2.138 Y-15.885 E3.76773
G1 X2.27 Y-15.452 E3.80258
G1 X2.314 Y-15 E3.83749
G1 X2.27 Y-14.548 E3.8724
G1 X2.138 Y-14.114 E3.9073
G1 X1.919 Y-13.707 E3.94286
G1 X1.636 Y-13.363 E3.97713
G1 X1.278 Y-13.071 E4.01265
G1 X.886 Y-12.862 E4.04686
G1 X.461 Y-12.732 E4.08104
G1 X.09 Y-12.695 E4.10973
G1 X-.232 Y-12.285 F9000
G1 E1.10973 F1500
