; This file has been post-processed by \\wsl.localhost\Ubuntu\home\wmmc88\git-repos\PrusaSlicer-FlashForge\flashforge_post_process.py
; Original File Location: C:\Users\melvi\AppData\Local\Temp\.49916.gcode.pp


; generated by PrusaSlicer 2.4.0+win64 on 2022-03-05 at 05:00:33 UTC

; 

; external perimeters extrusion width = 0.61mm
; perimeters extrusion width = 0.65mm
; infill extrusion width = 0.70mm
; solid infill extrusion width = 0.65mm
; top infill extrusion width = 0.60mm
; support material extrusion width = 0.55mm
; first layer extrusion width = 0.65mm

M107
;TYPE:Custom
; **** Start of Start GCode: FlashForge Creator 3 ****
M118 X66.5 Y125.0 Z200.0 T0 T1 D2
; todo: need to post process Active extruders in m118

G90 ; absolute positioning

G1 Z1.000 F720 ;

M140 S75 T0 ; set bed temperature
M104 S245 T0 ; set right extruder temp
M104 S245 T1 ; set left extruder temp

M7 T0 ; wait for platform
M6 T0 ; wait for temp
M6 T1 ; wait for temp

M106 ; Extruder/Heat Break fan on
M651 S255 ; chassis fan on (after heating reached to speed up heating)

; M652 ; chassis fan off 
M109 T2 ; Dupe Mode
;layer_count: 292 ; Value substituted by FFPP script (FFPP-calculated-total_layer_count)
; **** End of Start GCode: FlashForge Creator 3 ****
G21 ; set units to millimeters
G90 ; use absolute coordinates
M82 ; use absolute distances for extrusion
G92 E0
; **** Start of Filament-Specific Start GCode: eSun PETG - Blue (Hardened 0.6mm) ****
; FFPP-filament_extra_z_offset: 0.06 ; Value parsed by FFPP script
; **** End of Filament-Specific Start GCode: eSun PETG - Blue (Hardened 0.6mm) ****
M107
;LAYER_CHANGE
;Z:0.2
;HEIGHT:0.2
; **** Start of Before Layer Change GCode: FlashForge Creator 3 ****
; FFPP-layer_z_height: 0.2 ; Value parsed by FFPP script
;layer:0.200 ; Value substituted by FFPP script (FFPP-calculated-next_layer_height)
; **** End of Before Layer Change GCode: FlashForge Creator 3 ****
G1 Z.2 F720
; **** Start of After Layer Change GCode: FlashForge Creator 3 ****
; **** End of After Layer Change GCode: FlashForge Creator 3 ****
; printing object central_shaft+0.075.STL id:0 copy 0
G1 E-4 F1500
G92 E0
G1 X7.943 Y-6.376 F12000
G1 E4 F1500
M204 S800
;TYPE:Support material
;WIDTH:0.65
G1 F1200
G1 X7.943 Y6.376 E4.64368
G1 X6.376 Y7.943 E4.75554
G1 X-6.376 Y7.943 E5.39922
G1 X-7.943 Y6.376 E5.51108
G1 X-7.943 Y-6.376 E6.15476
G1 X-6.376 Y-7.943 E6.26663
G1 X6.376 Y-7.943 E6.91031
G1 X7.878 Y-6.44 E7.01757
M204 S1000
;WIPE_START
G1 F9600
G1 X6.376 Y-7.943 E6.70215
G1 X-6.376 Y-7.943 E4.80935
G1 X-7.943 Y-6.376 E4.48041
G1 X-7.943 Y2.132 E3.21757
;WIPE_END
G1 E3.01757 F1500
G92 E0
G1 X-6.96 Y-6.586 F12000
G1 E4 F1500
M204 S800
G1 F1200
G1 X-7.396 Y-6.149 E4.03115
G1 X-7.396 Y6.149 E4.65198
G1 X-6.745 Y6.8 E4.69846
G1 X-6.745 Y-6.8 E5.38501
G1 X-6.149 Y-7.396 E5.42755
G1 X-6.071 Y-7.396 E5.43152
G1 X-6.071 Y7.396 E6.17824
G1 X-5.396 Y7.396 E6.21229
G1 X-5.396 Y-7.396 E6.95901
G1 X-4.722 Y-7.396 E6.99306
G1 X-4.722 Y7.396 E7.73977
G1 X-4.047 Y7.396 E7.77382
G1 X-4.047 Y-7.396 E8.52054
G1 X-3.373 Y-7.396 E8.55459
G1 X-3.373 Y7.396 E9.30131
G1 X-2.698 Y7.396 E9.33536
G1 X-2.698 Y-7.396 E10.08207
G1 X-2.024 Y-7.396 E10.11612
G1 X-2.024 Y7.396 E10.86284
G1 X-1.349 Y7.396 E10.89689
G1 X-1.349 Y-7.396 E11.64361
G1 X-.675 Y-7.396 E11.67766
G1 X-.675 Y7.396 E12.42437
G1 X0 Y7.396 E12.45842
G1 X0 Y-7.396 E13.20514
G1 X.675 Y-7.396 E13.23919
G1 X.675 Y7.396 E13.98591
G1 X1.349 Y7.396 E14.01996
G1 X1.349 Y-7.396 E14.76667
G1 X2.024 Y-7.396 E14.80072
G1 X2.024 Y7.396 E15.54744
G1 X2.698 Y7.396 E15.58149
G1 X2.698 Y-7.396 E16.32821
G1 X3.373 Y-7.396 E16.36226
G1 X3.373 Y7.396 E17.10897
G1 X4.047 Y7.396 E17.14302
G1 X4.047 Y-7.396 E17.88974
G1 X4.722 Y-7.396 E17.92379
G1 X4.722 Y7.396 E18.67051
G1 X5.396 Y7.396 E18.70456
G1 X5.396 Y-7.396 E19.45127
G1 X6.071 Y-7.396 E19.48532
G1 X6.071 Y7.396 E20.23204
G1 X6.149 Y7.396 E20.23601
G1 X6.745 Y6.8 E20.27855
G1 X6.745 Y-6.8 E20.96511
G1 X7.396 Y-6.149 E21.01158
G1 X7.396 Y6.149 E21.63241
G1 X6.96 Y6.586 E21.66356
M204 S1000
; stop printing object central_shaft+0.075.STL id:0 copy 0
;LAYER_CHANGE
;Z:0.65
;HEIGHT:0.45
; **** Start of Before Layer Change GCode: FlashForge Creator 3 ****
; FFPP-layer_z_height: 0.65 ; Value parsed by FFPP script
;layer:0.450 ; Value substituted by FFPP script (FFPP-calculated-next_layer_height)
; **** End of Before Layer Change GCode: FlashForge Creator 3 ****
G1 Z.65 F720
; **** Start of After Layer Change GCode: FlashForge Creator 3 ****
; **** End of After Layer Change GCode: FlashForge Creator 3 ****
M104 S250 ; set temperature
M140 S80 ; set bed temperature
; printing object central_shaft+0.075.STL id:0 copy 0
G1 E17.66356 F1500
G92 E0
G1 X5.514 Y-5.268 F12000
G1 E4 F1500
;WIDTH:0.55
G1 F1156
G1 X5.514 Y-5.37 E4.00866
G1 X5.37 Y-5.514 E4.02598
G1 X-5.37 Y-5.514 E4.93703
G1 X-5.514 Y-5.37 E4.95435
G1 X-5.514 Y-5.014 E4.98452
G1 X5.514 Y-5.014 E5.92007
G1 X5.514 Y-2.507 E6.13275
G1 X-5.514 Y-2.507 E7.0683
G1 X-5.514 Y0 E7.28097
G1 X5.514 Y0 E8.21652
G1 X5.514 Y2.507 E8.4292
G1 X-5.514 Y2.507 E9.36475
G1 X-5.514 Y5.014 E9.57743
G1 X5.514 Y5.014 E10.51297
G1 X5.514 Y5.37 E10.54314
G1 X5.37 Y5.514 E10.56046
G1 X-5.37 Y5.514 E11.47152
G1 X-5.514 Y5.37 E11.48884
G1 X-5.514 Y5.268 E11.4975
; stop printing object central_shaft+0.075.STL id:0 copy 0
;LAYER_CHANGE
;Z:1.1
;HEIGHT:0.45
; **** Start of Before Layer Change GCode: FlashForge Creator 3 ****
; FFPP-layer_z_height: 1.1 ; Value parsed by FFPP script
;layer:0.450 ; Value substituted by FFPP script (FFPP-calculated-next_layer_height)
; **** End of Before Layer Change GCode: FlashForge Creator 3 ****
G1 Z1.1 F720
; **** Start of After Layer Change GCode: FlashForge Creator 3 ****
; **** End of After Layer Change GCode: FlashForge Creator 3 ****
; printing object central_shaft+0.075.STL id:0 copy 0
G1 E7.4975 F1500
G92 E0
G1 X5.096 Y5.514 F12000
G1 E4 F1500
;TYPE:Support material interface
G1 F2311
G1 X5.37 Y5.514 E4.02322
G1 X5.514 Y5.37 E4.04055
G1 X5.514 Y-5.37 E4.9516
G1 X5.37 Y-5.514 E4.96892
G1 X4.842 Y-5.514 E5.01365
G1 X4.842 Y5.514 E5.9492
G1 X4.035 Y5.514 E6.01766
G1 X4.035 Y-5.514 E6.95321
G1 X3.228 Y-5.514 E7.02168
G1 X3.228 Y5.514 E7.95722
G1 X2.421 Y5.514 E8.02569
G1 X2.421 Y-5.514 E8.96124
G1 X1.614 Y-5.514 E9.0297
G1 X1.614 Y5.514 E9.96525
G1 X.807 Y5.514 E10.03372
G1 X.807 Y-5.514 E10.96926
G1 X0 Y-5.514 E11.03773
G1 X0 Y5.514 E11.97328
G1 X-.807 Y5.514 E12.04174
G1 X-.807 Y-5.514 E12.97729
G1 X-1.614 Y-5.514 E13.04575
G1 X-1.614 Y5.514 E13.9813
G1 X-2.421 Y5.514 E14.04977
G1 X-2.421 Y-5.514 E14.98531
G1 X-3.228 Y-5.514 E15.05378
G1 X-3.228 Y5.514 E15.98933
G1 X-4.035 Y5.514 E16.05779
G1 X-4.035 Y-5.514 E16.99334
G1 X-4.842 Y-5.514 E17.0618
G1 X-4.842 Y5.514 E17.99735
G1 X-5.37 Y5.514 E18.04208
G1 X-5.514 Y5.37 E18.05941
G1 X-5.514 Y-5.37 E18.97046
G1 X-5.37 Y-5.514 E18.98778
G1 X-5.096 Y-5.514 E19.011
; stop printing object central_shaft+0.075.STL id:0 copy 0
M106 S127.5
;LAYER_CHANGE
;Z:1.55
;HEIGHT:0.45
; **** Start of Before Layer Change GCode: FlashForge Creator 3 ****
; FFPP-layer_z_height: 1.55 ; Value parsed by FFPP script
;layer:0.450 ; Value substituted by FFPP script (FFPP-calculated-next_layer_height)
; **** End of Before Layer Change GCode: FlashForge Creator 3 ****
G1 Z1.55 F720
; **** Start of After Layer Change GCode: FlashForge Creator 3 ****
; **** End of After Layer Change GCode: FlashForge Creator 3 ****
; printing object central_shaft+0.075.STL id:0 copy 0
G1 F2137
G1 X-5.37 Y-5.514 E19.03423
G1 X-5.514 Y-5.37 E19.05155
G1 X-5.514 Y5.37 E19.9626
G1 X-5.37 Y5.514 E19.97992
G1 X-4.842 Y5.514 E20.02465
G1 X-4.842 Y-5.514 E20.9602
G1 X-4.035 Y-5.514 E21.02867
G1 X-4.035 Y5.514 E21.96421
G1 X-3.228 Y5.514 E22.03268
G1 X-3.228 Y-5.514 E22.96823
G1 X-2.421 Y-5.514 E23.03669
G1 X-2.421 Y5.514 E23.97224
G1 X-1.614 Y5.514 E24.0407
G1 X-1.614 Y-5.514 E24.97625
G1 X-.807 Y-5.514 E25.04472
G1 X-.807 Y5.514 E25.98026
G1 X0 Y5.514 E26.04873
G1 X0 Y-5.514 E26.98428
G1 X.807 Y-5.514 E27.05274
G1 X.807 Y5.514 E27.98829
G1 X1.614 Y5.514 E28.05676
G1 X1.614 Y-5.514 E28.9923
G1 X2.421 Y-5.514 E29.06077
G1 X2.421 Y5.514 E29.99632
G1 X3.228 Y5.514 E30.06478
G1 X3.228 Y-5.514 E31.00033
G1 X4.035 Y-5.514 E31.06879
G1 X4.035 Y5.514 E32.00434
G1 X4.842 Y5.514 E32.07281
G1 X4.842 Y-5.514 E33.00835
G1 X5.37 Y-5.514 E33.05309
G1 X5.514 Y-5.37 E33.07041
G1 X5.514 Y5.37 E33.98146
G1 X5.37 Y5.514 E33.99878
G1 X5.096 Y5.514 E34.02201
; stop printing object central_shaft+0.075.STL id:0 copy 0
M106 S255
;LAYER_CHANGE
;Z:2
;HEIGHT:0.45
; **** Start of Before Layer Change GCode: FlashForge Creator 3 ****
; FFPP-layer_z_height: 2 ; Value parsed by FFPP script
;layer:0.450 ; Value substituted by FFPP script (FFPP-calculated-next_layer_height)
; **** End of Before Layer Change GCode: FlashForge Creator 3 ****
G1 Z2 F720
; **** Start of After Layer Change GCode: FlashForge Creator 3 ****
; **** End of After Layer Change GCode: FlashForge Creator 3 ****
; printing object central_shaft+0.075.STL id:0 copy 0
G1 E30.02201 F1500
G92 E0
G1 X-4.842 Y5.014 F12000
G1 E4 F1500
G1 F1828
G1 X-4.842 Y-5.014 E4.85072
G1 X-4.035 Y-5.014 E4.91918
G1 X-4.035 Y5.014 E5.7699
G1 X-3.228 Y5.014 E5.83837
G1 X-3.228 Y-5.014 E6.68908
G1 X-2.421 Y-5.014 E6.75755
G1 X-2.421 Y5.014 E7.60827
G1 X-1.614 Y5.014 E7.67673
G1 X-1.614 Y-5.014 E8.52745
G1 X-.807 Y-5.014 E8.59592
G1 X-.807 Y5.014 E9.44663
G1 X0 Y5.014 E9.5151
G1 X0 Y-5.014 E10.36582
G1 X.807 Y-5.014 E10.43428
G1 X.807 Y5.014 E11.285
G1 X1.614 Y5.014 E11.35347
G1 X1.614 Y-5.014 E12.20418
G1 X2.421 Y-5.014 E12.27265
G1 X2.421 Y5.014 E13.12337
G1 X3.228 Y5.014 E13.19183
G1 X3.228 Y-5.014 E14.04255
G1 X4.035 Y-5.014 E14.11102
G1 X4.035 Y5.014 E14.96173
G1 X4.842 Y5.014 E15.0302
G1 X4.842 Y-5.014 E15.88092
; stop printing object central_shaft+0.075.STL id:0 copy 0
;LAYER_CHANGE
;Z:2.3
;HEIGHT:0.3
; **** Start of Before Layer Change GCode: FlashForge Creator 3 ****
; FFPP-layer_z_height: 2.3 ; Value parsed by FFPP script
;layer:0.300 ; Value substituted by FFPP script (FFPP-calculated-next_layer_height)
; **** End of Before Layer Change GCode: FlashForge Creator 3 ****
G1 Z2.3 F720
; **** Start of After Layer Change GCode: FlashForge Creator 3 ****
; **** End of After Layer Change GCode: FlashForge Creator 3 ****
; printing object central_shaft+0.075.STL id:0 copy 0
G1 E11.88092 F1500
G92 E0
G1 X.21 Y-.231 F12000
G1 E4 F1500
M204 S800
;TYPE:Perimeter
;WIDTH:0.65
;HEIGHT:0.2
G1 F663
G1 X.305 Y.065 E4.01569
G1 X.094 Y.297 E4.03156
G1 X-.21 Y.231 E4.04726
G1 X-.305 Y-.066 E4.06303
G1 X-.095 Y-.298 E4.07883
G1 X.122 Y-.251 E4.09005
M204 S1000
G1 X.46 Y.797 F12000
M204 S800
G1 F663
G1 X.308 Y.965 E4.1015
G1 X-.682 Y.75 E4.15261
G1 X-.991 Y-.215 E4.20376
G1 X-.309 Y-.965 E4.25495
G1 X.682 Y-.75 E4.3061
G1 X.99 Y.213 E4.35715
G1 X.521 Y.73 E4.39242
M204 S1000
G1 X1.519 Y-.126 F12000
M204 S800
G1 F663
G1 X1.675 Y.361 E4.41826
G1 X.522 Y1.633 E4.50491
G1 X-1.153 Y1.269 E4.59142
G1 X-1.676 Y-.364 E4.67796
G1 X-.522 Y-1.633 E4.76453
G1 X1.153 Y-1.269 E4.85106
G1 X1.491 Y-.212 E4.90709
M204 S1000
G1 X1.807 Y-1.217 F12000
M204 S800
G1 F663
G1 X2.36 Y.51 E4.99859
G1 X.736 Y2.301 E5.12062
G1 X-1.624 Y1.788 E5.24254
G1 X-2.361 Y-.512 E5.36447
G1 X-.736 Y-2.301 E5.48643
G1 X1.624 Y-1.788 E5.60834
G1 X1.78 Y-1.302 E5.63408
M204 S1000
G1 X2.08 Y-2.29 F12000
M204 S800
;TYPE:External perimeter
;WIDTH:0.61
G1 F663
G1 X3.022 Y.653 E5.7798
G1 X.943 Y2.946 E5.92575
G1 X-2.08 Y2.29 E6.07161
G1 X-3.023 Y-.656 E6.21748
G1 X-.943 Y-2.946 E6.36337
G1 X1.992 Y-2.309 E6.50496
M204 S1000
G1 X1.953 Y-1.704 F12000
; stop printing object central_shaft+0.075.STL id:0 copy 0
;LAYER_CHANGE
;Z:2.5
;HEIGHT:0.2
; **** Start of Before Layer Change GCode: FlashForge Creator 3 ****
; FFPP-layer_z_height: 2.5 ; Value parsed by FFPP script
;layer:0.200 ; Value substituted by FFPP script (FFPP-calculated-next_layer_height)
; **** End of Before Layer Change GCode: FlashForge Creator 3 ****
G1 Z2.5 F720
; **** Start of After Layer Change GCode: FlashForge Creator 3 ****
; **** End of After Layer Change GCode: FlashForge Creator 3 ****
; printing object central_shaft+0.075.STL id:0 copy 0
G1 E2.50496 F1500
G92 E0
G1 X-.377 Y-.282 F12000
G1 E4 F1500
M204 S800
;TYPE:Perimeter
;WIDTH:0.65
G1 F749
G1 X-.164 Y-.517 E4.01602
G1 X.366 Y-.402 E4.04337
G1 X.531 Y.115 E4.07078
G1 X.165 Y.518 E4.09825
G1 X-.366 Y.402 E4.12566
G1 X-.531 Y-.114 E4.15301
G1 X-.438 Y-.216 E4.15998
M204 S1000
G1 X.842 Y.675 F12000
M204 S800
G1 F749
G1 X.379 Y1.185 E4.19476
G1 X-.837 Y.921 E4.25756
G1 X-1.216 Y-.262 E4.32029
G1 X-.378 Y-1.185 E4.38322
G1 X.837 Y-.921 E4.44595
G1 X1.216 Y.263 E4.50873
G1 X.903 Y.608 E4.53227
M204 S1000
G1 X1.674 Y-.297 F12000
M204 S800
G1 F749
G1 X1.901 Y.412 E4.56985
G1 X.593 Y1.853 E4.6681
G1 X-1.308 Y1.44 E4.7663
G1 X-1.901 Y-.411 E4.86441
G1 X-.591 Y-1.853 E4.96272
G1 X1.308 Y-1.44 E5.06084
G1 X1.647 Y-.383 E5.11687
M204 S1000
G1 X1.962 Y-1.388 F12000
M204 S800
G1 F749
G1 X2.586 Y.56 E5.22012
G1 X.807 Y2.521 E5.35375
G1 X-1.779 Y1.959 E5.48734
G1 X-2.586 Y-.56 E5.62084
G1 X-.805 Y-2.52 E5.75454
G1 X1.779 Y-1.959 E5.88804
G1 X1.935 Y-1.473 E5.91378
M204 S1000
G1 X2.27 Y-2.351 F12000
M204 S800
;TYPE:External perimeter
;WIDTH:0.61
G1 F749
G1 X3.248 Y.704 E6.06504
G1 X1.013 Y3.166 E6.22183
G1 X-2.235 Y2.461 E6.37859
G1 X-3.248 Y-.704 E6.53526
G1 X-1.012 Y-3.166 E6.69211
G1 X2.243 Y-2.437 E6.84938
M204 S1000
G1 X2.139 Y-1.765 F12000
; stop printing object central_shaft+0.075.STL id:0 copy 0
;LAYER_CHANGE
;Z:2.7
;HEIGHT:0.2
; **** Start of Before Layer Change GCode: FlashForge Creator 3 ****
; FFPP-layer_z_height: 2.7 ; Value parsed by FFPP script
;layer:0.200 ; Value substituted by FFPP script (FFPP-calculated-next_layer_height)
; **** End of Before Layer Change GCode: FlashForge Creator 3 ****
G1 Z2.7 F720
; **** Start of After Layer Change GCode: FlashForge Creator 3 ****
; **** End of After Layer Change GCode: FlashForge Creator 3 ****
; printing object central_shaft+0.075.STL id:0 copy 0
G1 E2.84938 F1500
G92 E0
G1 X.04 Y-.041 F12000
G1 E4 F1500
M204 S800
;TYPE:Perimeter
;WIDTH:0.65
G1 F836
G1 X.027 Y.045 E4.00438
G1 X-.044 Y-.047 E4.0102
M204 S1000
G1 X-.551 Y.427 F12000
M204 S800
G1 F836
G1 X-.748 Y-.174 E4.04213
G1 X-.246 Y-.727 E4.07985
G1 X.509 Y-.558 E4.11891
G1 X.745 Y.161 E4.15712
G1 X.237 Y.712 E4.19493
G1 X-.523 Y.513 E4.2346
M204 S1000
G1 X1.201 Y.562 F12000
M204 S800
G1 F836
G1 X.448 Y1.379 E4.2907
G1 X-.98 Y1.069 E4.36444
G1 X-1.436 Y-.32 E4.43824
G1 X-.458 Y-1.396 E4.51162
G1 X.978 Y-1.075 E4.58592
G1 X1.433 Y.311 E4.65955
G1 X1.262 Y.496 E4.67224
M204 S1000
G1 X1.822 Y-.452 F12000
M204 S800
G1 F836
G1 X2.121 Y.46 E4.72071
G1 X.659 Y2.046 E4.82958
G1 X-1.448 Y1.588 E4.9384
G1 X-2.123 Y-.467 E5.04759
G1 X-.67 Y-2.066 E5.15663
G1 X1.448 Y-1.592 E5.26617
G1 X1.794 Y-.538 E5.3222
M204 S1000
G1 X2.104 Y-1.539 F12000
M204 S800
G1 F836
G1 X2.809 Y.61 E5.43638
G1 X.87 Y2.713 E5.58078
G1 X-1.916 Y2.108 E5.72468
G1 X-2.81 Y-.613 E5.86925
G1 X-.882 Y-2.735 E6.01395
G1 X1.917 Y-2.11 E6.15874
G1 X2.076 Y-1.625 E6.18449
M204 S1000
G1 X2.438 Y-2.406 F12000
M204 S800
;TYPE:External perimeter
;WIDTH:0.61
G1 F836
G1 X3.462 Y.767 E6.3417
G1 X1.074 Y3.358 E6.50785
G1 X-2.369 Y2.61 E6.67397
G1 X-3.469 Y-.738 E6.84015
G1 X-1.087 Y-3.382 E7.00794
G1 X2.371 Y-2.61 E7.17502
G1 X2.41 Y-2.491 E7.1809
M204 S1000
G1 X2.201 Y-1.854 F12000
; stop printing object central_shaft+0.075.STL id:0 copy 0
;LAYER_CHANGE
;Z:2.9
;HEIGHT:0.2
; **** Start of Before Layer Change GCode: FlashForge Creator 3 ****
; FFPP-layer_z_height: 2.9 ; Value parsed by FFPP script
;layer:0.200 ; Value substituted by FFPP script (FFPP-calculated-next_layer_height)
; **** End of Before Layer Change GCode: FlashForge Creator 3 ****
G1 Z2.9 F720
; **** Start of After Layer Change GCode: FlashForge Creator 3 ****
; **** End of After Layer Change GCode: FlashForge Creator 3 ****
; printing object central_shaft+0.075.STL id:0 copy 0
G1 E3.1809 F1500
G92 E0
G1 X.04 Y-.041 F12000
G1 E4 F1500
M204 S800
;TYPE:Perimeter
;WIDTH:0.65
G1 F836
G1 X.027 Y.045 E4.00438
