;FLAVOR:Marlin
;TIME:3390
;Filament used: 8.88827m
;Layer height: 0.45
;MINX:48.3
;MINY:85.91
;MINZ:0.25
;MAXX:171.7
;MAXY:133.115
;MAXZ:29.95
;Generated with Cura_SteamEngine 4.13.1
M140 S90
M105
M190 S90
M104 S235
M105
M109 S235
M82 ;absolute extrusion mode
; Ender 3 Custom Start G-code
G92 E0 ; Reset Extruder
G28 ; Home all axes
G1 Z2.0 F3000 ; Move Z Axis up little to prevent scratching of Heat Bed
G1 X0.1 Y20 Z0.3 F5000.0 ; Move to start position
G1 X0.1 Y200.0 Z0.3 F1500.0 E15 ; Draw the first line
G1 X0.4 Y200.0 Z0.3 F5000.0 ; Move to side a little
G1 X0.4 Y20 Z0.3 F1500.0 E30 ; Draw the second line
G92 E0 ; Reset Extruder
G1 Z2.0 F3000 ; Move Z Axis up little to prevent scratching of Heat Bed
G1 X5 Y20 Z0.3 F5000.0 ; Move over to prevent blob squish
G92 E0
G92 E0
G1 F2400 E-7
;LAYER_COUNT:67
;LAYER:0
M107
G0 F7500 X57.867 Y89.257 Z0.25
;TYPE:SKIRT
G1 F2400 E-0.08315
G1 F1500 X58.334 Y88.964 E-0.05135
G1 X58.713 Y88.74 E-0.02595
G1 X59.165 Y88.488 E0.0039
G1 X59.532 Y88.294 E0.02785
G1 X59.855 Y88.129 E0.04877
G1 X60.157 Y87.982 E0.06814
G1 X60.501 Y87.822 E0.09003
G1 X61.059 Y87.574 E0.12525
G1 X61.614 Y87.346 E0.15987
G1 X62.035 Y87.186 E0.18585
G1 X62.57 Y86.998 E0.21856
G1 X62.797 Y86.925 E0.23231
G1 X63.156 Y86.817 E0.25394
G1 X63.927 Y86.598 E0.30017
G1 X64.691 Y86.41 E0.34556
G1 X65.173 Y86.31 E0.37396
G1 X65.457 Y86.255 E0.39064
G1 X65.746 Y86.203 E0.40758
G1 X66.409 Y86.105 E0.44624
G1 X67.024 Y86.033 E0.48196
G1 X67.563 Y85.983 E0.51319
G1 X68.086 Y85.948 E0.54343
G1 X68.663 Y85.925 E0.57674
G1 X69.752 Y85.911 E0.63956
G1 X150.058 Y85.91 E5.27206
G1 X150.263 Y85.912 E5.28388
G1 X151.483 Y85.935 E5.35427
G1 X151.911 Y85.951 E5.37898
G1 X152.301 Y85.978 E5.40153
G1 X153.008 Y86.039 E5.44247
G1 X153.392 Y86.079 E5.46474
G1 X153.646 Y86.11 E5.4795
G1 X154.581 Y86.266 E5.53418
G1 X155.427 Y86.445 E5.58406
G1 X155.853 Y86.544 E5.60929
G1 X156.046 Y86.593 E5.62078
G1 X156.35 Y86.675 E5.63894
G1 X156.68 Y86.769 E5.65873
G1 X157.07 Y86.888 E5.68225
G1 X157.681 Y87.087 E5.71932
G1 X158.015 Y87.201 E5.73968
G1 X158.832 Y87.527 E5.79042
G1 X159.608 Y87.873 E5.83944
G1 X160.314 Y88.219 E5.88479
G1 X161.132 Y88.657 E5.93832
G1 X161.715 Y88.992 E5.9771
G1 X161.851 Y89.076 E5.98632
G1 X162.385 Y89.428 E6.02322
G1 X163.039 Y89.887 E6.06931
G1 X163.329 Y90.098 E6.09
G1 X163.567 Y90.277 E6.10718
G1 X163.813 Y90.467 E6.12511
G1 X163.996 Y90.613 E6.13861
G1 X164.241 Y90.815 E6.15693
G1 X164.417 Y90.964 E6.17023
G1 X164.64 Y91.158 E6.18728
G1 X164.971 Y91.458 E6.21305
G1 X165.243 Y91.713 E6.23456
G1 X165.521 Y91.983 E6.25691
G1 X165.673 Y92.136 E6.26935
G1 X165.917 Y92.39 E6.28967
G1 X166.215 Y92.71 E6.3149
G1 X166.461 Y92.984 E6.33614
G1 X166.635 Y93.184 E6.35143
G1 X166.996 Y93.621 E6.38413
G1 X167.478 Y94.237 E6.42925
G1 X167.856 Y94.75 E6.466
G1 X168.018 Y94.984 E6.48242
G1 X168.187 Y95.235 E6.49988
G1 X168.38 Y95.531 E6.52026
G1 X168.602 Y95.887 E6.54446
G1 X168.821 Y96.253 E6.56907
G1 X169.004 Y96.57 E6.59018
G1 X169.236 Y96.989 E6.61781
G1 X169.39 Y97.277 E6.63665
G1 X169.492 Y97.475 E6.6495
G1 X169.7 Y97.902 E6.6769
G1 X169.819 Y98.16 E6.69329
G1 X169.936 Y98.423 E6.70989
G1 X170.058 Y98.707 E6.72772
G1 X170.237 Y99.149 E6.75523
G1 X170.429 Y99.656 E6.7865
G1 X170.616 Y100.192 E6.81925
G1 X170.689 Y100.42 E6.83306
G1 X170.789 Y100.75 E6.85295
G1 X170.977 Y101.408 E6.89243
G1 X171.119 Y101.962 E6.92542
G1 X171.229 Y102.441 E6.95377
G1 X171.306 Y102.801 E6.975
G1 X171.348 Y103.017 E6.9877
G1 X171.449 Y103.633 E7.02371
G1 X171.56 Y104.465 E7.07213
G1 X171.574 Y104.584 E7.07904
G1 X171.626 Y105.147 E7.11165
G1 X171.646 Y105.453 E7.12934
G1 X171.663 Y105.795 E7.1491
G1 X171.692 Y106.65 E7.19845
G1 X171.7 Y107.223 E7.2315
G1 X171.699 Y111.537 E7.48036
G1 X171.68 Y112.722 E7.54872
G1 X171.666 Y113.121 E7.57176
G1 X171.65 Y113.419 E7.58897
G1 X171.625 Y113.78 E7.60984
G1 X171.578 Y114.32 E7.64111
G1 X171.536 Y114.714 E7.66397
G1 X171.474 Y115.17 E7.69052
G1 X171.393 Y115.686 E7.72065
G1 X171.319 Y116.106 E7.74525
G1 X171.218 Y116.618 E7.77535
G1 X171.005 Y117.502 E7.8278
G1 X170.779 Y118.293 E7.87526
G1 X170.677 Y118.629 E7.89552
G1 X170.634 Y118.763 E7.90363
G1 X170.497 Y119.162 E7.92797
G1 X170.418 Y119.379 E7.94129
G1 X170.286 Y119.723 E7.96255
G1 X170.031 Y120.356 E8.00191
G1 X169.722 Y121.053 E8.04589
G1 X169.449 Y121.614 E8.08188
G1 X169.281 Y121.944 E8.10324
G1 X169.182 Y122.131 E8.11545
G1 X168.982 Y122.492 E8.13926
G1 X168.817 Y122.777 E8.15825
G1 X168.621 Y123.103 E8.1802
G1 X168.371 Y123.502 E8.20736
G1 X168.163 Y123.821 E8.22933
G1 X167.904 Y124.193 E8.25547
G1 X167.338 Y124.97 E8.31093
G1 X166.743 Y125.716 E8.36597
G1 X166.438 Y126.058 E8.3924
G1 X165.939 Y126.595 E8.43469
G1 X165.602 Y126.941 E8.46255
G1 X165.206 Y127.331 E8.49461
G1 X164.967 Y127.559 E8.51367
G1 X164.844 Y127.673 E8.52334
G1 X164.496 Y127.983 E8.55023
G1 X164.242 Y128.199 E8.56946
G1 X163.951 Y128.438 E8.59118
G1 X163.474 Y128.816 E8.62629
G1 X162.939 Y129.214 E8.66476
G1 X162.711 Y129.373 E8.68079
G1 X162.416 Y129.571 E8.70129
G1 X162.016 Y129.831 E8.72881
G1 X161.684 Y130.039 E8.75141
G1 X161.314 Y130.261 E8.7763
G1 X161.008 Y130.438 E8.79669
G1 X160.726 Y130.595 E8.81531
G1 X160.2 Y130.869 E8.84952
G1 X159.882 Y131.024 E8.86993
G1 X159.524 Y131.19 E8.89269
G1 X158.985 Y131.429 E8.9267
G1 X158.741 Y131.534 E8.94203
G1 X158.548 Y131.614 E8.95408
G1 X158.195 Y131.753 E8.97596
G1 X158.016 Y131.82 E8.98699
G1 X157.399 Y132.031 E9.0246
G1 X156.547 Y132.293 E9.07602
G1 X156.141 Y132.409 E9.10038
G1 X155.885 Y132.477 E9.11566
G1 X155.366 Y132.601 E9.14644
G1 X155.048 Y132.669 E9.1652
G1 X154.682 Y132.741 E9.18672
G1 X154.266 Y132.811 E9.21105
G1 X153.508 Y132.923 E9.25525
G1 X152.873 Y132.998 E9.29214
G1 X152.431 Y133.037 E9.31773
G1 X152.028 Y133.065 E9.34104
G1 X151.479 Y133.093 E9.37275
G1 X151.17 Y133.104 E9.39058
G1 X150.816 Y133.112 E9.41101
G1 X150.57 Y133.115 E9.4252
G1 X69.862 Y133.113 E14.08089
G1 X68.677 Y133.094 E14.14925
G1 X68.31 Y133.082 E14.17044
G1 X68.034 Y133.068 E14.18638
G1 X67.631 Y133.04 E14.20968
G1 X67.074 Y132.991 E14.24194
G1 X66.654 Y132.946 E14.2663
G1 X66.536 Y132.931 E14.27316
G1 X66.209 Y132.884 E14.29222
G1 X65.665 Y132.798 E14.32399
G1 X65.315 Y132.737 E14.34449
G1 X64.929 Y132.663 E14.36716
G1 X64.437 Y132.557 E14.39619
G1 X64.262 Y132.515 E14.40657
G1 X63.869 Y132.413 E14.42999
G1 X63.533 Y132.319 E14.45012
G1 X63.194 Y132.218 E14.47052
G1 X62.683 Y132.057 E14.50143
G1 X62.319 Y131.935 E14.52358
G1 X61.751 Y131.732 E14.55837
G1 X61.655 Y131.696 E14.56429
G1 X60.953 Y131.405 E14.60812
G1 X60.097 Y131.014 E14.66241
G1 X59.359 Y130.642 E14.71008
G1 X58.935 Y130.408 E14.73802
G1 X58.412 Y130.1 E14.77303
G1 X57.916 Y129.789 E14.8068
G1 X57.59 Y129.576 E14.82927
G1 X57.441 Y129.475 E14.83965
G1 X57.148 Y129.27 E14.86028
G1 X56.639 Y128.9 E14.89658
G1 X56.107 Y128.487 E14.93543
G1 X55.728 Y128.174 E14.96378
G1 X55.417 Y127.907 E14.98743
G1 X55.224 Y127.735 E15.00234
G1 X55.011 Y127.54 E15.019
G1 X54.678 Y127.227 E15.04536
G1 X54.196 Y126.745 E15.08468
G1 X53.844 Y126.37 E15.11435
G1 X53.542 Y126.034 E15.14041
G1 X53.276 Y125.726 E15.16389
G1 X53.067 Y125.477 E15.18264
G1 X52.75 Y125.087 E15.21163
G1 X52.338 Y124.547 E15.25082
G1 X52.148 Y124.281 E15.26967
G1 X51.878 Y123.885 E15.29732
G1 X51.622 Y123.491 E15.32442
G1 X51.406 Y123.144 E15.348
G1 X51.149 Y122.714 E15.3769
G1 X50.959 Y122.384 E15.39887
G1 X50.749 Y122.003 E15.42396
G1 X50.531 Y121.591 E15.45085
G1 X50.288 Y121.093 E15.48282
G1 X50.162 Y120.818 E15.50026
G1 X50.047 Y120.559 E15.51661
G1 X49.924 Y120.271 E15.53468
G1 X49.747 Y119.831 E15.56204
G1 X49.567 Y119.353 E15.5915
G1 X49.393 Y118.853 E15.62204
G1 X49.317 Y118.617 E15.63634
G1 X49.211 Y118.268 E15.65738
G1 X49.014 Y117.578 E15.69877
G1 X48.871 Y117.024 E15.73178
G1 X48.787 Y116.658 E15.75344
G1 X48.719 Y116.338 E15.77231
G1 X48.657 Y116.025 E15.79072
G1 X48.546 Y115.356 E15.82984
G1 X48.46 Y114.715 E15.86715
G1 X48.419 Y114.374 E15.88696
G1 X48.375 Y113.875 E15.91586
G1 X48.355 Y113.571 E15.93343
G1 X48.337 Y113.224 E15.95347
G1 X48.308 Y112.369 E16.00282
G1 X48.3 Y111.796 E16.03588
G1 X48.301 Y107.475 E16.28514
G1 X48.32 Y106.29 E16.35351
G1 X48.332 Y105.923 E16.37469
G1 X48.346 Y105.647 E16.39063
G1 X48.375 Y105.235 E16.41445
G1 X48.441 Y104.492 E16.45748
G1 X48.5 Y103.97 E16.48779
G1 X48.53 Y103.752 E16.50048
G1 X48.615 Y103.227 E16.53116
G1 X48.682 Y102.87 E16.55211
G1 X48.765 Y102.472 E16.57557
G1 X48.874 Y101.991 E16.60402
G1 X49.026 Y101.397 E16.63939
G1 X49.169 Y100.898 E16.66933
G1 X49.284 Y100.522 E16.69201
G1 X49.478 Y99.927 E16.72811
G1 X49.639 Y99.469 E16.75612
G1 X49.724 Y99.243 E16.77005
G1 X49.925 Y98.746 E16.80097
G1 X50.066 Y98.429 E16.82099
G1 X50.333 Y97.854 E16.85756
G1 X50.525 Y97.462 E16.88274
G1 X50.782 Y96.962 E16.91517
G1 X51.136 Y96.326 E16.95715
G1 X51.447 Y95.809 E16.99196
G1 X51.696 Y95.414 E17.01889
G1 X51.935 Y95.058 E17.04363
G1 X52.345 Y94.474 E17.08479
G1 X52.705 Y93.991 E17.11954
G1 X52.954 Y93.675 E17.14275
G1 X53.324 Y93.23 E17.17613
G1 X53.475 Y93.058 E17.18933
G1 X53.697 Y92.813 E17.20841
G1 X54.227 Y92.245 E17.25322
G1 X54.613 Y91.851 E17.28504
G1 X54.803 Y91.667 E17.30029
G1 X55.136 Y91.358 E17.3265
G1 X55.319 Y91.195 E17.34064
G1 X55.533 Y91.009 E17.35699
G1 X55.901 Y90.698 E17.38479
G1 X55.93 Y90.675 E17.38692
G0 F1350 X56.265 Y90.404
G0 X56.566 Y90.171
G0 X57.016 Y89.84
G0 X57.531 Y89.482
G0 X57.867 Y89.257
G0 F7500 X58.198 Y89.757
G1 F1500 X58.639 Y89.481 E17.41693
G1 X59.018 Y89.257 E17.44233
G1 X59.445 Y89.018 E17.47056
G1 X59.812 Y88.824 E17.4945
G1 X60.118 Y88.669 E17.51429
G1 X60.42 Y88.522 E17.53366
G1 X60.745 Y88.371 E17.55434
G1 X61.303 Y88.123 E17.58956
G1 X61.827 Y87.907 E17.62226
G1 X62.248 Y87.747 E17.64824
G1 X62.754 Y87.57 E17.67916
G1 X62.981 Y87.497 E17.69291
G1 X63.32 Y87.394 E17.71335
G1 X64.091 Y87.175 E17.75959
G1 X64.813 Y86.998 E17.80247
G1 X65.295 Y86.898 E17.83087
G1 X65.563 Y86.846 E17.84661
G1 X65.852 Y86.794 E17.86355
G1 X66.478 Y86.701 E17.90006
G1 X67.093 Y86.629 E17.93578
G1 X67.603 Y86.582 E17.96532
G1 X68.126 Y86.547 E17.99556
G1 X68.671 Y86.525 E18.02703
G1 X69.752 Y86.511 E18.08939
G1 X150.058 Y86.51 E22.72188
G1 X150.252 Y86.512 E22.73308
G1 X151.472 Y86.535 E22.80346
G1 X151.876 Y86.55 E22.82679
G1 X152.249 Y86.576 E22.84835
G1 X152.956 Y86.637 E22.88929
G1 X153.319 Y86.675 E22.91034
G1 X153.573 Y86.706 E22.92511
G1 X154.457 Y86.853 E22.9768
G1 X155.303 Y87.032 E23.02668
G1 X155.706 Y87.126 E23.05055
G1 X155.899 Y87.175 E23.06204
G1 X156.186 Y87.252 E23.07918
G1 X156.516 Y87.346 E23.09897
G1 X156.884 Y87.458 E23.12116
G1 X157.495 Y87.657 E23.15823
G1 X157.815 Y87.767 E23.17775
G1 X158.587 Y88.075 E23.2257
G1 X159.363 Y88.421 E23.27471
G1 X160.031 Y88.748 E23.31761
G1 X160.849 Y89.186 E23.37114
G1 X161.4 Y89.503 E23.40781
G1 X161.536 Y89.587 E23.41703
G1 X162.04 Y89.919 E23.45184
G1 X162.694 Y90.378 E23.49793
G1 X162.968 Y90.577 E23.51747
G1 X163.206 Y90.756 E23.53465
G1 X163.439 Y90.936 E23.55163
G1 X163.622 Y91.082 E23.56514
G1 X163.853 Y91.273 E23.58243
G1 X164.029 Y91.422 E23.59573
G1 X164.24 Y91.606 E23.61188
G1 X164.561 Y91.896 E23.63683
G1 X164.833 Y92.151 E23.65834
G1 X165.095 Y92.406 E23.67943
G1 X165.247 Y92.559 E23.69187
G1 X165.478 Y92.799 E23.71109
G1 X165.776 Y93.119 E23.73631
G1 X166.009 Y93.377 E23.75637
G1 X166.183 Y93.577 E23.77166
G1 X166.524 Y93.991 E23.8026
G1 X167.006 Y94.607 E23.84772
G1 X167.363 Y95.091 E23.88241
G1 X167.525 Y95.325 E23.89883
G1 X167.684 Y95.562 E23.91529
G1 X167.877 Y95.858 E23.93568
G1 X168.088 Y96.195 E23.95861
G1 X168.307 Y96.561 E23.98322
G1 X168.479 Y96.861 E24.00316
G1 X168.711 Y97.28 E24.03079
G1 X168.856 Y97.552 E24.04857
G1 X168.958 Y97.75 E24.06142
G1 X169.155 Y98.153 E24.0873
G1 X169.274 Y98.411 E24.10369
G1 X169.385 Y98.66 E24.11941
G1 X169.507 Y98.944 E24.13724
G1 X169.675 Y99.361 E24.16318
G1 X169.867 Y99.868 E24.19445
G1 X170.044 Y100.375 E24.22543
G1 X170.117 Y100.603 E24.23924
G1 X170.212 Y100.914 E24.258
G1 X170.4 Y101.572 E24.29747
G1 X170.535 Y102.097 E24.32874
G1 X170.645 Y102.576 E24.35709
G1 X170.717 Y102.915 E24.37709
G1 X170.759 Y103.131 E24.38978
G1 X170.855 Y103.714 E24.42386
G1 X170.942 Y104.356 E24.46123
G1 X170.978 Y104.655 E24.47861
G1 X171.027 Y105.186 E24.50937
G1 X171.047 Y105.492 E24.52706
G1 X171.063 Y105.815 E24.54571
G1 X171.092 Y106.67 E24.59506
G1 X171.099 Y107.118 E24.62091
G1 X171.099 Y111.536 E24.87576
G1 X171.098 Y111.709 E24.88574
G1 X171.081 Y112.712 E24.94361
G1 X171.067 Y113.089 E24.96537
G1 X171.051 Y113.387 E24.98259
G1 X171.027 Y113.728 E25.00231
G1 X170.98 Y114.268 E25.03358
G1 X170.941 Y114.641 E25.05521
G1 X170.928 Y114.746 E25.06131
G1 X170.881 Y115.077 E25.0806
G1 X170.8 Y115.593 E25.11073
G1 X170.73 Y115.989 E25.13393
G1 X170.629 Y116.501 E25.16403
G1 X170.428 Y117.338 E25.21369
G1 X170.202 Y118.129 E25.26114
G1 X170.062 Y118.58 E25.28838
G1 X169.934 Y118.957 E25.31135
G1 X169.855 Y119.174 E25.32467
G1 X169.73 Y119.499 E25.34476
G1 X169.475 Y120.132 E25.38412
G1 X169.183 Y120.79 E25.42565
G1 X168.91 Y121.351 E25.46164
G1 X168.751 Y121.663 E25.48184
G1 X168.652 Y121.85 E25.49405
G1 X168.463 Y122.192 E25.51659
G1 X168.298 Y122.477 E25.53558
G1 X168.112 Y122.785 E25.55634
G1 X167.862 Y123.184 E25.5835
G1 X167.664 Y123.488 E25.60443
G1 X167.419 Y123.84 E25.62917
G1 X166.853 Y124.617 E25.68462
G1 X166.291 Y125.322 E25.73663
G1 X166.216 Y125.408 E25.74321
G1 X165.998 Y125.649 E25.76196
G1 X165.499 Y126.186 E25.80424
G1 X165.181 Y126.514 E25.8306
G1 X164.785 Y126.904 E25.86266
G1 X164.56 Y127.119 E25.88061
G1 X164.437 Y127.233 E25.89029
G1 X164.108 Y127.525 E25.91566
G1 X163.854 Y127.741 E25.93489
G1 X163.578 Y127.968 E25.95551
G1 X163.101 Y128.346 E25.99062
G1 X162.596 Y128.722 E26.02694
G1 X162.368 Y128.881 E26.04297
G1 X162.089 Y129.068 E26.06235
G1 X161.689 Y129.328 E26.08987
G1 X161.375 Y129.524 E26.11122
G1 X161.005 Y129.746 E26.13611
G1 X160.716 Y129.913 E26.15536
G1 X160.434 Y130.07 E26.17398
G1 X159.937 Y130.33 E26.20634
G1 X159.619 Y130.485 E26.22675
G1 X159.281 Y130.642 E26.24824
G1 X158.742 Y130.881 E26.28226
G1 X158.318 Y131.06 E26.3088
G1 X157.985 Y131.191 E26.32945
G1 X157.806 Y131.258 E26.34047
G1 X157.222 Y131.457 E26.37606
G1 X156.37 Y131.719 E26.42748
G1 X155.987 Y131.829 E26.45047
G1 X155.731 Y131.897 E26.46575
G1 X155.241 Y132.014 E26.49481
G1 X154.923 Y132.082 E26.51357
G1 X154.571 Y132.152 E26.53427
G1 X154.179 Y132.217 E26.55719
G1 X153.421 Y132.329 E26.60139
G1 X152.82 Y132.4 E26.6363
G1 X152.378 Y132.439 E26.6619
G1 X151.998 Y132.466 E26.68387
G1 X151.449 Y132.494 E26.71559
G1 X151.157 Y132.504 E26.73244
G1 X150.57 Y132.515 E26.76631
G1 X69.687 Y132.512 E31.43209
G1 X68.687 Y132.495 E31.48978
G1 X68.34 Y132.483 E31.50981
G1 X68.064 Y132.469 E31.52575
G1 X67.683 Y132.442 E31.54778
G1 X67.126 Y132.393 E31.58004
G1 X66.73 Y132.351 E31.60301
G1 X66.303 Y132.292 E31.62788
G1 X65.759 Y132.206 E31.65965
G1 X65.428 Y132.148 E31.67903
G1 X65.042 Y132.074 E31.7017
G1 X64.577 Y131.974 E31.72914
G1 X64.402 Y131.932 E31.73952
G1 X64.031 Y131.835 E31.76164
G1 X63.695 Y131.741 E31.78177
G1 X63.375 Y131.646 E31.80103
G1 X62.864 Y131.485 E31.83193
G1 X62.519 Y131.37 E31.85291
G1 X62.138 Y131.235 E31.87623
G1 X61.865 Y131.134 E31.89302
G1 X61.203 Y130.859 E31.93437
G1 X60.347 Y130.468 E31.98866
G1 X59.649 Y130.117 E32.03372
G1 X59.225 Y129.883 E32.06166
G1 X58.73 Y129.591 E32.09481
G1 X58.234 Y129.28 E32.12858
G1 X57.927 Y129.08 E32.14972
G1 X57.778 Y128.979 E32.1601
G1 X57.501 Y128.784 E32.17965
G1 X56.992 Y128.414 E32.21595
G1 X56.489 Y128.025 E32.25263
G1 X56.11 Y127.712 E32.28098
G1 X55.816 Y127.46 E32.30332
G1 X55.623 Y127.288 E32.31823
G1 X55.422 Y127.103 E32.33399
G1 X55.089 Y126.79 E32.36035
G1 X54.633 Y126.334 E32.39755
G1 X54.281 Y125.959 E32.42722
G1 X53.996 Y125.642 E32.45181
G1 X53.73 Y125.334 E32.47529
G1 X53.532 Y125.099 E32.49301
G1 X53.215 Y124.709 E32.52201
G1 X52.827 Y124.199 E32.55897
G1 X52.637 Y123.933 E32.57783
G1 X52.381 Y123.558 E32.60402
G1 X52.125 Y123.164 E32.63112
G1 X51.921 Y122.836 E32.65341
G1 X51.664 Y122.406 E32.6823
G1 X51.484 Y122.094 E32.70308
