;FLAVOR:Marlin
;TIME:1249
;Filament used: 1.39975m
;Layer height: 0.28
;MINX:93.2
;MINY:99.69
;MINZ:0.28
;MAXX:126.8
;MAXY:120.31
;MAXZ:15.12
;Generated with Cura_SteamEngine 4.13.1
M140 S85
M105
M190 S85
M104 S245
M105
M109 S245
M82 ;absolute extrusion mode
; Ender 3 Custom Start G-code
G92 E0 ; Reset Extruder
G28 ; Home all axes
G1 Z2.0 F3000 ; Move Z Axis up little to prevent scratching of Heat Bed
G1 X0.1 Y20 Z0.3 F5000.0 ; Move to start position
G1 X0.1 Y200.0 Z0.3 F1500.0 E15 ; Draw the first line
G1 X0.4 Y200.0 Z0.3 F5000.0 ; Move to side a little
G1 X0.4 Y20 Z0.3 F1500.0 E30 ; Draw the second line
G92 E0 ; Reset Extruder
G1 Z2.0 F3000 ; Move Z Axis up little to prevent scratching of Heat Bed
G1 X5 Y20 Z0.3 F5000.0 ; Move over to prevent blob squish
G92 E0
G92 E0
G1 F900 E-7
;LAYER_COUNT:54
;LAYER:0
M107
G0 F7500 X93.803 Y100.145 Z0.28
;TYPE:SKIRT
G1 F900 E0
G1 F1500 X94.112 Y99.925 E0.0159
G1 X94.459 Y99.773 E0.03177
G1 X95 Y99.69 E0.05471
G1 X125 Y99.69 E1.31194
G1 X125.377 Y99.73 E1.32783
G1 X125.737 Y99.848 E1.34371
G1 X126.064 Y100.038 E1.35956
G1 X126.345 Y100.293 E1.37546
G1 X126.565 Y100.602 E1.39135
G1 X126.717 Y100.949 E1.40723
G1 X126.8 Y101.49 E1.43017
G1 X126.8 Y118.51 E2.14344
G1 X126.76 Y118.887 E2.15933
G1 X126.642 Y119.247 E2.1752
G1 X126.452 Y119.574 E2.19105
G1 X126.197 Y119.855 E2.20695
G1 X125.888 Y120.075 E2.22285
G1 X125.541 Y120.227 E2.23873
G1 X125 Y120.31 E2.26166
G1 X95 Y120.31 E3.5189
G1 X94.623 Y120.27 E3.53478
G1 X94.263 Y120.152 E3.55066
G1 X93.936 Y119.962 E3.56651
G1 X93.655 Y119.707 E3.58241
G1 X93.435 Y119.398 E3.59831
G1 X93.283 Y119.051 E3.61418
G1 X93.2 Y118.51 E3.63712
G1 X93.2 Y101.49 E4.35039
G1 X93.24 Y101.113 E4.36628
G1 X93.358 Y100.753 E4.38216
G1 X93.548 Y100.426 E4.39801
G1 X93.803 Y100.145 E4.41391
G0 F7500 X94.193 Y100.346
G1 F1500 X94.487 Y100.187 E4.42792
G1 X94.811 Y100.103 E4.44194
G1 X95 Y100.09 E4.44988
G1 X125 Y100.09 E5.70712
G1 X125.332 Y100.13 E5.72113
G1 X125.644 Y100.247 E5.73509
G1 X125.921 Y100.435 E5.74912
G1 X126.144 Y100.683 E5.7631
G1 X126.303 Y100.977 E5.77711
G1 X126.387 Y101.301 E5.79113
G1 X126.4 Y101.49 E5.79907
G1 X126.4 Y118.51 E6.51234
G1 X126.36 Y118.842 E6.52636
G1 X126.243 Y119.154 E6.54032
G1 X126.055 Y119.431 E6.55435
G1 X125.807 Y119.654 E6.56833
G1 X125.513 Y119.813 E6.58234
G1 X125.189 Y119.897 E6.59636
G1 X125 Y119.91 E6.6043
G1 X95 Y119.91 E7.86154
G1 X94.668 Y119.87 E7.87555
G1 X94.356 Y119.753 E7.88951
G1 X94.079 Y119.565 E7.90354
G1 X93.856 Y119.317 E7.91752
G1 X93.697 Y119.023 E7.93153
G1 X93.613 Y118.699 E7.94555
G1 X93.6 Y118.51 E7.95349
G1 X93.6 Y101.49 E8.66676
G1 X93.64 Y101.158 E8.68078
G1 X93.757 Y100.846 E8.69474
G1 X93.945 Y100.569 E8.70877
G1 X94.193 Y100.346 E8.72275
G0 F7500 X94.339 Y100.739
G1 F1500 X94.575 Y100.585 E8.73456
G1 X94.845 Y100.502 E8.7464
G1 X95 Y100.49 E8.75291
G1 X125 Y100.49 E10.01014
G1 X125.279 Y100.53 E10.02196
G1 X125.536 Y100.646 E10.03377
G1 X125.751 Y100.829 E10.0456
G1 X125.905 Y101.065 E10.05741
G1 X125.988 Y101.335 E10.06925
G1 X126 Y101.49 E10.07577
G1 X126 Y118.51 E10.78904
G1 X125.96 Y118.789 E10.80085
G1 X125.844 Y119.046 E10.81267
G1 X125.661 Y119.261 E10.8245
G1 X125.425 Y119.415 E10.83631
G1 X125.155 Y119.498 E10.84815
G1 X125 Y119.51 E10.85466
G1 X95 Y119.51 E12.11189
G1 X94.721 Y119.47 E12.12371
G1 X94.464 Y119.354 E12.13552
G1 X94.249 Y119.171 E12.14735
G1 X94.095 Y118.935 E12.15916
G1 X94.012 Y118.665 E12.171
G1 X94 Y118.51 E12.17752
G1 X94 Y101.49 E12.89079
G1 X94.04 Y101.211 E12.9026
G1 X94.156 Y100.954 E12.91442
G1 X94.339 Y100.739 E12.92625
G0 F7500 X94.553 Y101.089
G1 F1500 X94.726 Y100.956 E12.93539
G1 X95 Y100.89 E12.9472
G1 X125 Y100.89 E14.20444
G1 X125.215 Y100.93 E14.2136
G1 X125.401 Y101.043 E14.22272
G1 X125.534 Y101.216 E14.23187
G1 X125.6 Y101.49 E14.24368
G1 X125.6 Y118.51 E14.95695
G1 X125.56 Y118.725 E14.96611
G1 X125.447 Y118.911 E14.97523
G1 X125.274 Y119.044 E14.98438
G1 X125 Y119.11 E14.99619
G1 X95 Y119.11 E16.25342
G1 X94.785 Y119.07 E16.26259
G1 X94.599 Y118.957 E16.27171
G1 X94.466 Y118.784 E16.28085
G1 X94.4 Y118.51 E16.29266
G1 X94.4 Y101.49 E17.00593
G1 X94.44 Y101.275 E17.0151
G1 X94.553 Y101.089 E17.02422
G0 F7500 X94.839 Y101.371
G1 F1500 X95 Y101.29 E17.03177
G1 X125 Y101.29 E18.28901
G1 X125.119 Y101.329 E18.29425
G1 X125.2 Y101.49 E18.30181
G1 X125.2 Y118.51 E19.01508
G1 X125.161 Y118.629 E19.02033
G1 X125 Y118.71 E19.02788
G1 X95 Y118.71 E20.28511
G1 X94.881 Y118.671 E20.29036
G1 X94.8 Y118.51 E20.29791
G1 X94.8 Y101.49 E21.01118
G1 X94.839 Y101.371 E21.01643
G1 F900 E14.01643
;MESH:splay2hip_limit_switch_mount.STL
G0 F7500 X96.21 Y102.7
G0 X96.182 Y117.328
G0 X124.5 Y118.04
G1 F900 E21.01643
G0 F7500 X124.8 Y118.31
;TYPE:WALL-OUTER
G1 F1500 X95.2 Y118.31 E22.2569
G1 X95.2 Y101.69 E22.95341
G1 X124.8 Y101.69 E24.19388
G1 X124.8 Y118.31 E24.89038
G1 F900 E17.89038
G0 F7500 X124.5 Y118.04
G0 X109.978 Y117.3
G0 X109.978 Y119.175
G0 X110.008 Y111.032
G0 X110.005 Y112.896
G0 X109.978 Y112.199
G1 F900 E24.89038
G0 F7500 X110.004 Y111.901
G1 F1500 X110.335 Y111.871 E24.90431
G1 X110.654 Y111.783 E24.91818
G1 X110.954 Y111.644 E24.93204
G1 X111.225 Y111.452 E24.94596
G1 X111.458 Y111.219 E24.95976
G1 X111.648 Y110.946 E24.9737
G1 X111.787 Y110.645 E24.9876
G1 X111.872 Y110.326 E25.00143
G1 X111.901 Y109.996 E25.01532
G1 X111.871 Y109.665 E25.02924
G1 X111.783 Y109.346 E25.04311
G1 X111.644 Y109.046 E25.05697
G1 X111.452 Y108.775 E25.07089
G1 X111.219 Y108.542 E25.0847
G1 X110.946 Y108.352 E25.09864
G1 X110.645 Y108.213 E25.11253
G1 X110.326 Y108.128 E25.12636
G1 X109.996 Y108.099 E25.14025
G1 X109.665 Y108.129 E25.15418
G1 X109.346 Y108.217 E25.16804
G1 X109.046 Y108.356 E25.1819
G1 X108.775 Y108.548 E25.19582
G1 X108.542 Y108.781 E25.20963
G1 X108.352 Y109.054 E25.22357
G1 X108.213 Y109.355 E25.23746
G1 X108.128 Y109.674 E25.2513
G1 X108.099 Y110.004 E25.26518
G1 X108.129 Y110.335 E25.27911
G1 X108.217 Y110.654 E25.29297
G1 X108.356 Y110.954 E25.30683
G1 X108.548 Y111.225 E25.32075
G1 X108.781 Y111.458 E25.33456
G1 X109.054 Y111.648 E25.3485
G1 X109.355 Y111.787 E25.36239
G1 X109.674 Y111.872 E25.37623
G1 X110.004 Y111.901 E25.39011
G0 F7500 X110.005 Y112.303
;TYPE:WALL-INNER
G1 F1500 X110.407 Y112.266 E25.40703
G1 X110.792 Y112.16 E25.42376
G1 X111.155 Y111.992 E25.44053
G1 X111.484 Y111.759 E25.45742
G1 X111.766 Y111.477 E25.47413
G1 X111.996 Y111.146 E25.49103
G1 X112.165 Y110.781 E25.50788
G1 X112.267 Y110.396 E25.52457
G1 X112.303 Y109.995 E25.54145
G1 X112.266 Y109.593 E25.55836
G1 X112.16 Y109.208 E25.5751
G1 X111.992 Y108.845 E25.59186
G1 X111.759 Y108.516 E25.60876
G1 X111.477 Y108.234 E25.62547
G1 X111.146 Y108.004 E25.64236
G1 X110.781 Y107.835 E25.65922
G1 X110.396 Y107.733 E25.67591
G1 X109.995 Y107.697 E25.69278
G1 X109.593 Y107.734 E25.7097
G1 X109.208 Y107.84 E25.72643
G1 X108.845 Y108.008 E25.7432
G1 X108.516 Y108.241 E25.76009
G1 X108.234 Y108.523 E25.77681
G1 X108.004 Y108.854 E25.7937
G1 X107.835 Y109.219 E25.81055
G1 X107.733 Y109.604 E25.82724
G1 X107.697 Y110.005 E25.84412
G1 X107.734 Y110.407 E25.86103
G1 X107.84 Y110.792 E25.87777
G1 X108.008 Y111.155 E25.89453
G1 X108.241 Y111.484 E25.91143
G1 X108.523 Y111.766 E25.92814
G1 X108.854 Y111.996 E25.94503
G1 X109.219 Y112.165 E25.96189
G1 X109.604 Y112.267 E25.97858
G1 X110.005 Y112.303 E25.99545
G0 F7500 X110.005 Y112.705
G1 F1500 X110.479 Y112.661 E26.0154
G1 X110.93 Y112.537 E26.035
G1 X111.356 Y112.34 E26.05467
G1 X111.743 Y112.066 E26.07454
G1 X112.074 Y111.735 E26.09416
G1 X112.344 Y111.346 E26.11401
G1 X112.543 Y110.917 E26.13382
G1 X112.662 Y110.466 E26.15337
G1 X112.705 Y109.995 E26.17319
G1 X112.661 Y109.521 E26.19314
G1 X112.537 Y109.07 E26.21274
G1 X112.34 Y108.644 E26.23241
G1 X112.066 Y108.257 E26.25229
G1 X111.735 Y107.926 E26.2719
G1 X111.346 Y107.656 E26.29175
G1 X110.917 Y107.457 E26.31157
G1 X110.466 Y107.338 E26.33111
G1 X109.995 Y107.295 E26.35093
G1 X109.521 Y107.339 E26.37088
G1 X109.07 Y107.463 E26.39048
G1 X108.644 Y107.66 E26.41015
G1 X108.257 Y107.934 E26.43003
G1 X107.926 Y108.265 E26.44964
G1 X107.656 Y108.654 E26.46949
G1 X107.457 Y109.083 E26.48931
G1 X107.338 Y109.534 E26.50885
G1 X107.295 Y110.005 E26.52867
G1 X107.339 Y110.479 E26.54862
G1 X107.463 Y110.93 E26.56822
G1 X107.66 Y111.356 E26.58789
G1 X107.934 Y111.743 E26.60777
G1 X108.265 Y112.074 E26.62738
G1 X108.654 Y112.344 E26.64723
G1 X109.083 Y112.543 E26.66705
G1 X109.534 Y112.662 E26.68659
G1 X110.005 Y112.705 E26.70641
G1 F900 E19.70641
G0 F7500 X110.996 Y112.717
G0 X110.358 Y110.969
G0 X110.996 Y119.175
G0 X110.996 Y117.3
G0 X124.4 Y117.91
G1 F900 E26.70641
G1 F1500 X95.6 Y117.91 E27.91336
G1 X95.6 Y102.09 E28.57634
G1 X124.4 Y102.09 E29.78328
G1 X124.4 Y117.91 E30.44626
G0 F7500 X124 Y117.51
G1 F1500 X96 Y117.51 E31.61968
G1 X96 Y102.49 E32.24914
G1 X124 Y102.49 E33.42255
G1 X124 Y117.51 E34.05201
G0 F7500 X123.61 Y117.12
;TYPE:SKIN
G1 F1500 X96.39 Y117.12 E35.19274
G1 X96.39 Y102.88 E35.7895
G1 X123.61 Y102.88 E36.93023
G1 X123.61 Y117.12 E37.527
G1 F900 E30.527
G0 F7500 X123.89 Y117.12
G0 X112.44 Y117.3
G0 X112.44 Y119.175
G0 X110.667 Y110.789
G0 X111.867 Y112.212
G0 X112.44 Y111.401
G1 F900 E37.527
G0 F7500 X112.683 Y111.541
G1 F1500 X112.911 Y111.05 E37.54969
G1 X113.048 Y110.534 E37.57206
G1 X113.097 Y109.995 E37.59474
G1 X113.047 Y109.451 E37.61764
G1 X112.904 Y108.935 E37.64008
G1 X112.679 Y108.447 E37.6626
G1 X112.365 Y108.005 E37.68532
G1 X111.986 Y107.626 E37.70778
G1 X111.541 Y107.317 E37.73048
G1 X111.05 Y107.089 E37.75317
G1 X110.534 Y106.952 E37.77554
G1 X109.995 Y106.903 E37.79822
G1 X109.451 Y106.953 E37.82112
G1 X108.935 Y107.096 E37.84356
G1 X108.447 Y107.321 E37.86608
G1 X108.005 Y107.635 E37.8888
G1 X107.626 Y108.014 E37.91126
G1 X107.317 Y108.459 E37.93397
G1 X107.089 Y108.95 E37.95665
G1 X106.952 Y109.466 E37.97903
G1 X106.903 Y110.005 E38.00171
G1 X106.953 Y110.549 E38.0246
G1 X107.096 Y111.065 E38.04704
G1 X107.321 Y111.553 E38.06956
G1 X107.635 Y111.995 E38.09228
G1 X108.014 Y112.374 E38.11474
G1 X108.459 Y112.683 E38.13745
G1 X108.95 Y112.911 E38.16014
G1 X109.466 Y113.048 E38.18251
G1 X110.005 Y113.097 E38.20519
G1 X110.549 Y113.047 E38.22808
G1 X111.065 Y112.904 E38.25052
G1 X111.553 Y112.679 E38.27304
G1 X111.995 Y112.365 E38.29577
G1 X112.374 Y111.986 E38.31823
G1 X112.683 Y111.541 E38.34093
G1 F900 E31.34093
G0 F7500 X112.44 Y111.401
G0 X112.896 Y109.995
G0 X111.032 Y109.992
G0 X125.665 Y109.995
G0 X123.79 Y109.995
G0 X123.89 Y103.65
G1 F900 E38.34093
G0 F7500 X123.449 Y103.65
G1 F1500 X122.838 Y103.039 E38.37714
G0 F7500 X122.272 Y103.039
G1 F1500 X123.449 Y104.216 E38.4469
G0 F7500 X123.449 Y104.781
G1 F1500 X121.707 Y103.039 E38.55014
G0 F7500 X121.141 Y103.039
G1 F1500 X123.449 Y105.347 E38.68693
G0 F7500 X123.449 Y105.913
G1 F1500 X120.575 Y103.039 E38.85726
G0 F7500 X120.01 Y103.039
G1 F1500 X123.449 Y106.478 E39.06108
G0 F7500 X123.449 Y107.044
G1 F1500 X119.444 Y103.039 E39.29844
G0 F7500 X118.878 Y103.039
G1 F1500 X123.449 Y107.61 E39.56935
G0 F7500 X123.449 Y108.176
G1 F1500 X118.313 Y103.039 E39.87377
G0 F7500 X117.747 Y103.039
G1 F1500 X123.449 Y108.741 E40.21171
G0 F7500 X123.449 Y109.307
G1 F1500 X117.181 Y103.039 E40.58319
G0 F7500 X116.616 Y103.039
G1 F1500 X123.449 Y109.873 E40.98819
G0 F7500 X123.449 Y110.438
G1 F1500 X116.05 Y103.039 E41.4267
G0 F7500 X115.484 Y103.039
G1 F1500 X123.449 Y111.004 E41.89876
G0 F7500 X123.449 Y111.57
G1 F1500 X114.918 Y103.039 E42.40436
G0 F7500 X114.353 Y103.039
G1 F1500 X123.449 Y112.135 E42.94345
G0 F7500 X123.449 Y112.701
G1 F1500 X113.787 Y103.039 E43.51609
G0 F7500 X113.221 Y103.039
G1 F1500 X123.449 Y113.267 E44.12226
G0 F7500 X123.449 Y113.832
G1 F1500 X112.656 Y103.039 E44.76193
G0 F7500 X112.09 Y103.039
G1 F1500 X123.449 Y114.398 E45.43514
G0 F7500 X123.449 Y114.964
G1 F1500 X111.524 Y103.039 E46.14189
G0 F7500 X110.959 Y103.039
G1 F1500 X123.449 Y115.529 E46.88213
G0 F7500 X123.449 Y116.095
G1 F1500 X110.393 Y103.039 E47.65591
G0 F7500 X109.827 Y103.039
G1 F1500 X123.449 Y116.661 E48.46324
G0 F7500 X123.182 Y116.959
G1 F1500 X109.262 Y103.039 E49.28823
G0 F7500 X108.696 Y103.039
G1 F1500 X122.616 Y116.959 E50.11322
G0 F7500 X122.05 Y116.959
G1 F1500 X108.13 Y103.039 E50.93821
G0 F7500 X107.565 Y103.039
G1 F1500 X111.892 Y107.367 E51.19469
G0 F7500 X111.641 Y107.727
G0 X112.276 Y108.361
G0 X112.634 Y108.108
G1 F1500 X121.485 Y116.959 E51.71926
G0 F7500 X120.919 Y116.959
G1 F1500 X113.134 Y109.175 E52.18062
G0 F7500 X113.243 Y109.849
G1 F1500 X120.353 Y116.959 E52.602
G0 F7500 X119.788 Y116.959
G1 F1500 X113.221 Y110.392 E52.99121
G0 F7500 X113.125 Y110.862
G1 F1500 X119.222 Y116.959 E53.35255
G0 F7500 X118.656 Y116.959
G1 F1500 X112.978 Y111.281 E53.68907
G0 F7500 X112.792 Y111.661
G1 F1500 X118.091 Y116.959 E54.00309
G0 F7500 X117.525 Y116.959
G1 F1500 X112.56 Y111.995 E54.29732
G0 F7500 X112.292 Y112.292
G1 F1500 X116.959 Y116.959 E54.57392
G0 F7500 X116.394 Y116.959
G1 F1500 X111.995 Y112.56 E54.83463
G0 F7500 X111.664 Y112.795
G1 F1500 X115.828 Y116.959 E55.08142
G0 F7500 X115.262 Y116.959
G1 F1500 X111.282 Y112.979 E55.3173
G0 F7500 X110.862 Y113.125
G1 F1500 X114.696 Y116.959 E55.54453
G0 F7500 X114.131 Y116.959
G1 F1500 X110.393 Y113.221 E55.76606
G0 F7500 X109.849 Y113.243
G1 F1500 X113.565 Y116.959 E55.9863
G0 F7500 X112.999 Y116.959
G1 F1500 X109.176 Y113.136 E56.21287
G0 F7500 X109.289 Y112.712
G0 X108.356 Y112.272
G0 X108.106 Y112.631
G1 F1500 X112.434 Y116.959 E56.46938
G0 F7500 X111.868 Y116.959
G1 F1500 X97.948 Y103.039 E57.29437
G0 F7500 X97.382 Y103.039
G1 F1500 X111.302 Y116.959 E58.11936
G0 F7500 X110.737 Y116.959
G1 F1500 X96.817 Y103.039 E58.94435
G0 F7500 X96.549 Y103.337
G1 F1500 X110.171 Y116.959 E59.75168
G0 F7500 X109.605 Y116.959
G1 F1500 X96.549 Y103.903 E60.52546
G0 F7500 X96.549 Y104.469
G1 F1500 X109.04 Y116.959 E61.26573
G0 F7500 X108.474 Y116.959
G1 F1500 X96.549 Y105.035 E61.97246
G0 F7500 X96.549 Y105.6
G1 F1500 X107.908 Y116.959 E62.64566
G0 F7500 X107.343 Y116.959
G1 F1500 X96.549 Y106.166 E63.28536
G0 F7500 X96.549 Y106.732
G1 F1500 X106.777 Y116.959 E63.89151
G0 F7500 X106.211 Y116.959
G1 F1500 X96.549 Y107.297 E64.46414
G0 F7500 X96.549 Y107.863
G1 F1500 X105.645 Y116.959 E65.00323
G0 F7500 X105.08 Y116.959
G1 F1500 X96.549 Y108.429 E65.5088
G0 F7500 X96.549 Y108.994
G1 F1500 X104.514 Y116.959 E65.98086
G0 F7500 X103.948 Y116.959
G1 F1500 X96.549 Y109.56 E66.41937
G0 F7500 X96.549 Y110.126
G1 F1500 X103.383 Y116.959 E66.82437
G0 F7500 X102.817 Y116.959
G1 F1500 X96.549 Y110.691 E67.19585
G0 F7500 X96.549 Y111.257
G1 F1500 X102.251 Y116.959 E67.53379
G0 F7500 X101.686 Y116.959
G1 F1500 X96.549 Y111.823 E67.83821
G0 F7500 X96.549 Y112.388
G1 F1500 X101.12 Y116.959 E68.10912
G0 F7500 X100.554 Y116.959
G1 F1500 X96.549 Y112.954 E68.34648
G0 F7500 X96.549 Y113.52
G1 F1500 X99.989 Y116.959 E68.55033
G0 F7500 X99.423 Y116.959
G1 F1500 X96.549 Y114.086 E68.72063
G0 F7500 X96.549 Y114.651
G1 F1500 X98.857 Y116.959 E68.85742
G0 F7500 X98.292 Y116.959
G1 F1500 X96.549 Y115.217 E68.96069
G0 F7500 X96.549 Y115.783
G1 F1500 X97.726 Y116.959 E69.03042
G0 F7500 X97.16 Y116.959
G1 F1500 X96.549 Y116.348 E69.06663
G1 F900 E62.06663
G0 F7500 X96.11 Y116.348
G0 X96.21 Y111.638
G0 X94.335 Y111.638
G0 X109.031 Y110.358
G0 X107.283 Y110.996
G0 X107.724 Y111.638
G1 F900 E69.06663
G0 F7500 X107.364 Y111.89
G1 F1500 X98.514 Y103.039 E69.59117
G0 F7500 X99.079 Y103.039
G1 F1500 X106.864 Y110.824 E70.05256
G0 F7500 X106.755 Y110.149
G1 F1500 X99.645 Y103.039 E70.47394
G0 F7500 X100.211 Y103.039
G1 F1500 X106.778 Y109.606 E70.86315
G0 F7500 X106.874 Y109.136
G1 F1500 X100.776 Y103.039 E71.22453
G0 F7500 X101.342 Y103.039
G1 F1500 X107.02 Y108.717 E71.56104
G0 F7500 X107.206 Y108.337
G1 F1500 X101.908 Y103.039 E71.87504
G0 F7500 X102.473 Y103.039
G1 F1500 X107.438 Y108.004 E72.16929
G0 F7500 X107.705 Y107.705
G1 F1500 X103.039 Y103.039 E72.44583
G0 F7500 X103.605 Y103.039
G1 F1500 X108.004 Y107.438 E72.70654
G0 F7500 X108.335 Y107.203
G1 F1500 X104.17 Y103.039 E72.95336
G0 F7500 X104.736 Y103.039
G1 F1500 X108.716 Y107.019 E73.18924
