;FLAVOR:Marlin
;TIME:3441
;Filament used: 3.89024m
;Layer height: 0.28
;MINX:60.2
;MINY:90.338
;MINZ:0.28
;MAXX:159.8
;MAXY:129.655
;MAXZ:15.12
;Generated with Cura_SteamEngine 4.13.1
M140 S85
M105
M190 S85
M104 S245
M105
M109 S245
M82 ;absolute extrusion mode
; Ender 3 Custom Start G-code
G92 E0 ; Reset Extruder
G28 ; Home all axes
G1 Z2.0 F3000 ; Move Z Axis up little to prevent scratching of Heat Bed
G1 X0.1 Y20 Z0.3 F5000.0 ; Move to start position
G1 X0.1 Y200.0 Z0.3 F1500.0 E15 ; Draw the first line
G1 X0.4 Y200.0 Z0.3 F5000.0 ; Move to side a little
G1 X0.4 Y20 Z0.3 F1500.0 E30 ; Draw the second line
G92 E0 ; Reset Extruder
G1 Z2.0 F3000 ; Move Z Axis up little to prevent scratching of Heat Bed
G1 X5 Y20 Z0.3 F5000.0 ; Move over to prevent blob squish
G92 E0
G92 E0
G1 F900 E-7
;LAYER_COUNT:54
;LAYER:0
M107
G0 F7500 X68.824 Y98.279 Z0.28
;TYPE:SKIRT
G1 F900 E0
G1 F1500 X71.001 Y96.825 E0.10971
G1 X71.204 Y96.708 E0.11953
G1 X73.55 Y95.55 E0.22917
G1 X73.769 Y95.459 E0.23911
G1 X76.245 Y94.62 E0.34867
G1 X76.472 Y94.56 E0.35851
G1 X79.039 Y94.049 E0.4682
G1 X79.272 Y94.018 E0.47805
G1 X81.882 Y93.847 E0.58766
G1 X82 Y93.843 E0.59261
G1 X93.2 Y93.843 E1.06197
G1 X93.2 Y92.138 E1.13343
G1 X93.24 Y91.761 E1.14932
G1 X93.358 Y91.401 E1.16519
G1 X93.548 Y91.074 E1.18104
G1 X93.803 Y90.793 E1.19694
G1 X94.112 Y90.573 E1.21284
G1 X94.459 Y90.421 E1.22872
G1 X95 Y90.338 E1.25165
G1 X104 Y90.338 E1.62882
G1 X104.377 Y90.378 E1.64471
G1 X104.737 Y90.496 E1.66059
G1 X105.064 Y90.686 E1.67644
G1 X105.345 Y90.941 E1.69234
G1 X105.565 Y91.25 E1.70824
G1 X105.717 Y91.597 E1.72411
G1 X105.8 Y92.138 E1.74705
G1 X105.8 Y92.838 E1.77638
G1 X114.2 Y92.838 E2.12841
G1 X114.2 Y92.138 E2.15774
G1 X114.24 Y91.761 E2.17363
G1 X114.358 Y91.401 E2.18951
G1 X114.548 Y91.074 E2.20536
G1 X114.803 Y90.793 E2.22126
G1 X115.112 Y90.573 E2.23716
G1 X115.459 Y90.421 E2.25303
G1 X116 Y90.338 E2.27597
G1 X125 Y90.338 E2.65314
G1 X125.377 Y90.378 E2.66903
G1 X125.737 Y90.496 E2.6849
G1 X126.064 Y90.686 E2.70075
G1 X126.345 Y90.941 E2.71666
G1 X126.565 Y91.25 E2.73255
G1 X126.717 Y91.597 E2.74843
G1 X126.8 Y92.138 E2.77137
G1 X126.8 Y93.843 E2.84282
G1 X138 Y93.843 E3.31219
G1 X138.118 Y93.847 E3.31713
G1 X140.728 Y94.018 E3.42675
G1 X140.961 Y94.049 E3.4366
G1 X143.528 Y94.56 E3.54629
G1 X143.755 Y94.62 E3.55613
G1 X146.231 Y95.459 E3.66568
G1 X146.45 Y95.55 E3.67562
G1 X148.796 Y96.708 E3.78526
G1 X148.999 Y96.825 E3.79508
G1 X151.176 Y98.279 E3.90479
G1 X151.363 Y98.423 E3.91468
G1 X153.328 Y100.146 E4.02421
G1 X153.494 Y100.312 E4.03404
G1 X155.219 Y102.279 E4.14369
G1 X155.363 Y102.466 E4.15358
G1 X156.817 Y104.642 E4.26325
G1 X156.934 Y104.845 E4.27307
G1 X158.092 Y107.19 E4.38267
G1 X158.183 Y107.409 E4.39261
G1 X159.023 Y109.887 E4.50227
G1 X159.083 Y110.114 E4.5121
G1 X159.594 Y112.682 E4.62183
G1 X159.625 Y112.915 E4.63168
G1 X159.796 Y115.523 E4.74121
G1 X159.8 Y115.641 E4.74616
G1 X159.8 Y117.862 E4.83924
G1 X159.793 Y118.019 E4.84583
G1 X159.641 Y119.757 E4.91894
G1 X159.587 Y120.065 E4.93204
G1 X159.137 Y121.747 E5.00501
G1 X159.029 Y122.043 E5.01822
G1 X158.29 Y123.626 E5.09143
G1 X158.133 Y123.898 E5.10459
G1 X157.135 Y125.322 E5.17746
G1 X156.934 Y125.561 E5.19055
G1 X155.7 Y126.796 E5.26372
G1 X155.46 Y126.998 E5.27686
G1 X154.035 Y127.996 E5.34977
G1 X153.763 Y128.153 E5.36293
G1 X152.181 Y128.891 E5.43609
G1 X151.886 Y128.999 E5.44925
G1 X150.203 Y129.45 E5.52227
G1 X149.893 Y129.504 E5.53546
G1 X148.156 Y129.655 E5.60853
G1 X147.844 Y129.655 E5.6216
G1 X146.107 Y129.504 E5.69467
G1 X145.797 Y129.45 E5.70786
G1 X144.114 Y128.999 E5.78088
G1 X143.819 Y128.891 E5.79404
G1 X142.237 Y128.153 E5.8672
G1 X141.965 Y127.996 E5.88036
G1 X140.54 Y126.998 E5.95327
G1 X140.3 Y126.796 E5.96642
G1 X139.066 Y125.561 E6.03958
G1 X138.865 Y125.322 E6.05267
G1 X137.867 Y123.898 E6.12554
G1 X137.71 Y123.626 E6.1387
G1 X136.971 Y122.043 E6.21192
G1 X136.863 Y121.747 E6.22512
G1 X136.413 Y120.065 E6.29809
G1 X136.359 Y119.757 E6.31119
G1 X136.207 Y118.021 E6.38422
G1 X136.2 Y117.864 E6.39081
G1 X136.2 Y115.718 E6.48074
G1 X136.069 Y114.22 E6.54376
G1 X135.699 Y112.839 E6.60368
G1 X135.094 Y111.543 E6.66362
G1 X134.276 Y110.376 E6.72334
G1 X133.267 Y109.366 E6.78317
G1 X132.098 Y108.547 E6.84299
G1 X130.805 Y107.944 E6.90278
G1 X129.42 Y107.573 E6.96286
G1 X127.924 Y107.443 E7.0258
G1 X126.8 Y107.443 E7.0729
G1 X126.8 Y109.148 E7.14435
G1 X126.76 Y109.525 E7.16024
G1 X126.642 Y109.885 E7.17612
G1 X126.452 Y110.212 E7.19197
G1 X126.197 Y110.493 E7.20787
G1 X125.888 Y110.713 E7.22376
G1 X125.541 Y110.865 E7.23964
G1 X125 Y110.948 E7.26258
G1 X116 Y110.948 E7.63975
G1 X115.623 Y110.908 E7.65564
G1 X115.263 Y110.79 E7.67151
G1 X114.936 Y110.6 E7.68736
G1 X114.655 Y110.345 E7.70326
G1 X114.435 Y110.036 E7.71916
G1 X114.283 Y109.689 E7.73504
G1 X114.2 Y109.148 E7.75797
G1 X114.2 Y108.448 E7.78731
G1 X105.8 Y108.448 E8.13933
G1 X105.8 Y109.148 E8.16867
G1 X105.76 Y109.525 E8.18456
G1 X105.642 Y109.885 E8.20043
G1 X105.452 Y110.212 E8.21628
G1 X105.197 Y110.493 E8.23219
G1 X104.888 Y110.713 E8.24808
G1 X104.541 Y110.865 E8.26396
G1 X104 Y110.948 E8.28689
G1 X95 Y110.948 E8.66406
G1 X94.623 Y110.908 E8.67995
G1 X94.263 Y110.79 E8.69583
G1 X93.936 Y110.6 E8.71168
G1 X93.655 Y110.345 E8.72758
G1 X93.435 Y110.036 E8.74348
G1 X93.283 Y109.689 E8.75935
G1 X93.2 Y109.148 E8.78229
G1 X93.2 Y107.443 E8.85374
G1 X92.076 Y107.443 E8.90085
G1 X90.58 Y107.573 E8.96378
G1 X89.195 Y107.944 E9.02387
G1 X87.902 Y108.547 E9.08366
G1 X86.733 Y109.366 E9.14347
G1 X85.724 Y110.376 E9.2033
G1 X84.905 Y111.545 E9.26312
G1 X84.3 Y112.839 E9.32298
G1 X83.931 Y114.22 E9.38289
G1 X83.8 Y115.72 E9.44599
G1 X83.8 Y117.862 E9.53575
G1 X83.793 Y118.019 E9.54234
G1 X83.641 Y119.757 E9.61545
G1 X83.587 Y120.065 E9.62856
G1 X83.137 Y121.747 E9.70153
G1 X83.029 Y122.043 E9.71473
G1 X82.29 Y123.626 E9.78794
G1 X82.133 Y123.898 E9.80111
G1 X81.135 Y125.322 E9.87398
G1 X80.934 Y125.561 E9.88707
G1 X79.7 Y126.796 E9.96023
G1 X79.46 Y126.998 E9.97338
G1 X78.035 Y127.996 E10.04628
G1 X77.763 Y128.153 E10.05945
G1 X76.181 Y128.891 E10.1326
G1 X75.886 Y128.999 E10.14577
G1 X74.203 Y129.45 E10.21879
G1 X73.893 Y129.504 E10.23198
G1 X72.156 Y129.655 E10.30504
G1 X71.844 Y129.655 E10.31812
G1 X70.107 Y129.504 E10.39119
G1 X69.797 Y129.45 E10.40437
G1 X68.114 Y128.999 E10.47739
G1 X67.819 Y128.891 E10.49056
G1 X66.237 Y128.153 E10.56372
G1 X65.965 Y127.996 E10.57688
G1 X64.54 Y126.998 E10.64979
G1 X64.3 Y126.796 E10.66293
G1 X63.066 Y125.561 E10.7361
G1 X62.865 Y125.322 E10.74918
G1 X61.867 Y123.898 E10.82206
G1 X61.71 Y123.626 E10.83522
G1 X60.971 Y122.043 E10.90843
G1 X60.863 Y121.747 E10.92164
G1 X60.413 Y120.065 E10.9946
G1 X60.359 Y119.757 E11.00771
G1 X60.207 Y118.021 E11.08074
G1 X60.2 Y117.864 E11.08732
G1 X60.2 Y115.642 E11.18044
G1 X60.204 Y115.524 E11.18539
G1 X60.375 Y112.915 E11.29496
G1 X60.406 Y112.682 E11.30481
G1 X60.917 Y110.114 E11.41454
G1 X60.977 Y109.887 E11.42438
G1 X61.816 Y107.412 E11.5339
G1 X61.907 Y107.193 E11.54384
G1 X63.065 Y104.847 E11.65348
G1 X63.182 Y104.644 E11.6633
G1 X64.637 Y102.466 E11.77307
G1 X64.781 Y102.279 E11.78296
G1 X66.504 Y100.314 E11.89248
G1 X66.67 Y100.148 E11.90232
G1 X68.637 Y98.423 E12.01196
G1 X68.824 Y98.279 E12.02185
G0 F7500 X69.046 Y98.612
G1 F1500 X71.223 Y97.158 E12.13156
G1 X71.381 Y97.067 E12.1392
G1 X73.727 Y95.909 E12.24885
G1 X73.898 Y95.838 E12.2566
G1 X76.374 Y94.999 E12.36616
G1 X76.55 Y94.952 E12.3738
G1 X79.117 Y94.441 E12.48349
G1 X79.298 Y94.417 E12.49114
G1 X81.908 Y94.246 E12.60075
G1 X82 Y94.243 E12.60461
G1 X93.6 Y94.243 E13.09074
G1 X93.6 Y92.138 E13.17895
G1 X93.64 Y91.806 E13.19297
G1 X93.757 Y91.494 E13.20693
G1 X93.945 Y91.217 E13.22096
G1 X94.193 Y90.994 E13.23494
G1 X94.487 Y90.835 E13.24895
G1 X94.811 Y90.751 E13.26297
G1 X95 Y90.738 E13.27091
G1 X104 Y90.738 E13.64808
G1 X104.332 Y90.778 E13.6621
G1 X104.644 Y90.895 E13.67606
G1 X104.921 Y91.083 E13.69009
G1 X105.144 Y91.331 E13.70407
G1 X105.303 Y91.625 E13.71808
G1 X105.387 Y91.949 E13.7321
G1 X105.4 Y92.138 E13.74004
G1 X105.4 Y93.238 E13.78614
G1 X114.6 Y93.238 E14.17169
G1 X114.6 Y92.138 E14.21779
G1 X114.64 Y91.806 E14.2318
G1 X114.757 Y91.494 E14.24577
G1 X114.945 Y91.217 E14.2598
G1 X115.193 Y90.994 E14.27378
G1 X115.487 Y90.835 E14.28778
G1 X115.811 Y90.751 E14.30181
G1 X116 Y90.738 E14.30975
G1 X125 Y90.738 E14.68692
G1 X125.332 Y90.778 E14.70093
G1 X125.644 Y90.895 E14.7149
G1 X125.921 Y91.083 E14.72893
G1 X126.144 Y91.331 E14.7429
G1 X126.303 Y91.625 E14.75691
G1 X126.387 Y91.949 E14.77094
G1 X126.4 Y92.138 E14.77888
G1 X126.4 Y94.243 E14.86709
G1 X138 Y94.243 E15.35322
G1 X138.092 Y94.246 E15.35708
G1 X140.702 Y94.417 E15.46669
G1 X140.883 Y94.441 E15.47435
G1 X143.45 Y94.952 E15.58403
G1 X143.626 Y94.999 E15.59167
G1 X146.102 Y95.838 E15.70123
G1 X146.273 Y95.909 E15.70899
G1 X148.619 Y97.067 E15.81863
G1 X148.777 Y97.158 E15.82627
G1 X150.954 Y98.612 E15.93598
G1 X151.099 Y98.723 E15.94363
G1 X153.064 Y100.446 E16.05315
G1 X153.194 Y100.576 E16.06086
G1 X154.919 Y102.543 E16.1705
G1 X155.03 Y102.688 E16.17815
G1 X156.484 Y104.864 E16.28783
G1 X156.575 Y105.022 E16.29547
G1 X157.733 Y107.367 E16.40507
G1 X157.804 Y107.538 E16.41283
G1 X158.644 Y110.016 E16.52248
G1 X158.691 Y110.192 E16.53012
G1 X159.202 Y112.76 E16.63985
G1 X159.226 Y112.941 E16.6475
G1 X159.397 Y115.549 E16.75703
G1 X159.4 Y115.641 E16.76089
G1 X159.4 Y117.862 E16.85396
G1 X159.395 Y117.984 E16.85908
G1 X159.243 Y119.722 E16.93219
G1 X159.2 Y119.962 E16.94241
G1 X158.75 Y121.644 E17.01538
G1 X158.667 Y121.874 E17.02563
G1 X157.928 Y123.457 E17.09884
G1 X157.805 Y123.668 E17.10908
G1 X156.807 Y125.092 E17.18195
G1 X156.651 Y125.279 E17.19215
G1 X155.417 Y126.514 E17.26532
G1 X155.23 Y126.671 E17.27555
G1 X153.805 Y127.669 E17.34846
G1 X153.594 Y127.791 E17.35867
G1 X152.012 Y128.529 E17.43183
G1 X151.782 Y128.612 E17.44208
G1 X150.099 Y129.063 E17.5151
G1 X149.858 Y129.106 E17.52536
G1 X148.121 Y129.257 E17.59843
G1 X147.879 Y129.257 E17.60857
G1 X146.142 Y129.106 E17.68164
G1 X145.901 Y129.063 E17.69189
G1 X144.218 Y128.612 E17.76491
G1 X143.988 Y128.529 E17.77516
G1 X142.406 Y127.791 E17.84832
G1 X142.195 Y127.669 E17.85853
G1 X140.77 Y126.671 E17.93144
G1 X140.583 Y126.514 E17.94167
G1 X139.349 Y125.279 E18.01484
G1 X139.193 Y125.092 E18.02504
G1 X138.195 Y123.668 E18.09792
G1 X138.072 Y123.457 E18.10815
G1 X137.333 Y121.874 E18.18136
G1 X137.25 Y121.644 E18.19161
G1 X136.8 Y119.962 E18.26458
G1 X136.757 Y119.722 E18.2748
G1 X136.605 Y117.986 E18.34783
G1 X136.6 Y117.864 E18.35295
G1 X136.6 Y115.706 E18.44338
G1 X136.463 Y114.145 E18.50905
G1 X136.076 Y112.699 E18.57178
G1 X135.443 Y111.343 E18.6345
G1 X134.587 Y110.122 E18.69699
G1 X133.524 Y109.058 E18.76002
G1 X132.3 Y108.201 E18.82264
G1 X130.936 Y107.564 E18.88572
G1 X129.497 Y107.179 E18.94815
G1 X127.936 Y107.043 E19.01382
G1 X126.4 Y107.043 E19.07819
G1 X126.4 Y109.148 E19.1664
G1 X126.36 Y109.48 E19.18042
G1 X126.243 Y109.792 E19.19438
G1 X126.055 Y110.069 E19.20841
G1 X125.807 Y110.292 E19.22239
G1 X125.513 Y110.451 E19.2364
G1 X125.189 Y110.535 E19.25042
G1 X125 Y110.548 E19.25836
G1 X116 Y110.548 E19.63553
G1 X115.668 Y110.508 E19.64955
G1 X115.356 Y110.391 E19.66351
G1 X115.079 Y110.203 E19.67754
G1 X114.856 Y109.955 E19.69152
G1 X114.697 Y109.661 E19.70552
G1 X114.613 Y109.337 E19.71955
G1 X114.6 Y109.148 E19.72749
G1 X114.6 Y108.048 E19.77359
G1 X105.4 Y108.048 E20.15914
G1 X105.4 Y109.148 E20.20524
G1 X105.36 Y109.48 E20.21925
G1 X105.243 Y109.792 E20.23322
G1 X105.055 Y110.069 E20.24725
G1 X104.807 Y110.292 E20.26122
G1 X104.513 Y110.451 E20.27523
G1 X104.189 Y110.535 E20.28926
G1 X104 Y110.548 E20.2972
G1 X95 Y110.548 E20.67437
G1 X94.668 Y110.508 E20.68838
G1 X94.356 Y110.391 E20.70235
G1 X94.079 Y110.203 E20.71638
G1 X93.856 Y109.955 E20.73035
G1 X93.697 Y109.661 E20.74436
G1 X93.613 Y109.337 E20.75839
G1 X93.6 Y109.148 E20.76633
G1 X93.6 Y107.043 E20.85454
G1 X92.064 Y107.043 E20.91891
G1 X90.503 Y107.179 E20.98458
G1 X89.064 Y107.564 E21.047
G1 X87.7 Y108.201 E21.11009
G1 X86.476 Y109.058 E21.17271
G1 X85.413 Y110.122 E21.23574
G1 X84.56 Y111.338 E21.29799
G1 X83.921 Y112.707 E21.3613
G1 X83.537 Y114.145 E21.42368
G1 X83.4 Y115.708 E21.48943
G1 X83.4 Y117.862 E21.5797
G1 X83.395 Y117.984 E21.58482
G1 X83.243 Y119.722 E21.65793
G1 X83.2 Y119.962 E21.66815
G1 X82.75 Y121.644 E21.74112
G1 X82.667 Y121.874 E21.75136
G1 X81.928 Y123.457 E21.82458
G1 X81.805 Y123.668 E21.83481
G1 X80.807 Y125.092 E21.90769
G1 X80.651 Y125.279 E21.91789
G1 X79.417 Y126.514 E21.99106
G1 X79.23 Y126.671 E22.00129
G1 X77.805 Y127.669 E22.0742
G1 X77.594 Y127.791 E22.08441
G1 X76.012 Y128.529 E22.15757
G1 X75.782 Y128.612 E22.16781
G1 X74.099 Y129.063 E22.24083
G1 X73.858 Y129.106 E22.25109
G1 X72.121 Y129.257 E22.32416
G1 X71.879 Y129.257 E22.3343
G1 X70.142 Y129.106 E22.40737
G1 X69.901 Y129.063 E22.41763
G1 X68.218 Y128.612 E22.49065
G1 X67.988 Y128.529 E22.5009
G1 X66.406 Y127.791 E22.57405
G1 X66.195 Y127.669 E22.58427
G1 X64.77 Y126.671 E22.65718
G1 X64.583 Y126.514 E22.66741
G1 X63.349 Y125.279 E22.74057
G1 X63.193 Y125.092 E22.75078
G1 X62.195 Y123.668 E22.82365
G1 X62.072 Y123.457 E22.83389
G1 X61.333 Y121.874 E22.9071
G1 X61.25 Y121.644 E22.91735
G1 X60.8 Y119.962 E22.99032
G1 X60.757 Y119.722 E23.00053
G1 X60.605 Y117.986 E23.07356
G1 X60.6 Y117.864 E23.07868
G1 X60.6 Y115.642 E23.1718
G1 X60.603 Y115.55 E23.17566
G1 X60.774 Y112.941 E23.28523
G1 X60.798 Y112.76 E23.29288
G1 X61.309 Y110.192 E23.40261
G1 X61.356 Y110.016 E23.41024
G1 X62.195 Y107.541 E23.51976
G1 X62.266 Y107.37 E23.52752
G1 X63.424 Y105.024 E23.63716
G1 X63.515 Y104.866 E23.64481
G1 X64.97 Y102.688 E23.75457
G1 X65.081 Y102.543 E23.76223
G1 X66.804 Y100.578 E23.87175
G1 X66.934 Y100.448 E23.87945
G1 X68.901 Y98.723 E23.98909
G1 X69.046 Y98.612 E23.99675
G0 F7500 X69.269 Y98.944
G1 F1500 X71.446 Y97.49 E24.10646
G1 X71.558 Y97.425 E24.11189
G1 X73.904 Y96.267 E24.22153
G1 X74.026 Y96.217 E24.22705
G1 X76.502 Y95.378 E24.33661
G1 X76.628 Y95.344 E24.34208
G1 X79.195 Y94.833 E24.45177
G1 X79.325 Y94.816 E24.45726
G1 X81.935 Y94.645 E24.56688
G1 X82 Y94.643 E24.5696
G1 X94 Y94.643 E25.07249
G1 X94 Y92.138 E25.17747
G1 X94.04 Y91.859 E25.18928
G1 X94.156 Y91.602 E25.2011
G1 X94.339 Y91.387 E25.21293
G1 X94.575 Y91.233 E25.22474
G1 X94.845 Y91.15 E25.23658
G1 X95 Y91.138 E25.2431
G1 X104 Y91.138 E25.62027
G1 X104.279 Y91.178 E25.63208
G1 X104.536 Y91.294 E25.64389
G1 X104.751 Y91.477 E25.65573
G1 X104.905 Y91.713 E25.66754
G1 X104.988 Y91.983 E25.67937
G1 X105 Y92.138 E25.68589
G1 X105 Y93.638 E25.74875
G1 X115 Y93.638 E26.16783
G1 X115 Y92.138 E26.23069
G1 X115.04 Y91.859 E26.2425
G1 X115.156 Y91.602 E26.25432
G1 X115.339 Y91.387 E26.26615
G1 X115.575 Y91.233 E26.27796
G1 X115.845 Y91.15 E26.2898
G1 X116 Y91.138 E26.29631
G1 X125 Y91.138 E26.67348
G1 X125.279 Y91.178 E26.68529
G1 X125.536 Y91.294 E26.69711
G1 X125.751 Y91.477 E26.70894
G1 X125.905 Y91.713 E26.72075
G1 X125.988 Y91.983 E26.73259
G1 X126 Y92.138 E26.73911
G1 X126 Y94.643 E26.84408
G1 X138 Y94.643 E27.34698
G1 X138.065 Y94.645 E27.3497
G1 X140.675 Y94.816 E27.45932
G1 X140.805 Y94.833 E27.46481
G1 X143.372 Y95.344 E27.5745
G1 X143.498 Y95.378 E27.57997
G1 X145.974 Y96.217 E27.68953
G1 X146.096 Y96.267 E27.69505
G1 X148.442 Y97.425 E27.80469
G1 X148.554 Y97.49 E27.81012
G1 X150.731 Y98.944 E27.91983
G1 X150.835 Y99.024 E27.92533
G1 X152.8 Y100.747 E28.03485
G1 X152.893 Y100.84 E28.04036
G1 X154.618 Y102.807 E28.15001
G1 X154.697 Y102.91 E28.15544
G1 X156.151 Y105.086 E28.26512
G1 X156.217 Y105.199 E28.2706
G1 X157.375 Y107.544 E28.38021
G1 X157.425 Y107.666 E28.38573
G1 X158.265 Y110.144 E28.49539
G1 X158.299 Y110.27 E28.50085
G1 X158.81 Y112.838 E28.61058
G1 X158.827 Y112.968 E28.61608
G1 X158.998 Y115.576 E28.72561
G1 X159 Y115.641 E28.72833
G1 X159 Y117.862 E28.82141
G1 X158.996 Y117.949 E28.82506
G1 X158.844 Y119.687 E28.89817
G1 X158.814 Y119.858 E28.90545
G1 X158.364 Y121.54 E28.97842
G1 X158.304 Y121.705 E28.98578
G1 X157.565 Y123.288 E29.05899
