;FLAVOR:Marlin
;TIME:7670
;Filament used: 19.9065m
;Layer height: 0.45
;MINX:9.341
;MINY:4.335
;MINZ:0.25
;MAXX:215.659
;MAXY:215.665
;MAXZ:2.5
;Generated with Cura_SteamEngine 4.13.1
M140 S85
M105
M190 S85
M104 S240
M105
M109 S240
M82 ;absolute extrusion mode
; Ender 3 Custom Start G-code
G92 E0 ; Reset Extruder
G28 ; Home all axes
G1 Z2.0 F3000 ; Move Z Axis up little to prevent scratching of Heat Bed
G1 X0.1 Y20 Z0.3 F5000.0 ; Move to start position
G1 X0.1 Y200.0 Z0.3 F1500.0 E15 ; Draw the first line
G1 X0.4 Y200.0 Z0.3 F5000.0 ; Move to side a little
G1 X0.4 Y20 Z0.3 F1500.0 E30 ; Draw the second line
G92 E0 ; Reset Extruder
G1 Z2.0 F3000 ; Move Z Axis up little to prevent scratching of Heat Bed
G1 X5 Y20 Z0.3 F5000.0 ; Move over to prevent blob squish
G92 E0
G92 E0
G1 F2400 E-7
;LAYER_COUNT:6
;LAYER:0
M107
;MESH:fake_ptfe_bearing_2.STL(7)
G0 F7500 X108.604 Y6.375 Z0.25
;TYPE:WALL-INNER
G1 F2400 E-0.08315
G1 F1500 X108.596 Y6.706 E-0.06517
G1 X108.559 Y7.538 E-0.01994
G1 X108.508 Y8.381 E0.02592
G1 X108.442 Y9.226 E0.07195
G1 X108.36 Y10.075 E0.11828
G1 X108.264 Y10.913 E0.16408
G1 X108.153 Y11.756 E0.21026
G1 X108.025 Y12.615 E0.25742
G1 X107.888 Y13.432 E0.30241
G1 X107.732 Y14.273 E0.34887
G1 X107.564 Y15.101 E0.39475
G1 X107.381 Y15.932 E0.44096
G1 X107.18 Y16.77 E0.48776
G1 X106.971 Y17.574 E0.53287
G1 X106.739 Y18.41 E0.57999
G1 X106.501 Y19.211 E0.62537
G1 X106.248 Y20.016 E0.6712
G1 X105.976 Y20.829 E0.71775
G1 X105.697 Y21.619 E0.76325
G1 X105.399 Y22.415 E0.80941
G1 X105.089 Y23.205 E0.8555
G1 X104.765 Y23.989 E0.90157
G1 X104.427 Y24.766 E0.94759
G1 X104.073 Y25.539 E0.99376
G1 X103.701 Y26.322 E1.04084
G1 X103.33 Y27.065 E1.08594
G1 X102.937 Y27.819 E1.13212
G1 X102.523 Y28.585 E1.1794
G1 X102.116 Y29.302 E1.22418
G1 X101.683 Y30.038 E1.27055
G1 X101.242 Y30.758 E1.3164
G1 X100.788 Y31.472 E1.36235
G1 X100.313 Y32.189 E1.40906
G1 X99.838 Y32.881 E1.45464
G1 X99.344 Y33.575 E1.50091
G1 X98.842 Y34.254 E1.54677
G1 X98.326 Y34.926 E1.59278
G1 X97.797 Y35.591 E1.63893
G1 X97.257 Y36.246 E1.68503
G1 X96.705 Y36.893 E1.73121
G1 X96.142 Y37.529 E1.77734
G1 X95.557 Y38.17 E1.82447
G1 X94.987 Y38.768 E1.86934
G1 X94.39 Y39.375 E1.91557
G1 X93.775 Y39.98 E1.96243
G1 X93.17 Y40.554 E2.00772
G1 X92.536 Y41.137 E2.05449
G1 X91.91 Y41.69 E2.09985
G1 X91.264 Y42.242 E2.146
G1 X90.609 Y42.782 E2.1921
G1 X89.946 Y43.311 E2.23816
G1 X89.275 Y43.826 E2.2841
G1 X88.583 Y44.336 E2.33078
G1 X87.893 Y44.83 E2.37687
G1 X87.189 Y45.312 E2.4232
G1 X86.485 Y45.78 E2.46911
G1 X85.774 Y46.232 E2.51487
G1 X85.052 Y46.673 E2.56081
G1 X84.302 Y47.116 E2.60812
G1 X83.575 Y47.527 E2.65347
G1 X82.839 Y47.927 E2.69897
G1 X82.085 Y48.32 E2.74514
G1 X81.314 Y48.705 E2.79194
G1 X80.553 Y49.068 E2.83773
G1 X79.78 Y49.421 E2.88388
G1 X79.012 Y49.755 E2.92936
G1 X78.225 Y50.079 E2.97558
G1 X77.418 Y50.397 E3.02269
G1 X76.639 Y50.689 E3.06787
G1 X75.841 Y50.971 E3.11383
G1 X75.014 Y51.249 E3.16122
G1 X74.212 Y51.502 E3.20689
G1 X73.41 Y51.739 E3.2523
G1 X72.578 Y51.97 E3.2992
G1 X71.771 Y52.179 E3.34447
G1 X70.932 Y52.38 E3.39132
G1 X70.121 Y52.56 E3.43644
G1 X69.29 Y52.729 E3.48249
G1 X68.437 Y52.887 E3.5296
G1 X67.619 Y53.024 E3.57465
G1 X66.761 Y53.152 E3.62176
G1 X65.923 Y53.263 E3.66766
G1 X65.085 Y53.359 E3.71347
G1 X64.246 Y53.44 E3.75925
G1 X63.401 Y53.506 E3.80528
G1 X62.539 Y53.558 E3.85218
G1 X61.705 Y53.595 E3.89751
G1 X60.838 Y53.617 E3.94461
G1 X60 Y53.625 E3.99012
G1 X59.161 Y53.617 E4.03569
G1 X58.294 Y53.596 E4.08279
G1 X57.463 Y53.559 E4.12796
G1 X56.601 Y53.506 E4.17486
G1 X55.754 Y53.44 E4.221
G1 X54.914 Y53.359 E4.26683
G1 X54.089 Y53.264 E4.31193
G1 X53.239 Y53.152 E4.35849
G1 X52.381 Y53.024 E4.4056
G1 X51.563 Y52.887 E4.45065
G1 X50.71 Y52.729 E4.49776
G1 X49.879 Y52.56 E4.54381
G1 X49.068 Y52.38 E4.58893
G1 X48.229 Y52.179 E4.63578
G1 X47.422 Y51.97 E4.68105
G1 X46.59 Y51.739 E4.72795
G1 X45.789 Y51.501 E4.77333
G1 X44.986 Y51.248 E4.81905
G1 X44.159 Y50.971 E4.86641
G1 X43.361 Y50.689 E4.91238
G1 X42.573 Y50.394 E4.95807
G1 X41.774 Y50.08 E5.00469
G1 X40.988 Y49.755 E5.05088
G1 X40.211 Y49.417 E5.0969
G1 X39.455 Y49.071 E5.14205
G1 X38.676 Y48.7 E5.18891
G1 X37.915 Y48.32 E5.23511
G1 X37.171 Y47.932 E5.28068
G1 X36.415 Y47.523 E5.32736
G1 X35.691 Y47.112 E5.37257
G1 X34.946 Y46.673 E5.41953
G1 X34.226 Y46.232 E5.46538
G1 X33.515 Y45.779 E5.51117
G1 X32.802 Y45.308 E5.55757
G1 X32.108 Y44.83 E5.60334
G1 X31.409 Y44.332 E5.64995
G1 X30.726 Y43.827 E5.69608
G1 X30.054 Y43.311 E5.74209
G1 X29.433 Y42.815 E5.78525
G1 X28.736 Y42.242 E5.83425
G1 X28.09 Y41.69 E5.8804
G1 X27.457 Y41.13 E5.9263
G1 X26.827 Y40.554 E5.97266
G1 X26.232 Y39.987 E6.01729
G1 X25.61 Y39.375 E6.06468
G1 X25.013 Y38.768 E6.11092
G1 X24.44 Y38.164 E6.15613
G1 X23.856 Y37.528 E6.20302
G1 X23.295 Y36.893 E6.24904
G1 X22.743 Y36.246 E6.29522
G1 X22.203 Y35.591 E6.34133
G1 X21.681 Y34.934 E6.3869
G1 X21.166 Y34.262 E6.43288
G1 X20.658 Y33.575 E6.47928
G1 X20.167 Y32.889 E6.52509
G1 X19.682 Y32.182 E6.57165
G1 X19.211 Y31.472 E6.61792
G1 X18.758 Y30.758 E6.66385
G1 X18.327 Y30.052 E6.70877
G1 X17.883 Y29.3 E6.75619
G1 X17.468 Y28.568 E6.80189
G1 X17.071 Y27.835 E6.84716
G1 X16.67 Y27.065 E6.89431
G1 X16.295 Y26.314 E6.9399
G1 X15.925 Y25.539 E6.98654
G1 X15.573 Y24.767 E7.03261
G1 X15.235 Y23.989 E7.07868
G1 X14.911 Y23.205 E7.12475
G1 X14.601 Y22.415 E7.17084
G1 X14.303 Y21.619 E7.217
G1 X14.024 Y20.829 E7.2625
G1 X13.752 Y20.016 E7.30905
G1 X13.497 Y19.21 E7.35496
G1 X13.261 Y18.41 E7.40026
G1 X13.029 Y17.574 E7.44738
G1 X12.821 Y16.771 E7.49243
G1 X12.62 Y15.933 E7.53923
G1 X12.435 Y15.099 E7.58562
G1 X12.266 Y14.267 E7.63173
G1 X12.112 Y13.432 E7.67784
G1 X11.975 Y12.615 E7.72283
G1 X11.847 Y11.756 E7.76999
G1 X11.737 Y10.923 E7.81562
G1 X11.64 Y10.076 E7.86192
G1 X11.558 Y9.226 E7.9083
G1 X11.492 Y8.381 E7.95433
G1 X11.442 Y7.539 E8.00014
G1 X11.405 Y6.705 E8.04547
G1 X11.397 Y6.375 E8.0634
G1 X23.65 Y6.375 E8.72883
G1 X23.677 Y6.936 E8.75933
G1 X23.715 Y7.568 E8.79372
G1 X23.766 Y8.202 E8.82826
G1 X23.828 Y8.833 E8.86269
G1 X23.9 Y9.463 E8.89713
G1 X23.983 Y10.093 E8.93164
G1 X24.078 Y10.72 E8.96608
G1 X24.182 Y11.348 E9.00065
G1 X24.299 Y11.972 E9.03513
G1 X24.426 Y12.594 E9.0696
G1 X24.564 Y13.212 E9.10399
G1 X24.712 Y13.831 E9.13855
G1 X24.873 Y14.445 E9.17303
G1 X25.042 Y15.056 E9.20745
G1 X25.223 Y15.665 E9.24196
G1 X25.415 Y16.272 E9.27653
G1 X25.617 Y16.874 E9.31102
G1 X25.829 Y17.471 E9.34542
G1 X26.053 Y18.065 E9.3799
G1 X26.285 Y18.654 E9.41428
G1 X26.529 Y19.242 E9.44885
G1 X26.783 Y19.824 E9.48334
G1 X27.047 Y20.401 E9.5178
G1 X27.32 Y20.974 E9.55226
G1 X27.604 Y21.542 E9.58675
G1 X27.898 Y22.105 E9.62125
G1 X28.201 Y22.661 E9.65563
G1 X28.514 Y23.214 E9.69014
G1 X28.837 Y23.761 E9.72464
G1 X29.169 Y24.305 E9.75925
G1 X29.512 Y24.837 E9.79363
G1 X29.861 Y25.365 E9.828
G1 X30.222 Y25.89 E9.8626
G1 X30.59 Y26.406 E9.89702
G1 X30.969 Y26.917 E9.93157
G1 X31.357 Y27.42 E9.96607
G1 X31.75 Y27.914 E10.00035
G1 X32.155 Y28.406 E10.03496
G1 X32.568 Y28.888 E10.06943
G1 X32.99 Y29.364 E10.10398
G1 X33.419 Y29.83 E10.13838
G1 X33.856 Y30.29 E10.17283
G1 X34.303 Y30.743 E10.2074
G1 X34.755 Y31.188 E10.24184
G1 X35.215 Y31.624 E10.27626
G1 X35.683 Y32.052 E10.3107
G1 X36.159 Y32.473 E10.34521
G1 X36.643 Y32.886 E10.37977
G1 X37.135 Y33.289 E10.41431
G1 X37.63 Y33.682 E10.44863
G1 X38.133 Y34.07 E10.48313
G1 X38.647 Y34.447 E10.51775
G1 X39.162 Y34.814 E10.55209
G1 X39.686 Y35.173 E10.58659
G1 X40.216 Y35.522 E10.62105
G1 X40.751 Y35.864 E10.65553
G1 X41.293 Y36.196 E10.69005
G1 X41.84 Y36.518 E10.72452
G1 X42.394 Y36.829 E10.75903
G1 X42.95 Y37.132 E10.79341
G1 X43.514 Y37.423 E10.82788
G1 X44.082 Y37.707 E10.86237
G1 X44.656 Y37.98 E10.89689
G1 X45.234 Y38.243 E10.93137
G1 X45.817 Y38.496 E10.96589
G1 X46.402 Y38.737 E11.00025
G1 X46.993 Y38.97 E11.03475
G1 X47.589 Y39.192 E11.06929
G1 X48.187 Y39.402 E11.10371
G1 X48.788 Y39.604 E11.13814
G1 X49.396 Y39.794 E11.17273
G1 X50.005 Y39.974 E11.20722
G1 X50.615 Y40.142 E11.24158
G1 X51.23 Y40.302 E11.27609
G1 X51.849 Y40.449 E11.31064
G1 X52.468 Y40.586 E11.34507
G1 X53.09 Y40.712 E11.37954
G1 X53.714 Y40.828 E11.41401
G1 X54.342 Y40.931 E11.44857
G1 X54.969 Y41.025 E11.483
G1 X55.598 Y41.107 E11.51745
G1 X56.229 Y41.179 E11.55194
G1 X56.862 Y41.239 E11.58647
G1 X57.494 Y41.289 E11.6209
G1 X58.126 Y41.326 E11.65528
G1 X58.762 Y41.355 E11.68986
G1 X59.396 Y41.37 E11.7243
G1 X60.03 Y41.375 E11.75873
G1 X60.666 Y41.369 E11.79327
G1 X61.301 Y41.353 E11.82777
G1 X61.936 Y41.323 E11.86229
G1 X62.568 Y41.285 E11.89667
G1 X63.202 Y41.234 E11.93122
G1 X63.833 Y41.172 E11.96565
G1 X64.463 Y41.1 E12.00009
G1 X65.093 Y41.017 E12.0346
G1 X65.72 Y40.922 E12.06904
G1 X66.348 Y40.818 E12.1036
G1 X66.972 Y40.701 E12.13808
G1 X67.594 Y40.574 E12.17256
G1 X68.212 Y40.436 E12.20695
G1 X68.831 Y40.288 E12.24151
G1 X69.445 Y40.127 E12.27598
G1 X70.056 Y39.958 E12.31041
G1 X70.665 Y39.777 E12.34492
G1 X71.272 Y39.585 E12.37949
G1 X71.874 Y39.383 E12.41397
G1 X72.471 Y39.171 E12.44838
G1 X73.065 Y38.947 E12.48286
G1 X73.654 Y38.715 E12.51723
G1 X74.242 Y38.471 E12.55181
G1 X74.824 Y38.217 E12.58629
G1 X75.401 Y37.953 E12.62075
G1 X75.974 Y37.68 E12.65522
G1 X76.542 Y37.396 E12.68971
G1 X77.106 Y37.102 E12.72425
G1 X77.662 Y36.799 E12.75864
G1 X78.214 Y36.486 E12.7931
G1 X78.761 Y36.163 E12.8276
G1 X79.305 Y35.831 E12.86221
G1 X79.837 Y35.488 E12.89659
G1 X80.365 Y35.139 E12.93096
G1 X80.89 Y34.778 E12.96556
G1 X81.406 Y34.41 E12.99998
G1 X81.917 Y34.031 E13.03453
G1 X82.42 Y33.643 E13.06903
G1 X82.914 Y33.25 E13.10331
G1 X83.406 Y32.845 E13.13792
G1 X83.888 Y32.432 E13.17239
G1 X84.364 Y32.01 E13.20694
G1 X84.83 Y31.581 E13.24134
G1 X85.29 Y31.144 E13.27579
G1 X85.743 Y30.697 E13.31035
G1 X86.188 Y30.245 E13.3448
G1 X86.624 Y29.785 E13.37922
G1 X87.052 Y29.317 E13.41366
G1 X87.473 Y28.841 E13.44817
G1 X87.886 Y28.357 E13.48273
G1 X88.289 Y27.865 E13.51727
G1 X88.682 Y27.37 E13.55159
G1 X89.07 Y26.867 E13.58609
G1 X89.447 Y26.353 E13.62071
G1 X89.814 Y25.838 E13.65505
G1 X90.173 Y25.314 E13.68955
G1 X90.522 Y24.784 E13.72401
G1 X90.864 Y24.249 E13.75849
G1 X91.196 Y23.707 E13.79301
G1 X91.518 Y23.16 E13.82748
G1 X91.829 Y22.606 E13.86198
G1 X92.132 Y22.049 E13.89642
G1 X92.423 Y21.486 E13.93084
G1 X92.707 Y20.918 E13.96533
G1 X92.98 Y20.344 E13.99984
G1 X93.243 Y19.766 E14.03433
G1 X93.496 Y19.183 E14.06884
G1 X93.737 Y18.598 E14.1032
G1 X93.97 Y18.007 E14.13771
G1 X94.192 Y17.411 E14.17224
G1 X94.402 Y16.813 E14.20667
G1 X94.604 Y16.212 E14.2411
G1 X94.794 Y15.604 E14.27569
G1 X94.974 Y14.995 E14.31018
G1 X95.142 Y14.385 E14.34454
G1 X95.302 Y13.77 E14.37905
G1 X95.449 Y13.151 E14.4136
G1 X95.586 Y12.532 E14.44803
G1 X95.712 Y11.91 E14.4825
G1 X95.828 Y11.286 E14.51697
G1 X95.931 Y10.658 E14.55153
G1 X96.025 Y10.031 E14.58596
G1 X96.107 Y9.402 E14.62041
G1 X96.179 Y8.771 E14.6549
G1 X96.239 Y8.138 E14.68943
G1 X96.289 Y7.506 E14.72386
G1 X96.326 Y6.874 E14.75824
G1 X96.349 Y6.375 E14.78537
G1 X105.986 Y6.375 E15.30873
G0 F1350 X108.604 Y6.375
G0 F7500 X109.167 Y5.825
G1 F1500 X109.146 Y6.719 E15.35729
G1 X109.108 Y7.571 E15.40361
G1 X109.056 Y8.424 E15.45002
G1 X108.989 Y9.279 E15.4966
G1 X108.906 Y10.138 E15.54346
G1 X108.809 Y10.985 E15.58976
G1 X108.697 Y11.837 E15.63643
G1 X108.569 Y12.696 E15.6836
G1 X108.429 Y13.532 E15.72963
G1 X108.273 Y14.375 E15.77619
G1 X108.101 Y15.219 E15.82297
G1 X107.916 Y16.06 E15.86973
G1 X107.715 Y16.898 E15.91653
G1 X107.501 Y17.721 E15.96271
G1 X107.269 Y18.557 E16.00983
G1 X107.026 Y19.376 E16.05622
G1 X106.77 Y20.19 E16.10256
G1 X106.495 Y21.012 E16.14964
G1 X106.212 Y21.812 E16.19572
G1 X105.911 Y22.616 E16.24234
G1 X105.597 Y23.415 E16.28897
G1 X105.269 Y24.208 E16.33557
G1 X104.927 Y24.995 E16.38217
G1 X104.57 Y25.776 E16.42881
G1 X104.197 Y26.559 E16.47591
G1 X103.818 Y27.319 E16.52203
G1 X103.421 Y28.081 E16.56869
G1 X103.007 Y28.847 E16.61598
G1 X102.59 Y29.581 E16.66182
G1 X102.152 Y30.325 E16.70871
G1 X101.706 Y31.053 E16.75508
G1 X101.247 Y31.776 E16.80158
G1 X100.772 Y32.493 E16.84829
G1 X100.286 Y33.2 E16.89488
G1 X99.786 Y33.902 E16.94169
G1 X99.278 Y34.589 E16.98809
G1 X98.756 Y35.269 E17.03465
G1 X98.221 Y35.941 E17.0813
G1 X97.675 Y36.603 E17.1279
G1 X97.117 Y37.257 E17.17459
G1 X96.548 Y37.9 E17.22121
G1 X95.962 Y38.542 E17.26842
G1 X95.379 Y39.154 E17.31432
G1 X94.776 Y39.767 E17.36102
G1 X94.161 Y40.372 E17.40787
G1 X93.542 Y40.959 E17.4542
G1 X92.9 Y41.549 E17.50155
G1 X92.267 Y42.108 E17.54741
G1 X91.614 Y42.666 E17.59406
G1 X90.952 Y43.212 E17.64066
G1 X90.281 Y43.747 E17.68727
G1 X89.601 Y44.269 E17.73382
G1 X88.909 Y44.779 E17.78051
G1 X88.204 Y45.284 E17.8276
G1 X87.5 Y45.766 E17.87394
G1 X86.78 Y46.244 E17.92087
G1 X86.061 Y46.701 E17.96714
G1 X85.332 Y47.147 E18.01355
G1 X84.58 Y47.591 E18.06098
G1 X83.846 Y48.006 E18.10677
G1 X83.093 Y48.415 E18.15331
G1 X82.331 Y48.812 E18.19997
G1 X81.56 Y49.197 E18.24677
G1 X80.781 Y49.569 E18.29365
G1 X80.008 Y49.921 E18.33978
G1 X79.222 Y50.263 E18.38633
G1 X78.427 Y50.591 E18.43304
G1 X77.62 Y50.909 E18.48014
G1 X76.822 Y51.208 E18.52642
G1 X76.016 Y51.493 E18.57285
G1 X75.189 Y51.77 E18.62021
G1 X74.376 Y52.027 E18.66652
G1 X73.557 Y52.269 E18.7129
G1 X72.725 Y52.5 E18.75979
G1 X71.899 Y52.714 E18.80613
G1 X71.06 Y52.915 E18.85298
G1 X70.231 Y53.099 E18.8991
G1 X69.39 Y53.27 E18.94571
G1 X68.537 Y53.428 E18.99282
G1 X67.7 Y53.568 E19.03891
G1 X66.842 Y53.696 E19.08602
G1 X65.995 Y53.808 E19.13242
G1 X65.138 Y53.906 E19.17926
G1 X64.289 Y53.988 E19.22558
G1 X63.434 Y54.055 E19.27216
G1 X62.572 Y54.107 E19.31906
G1 X61.719 Y54.145 E19.36543
G1 X60.852 Y54.167 E19.41253
G1 X60 Y54.175 E19.4588
G1 X59.148 Y54.167 E19.50507
G1 X58.281 Y54.146 E19.55217
G1 X57.429 Y54.108 E19.59849
G1 X56.567 Y54.055 E19.64539
G1 X55.711 Y53.988 E19.69202
G1 X54.853 Y53.905 E19.73883
G1 X54.015 Y53.809 E19.78464
G1 X53.158 Y53.696 E19.83158
G1 X52.3 Y53.568 E19.87869
G1 X51.463 Y53.428 E19.92478
G1 X50.61 Y53.27 E19.97189
G1 X49.769 Y53.099 E20.0185
G1 X48.94 Y52.915 E20.06462
G1 X48.101 Y52.714 E20.11147
G1 X47.275 Y52.5 E20.15781
G1 X46.443 Y52.269 E20.2047
G1 X45.624 Y52.026 E20.2511
G1 X44.811 Y51.77 E20.29739
G1 X43.984 Y51.493 E20.34475
G1 X43.178 Y51.208 E20.39118
G1 X42.38 Y50.909 E20.43746
G1 X41.573 Y50.592 E20.48454
G1 X40.778 Y50.263 E20.53127
G1 X39.992 Y49.921 E20.57782
G1 X39.219 Y49.568 E20.62397
G1 X38.44 Y49.197 E20.67083
G1 X37.669 Y48.812 E20.71763
G1 X36.915 Y48.419 E20.76381
G1 X36.153 Y48.007 E20.81085
G1 X35.419 Y47.59 E20.8567
G1 X34.667 Y47.147 E20.9041
G1 X33.939 Y46.701 E20.95046
G1 X33.22 Y46.243 E20.99676
G1 X32.499 Y45.767 E21.04368
G1 X31.796 Y45.283 E21.09003
G1 X31.09 Y44.78 E21.1371
G1 X30.399 Y44.269 E21.18378
G1 X29.719 Y43.747 E21.23033
G1 X29.083 Y43.24 E21.2745
G1 X28.386 Y42.666 E21.32354
G1 X27.733 Y42.108 E21.37019
G1 X27.093 Y41.542 E21.41659
G1 X26.456 Y40.96 E21.46345
G1 X25.846 Y40.379 E21.50919
G1 X25.224 Y39.767 E21.55658
G1 X24.621 Y39.154 E21.60328
G1 X24.041 Y38.542 E21.64907
G1 X23.451 Y37.9 E21.69642
G1 X22.883 Y37.257 E21.74302
G1 X22.325 Y36.603 E21.78971
G1 X21.779 Y35.941 E21.83631
G1 X21.244 Y35.269 E21.88296
G1 X20.729 Y34.597 E21.92893
G1 X20.216 Y33.902 E21.97585
G1 X19.713 Y33.2 E22.02275
G1 X19.228 Y32.493 E22.06931
G1 X18.753 Y31.776 E22.11602
G1 X18.294 Y31.053 E22.16253
G1 X17.853 Y30.332 E22.20842
G1 X17.409 Y29.58 E22.25585
G1 X16.99 Y28.839 E22.30208
G1 X16.583 Y28.089 E22.34842
G1 X16.182 Y27.319 E22.39557
G1 X15.803 Y26.559 E22.44169
G1 X15.429 Y25.776 E22.48882
G1 X15.073 Y24.995 E22.53543
G1 X14.731 Y24.208 E22.58203
G1 X14.403 Y23.415 E22.62863
G1 X14.089 Y22.616 E22.67526
G1 X13.788 Y21.812 E22.72188
G1 X13.505 Y21.012 E22.76796
G1 X13.23 Y20.19 E22.81504
G1 X12.973 Y19.376 E22.86139
G1 X12.731 Y18.557 E22.90777
G1 X12.499 Y17.721 E22.95489
G1 X12.286 Y16.899 E23.001
G1 X12.085 Y16.061 E23.04781
G1 X11.898 Y15.218 E23.0947
G1 X11.727 Y14.376 E23.14136
G1 X11.571 Y13.532 E23.18797
G1 X11.431 Y12.696 E23.23401
G1 X11.303 Y11.837 E23.28117
G1 X11.192 Y10.995 E23.32729
G1 X11.094 Y10.138 E23.37414
G1 X11.011 Y9.279 E23.42101
