;FLAVOR:Marlin
;TIME:6453
;Filament used: 7.06847m
;Layer height: 0.25
;MINX:58.202
;MINY:31.725
;MINZ:0.28
;MAXX:208.815
;MAXY:188.275
;MAXZ:2.28
;Generated with Cura_SteamEngine 4.13.1
M140 S85
M105
M190 S85
M104 S245
M105
M109 S245
M82 ;absolute extrusion mode
; Ender 3 Custom Start G-code
G92 E0 ; Reset Extruder
G28 ; Home all axes
G1 Z2.0 F3000 ; Move Z Axis up little to prevent scratching of Heat Bed
G1 X0.1 Y20 Z0.3 F5000.0 ; Move to start position
G1 X0.1 Y200.0 Z0.3 F1500.0 E15 ; Draw the first line
G1 X0.4 Y200.0 Z0.3 F5000.0 ; Move to side a little
G1 X0.4 Y20 Z0.3 F1500.0 E30 ; Draw the second line
G92 E0 ; Reset Extruder
G1 Z2.0 F3000 ; Move Z Axis up little to prevent scratching of Heat Bed
G1 X5 Y20 Z0.3 F5000.0 ; Move over to prevent blob squish
G92 E0
G92 E0
G1 F900 E-7
;LAYER_COUNT:9
;LAYER:0
M107
G0 F7500 X58.502 Y32.527 Z0.28
;TYPE:SKIRT
G1 F900 E0
G1 F1500 X58.744 Y32.235 E0.0151
G1 X59.042 Y32.001 E0.03018
G1 X59.383 Y31.834 E0.0453
G1 X59.75 Y31.742 E0.06036
G1 X60 Y31.725 E0.07034
G1 X75 Y31.725 E0.66753
G1 X75.377 Y31.765 E0.68262
G1 X75.737 Y31.883 E0.6977
G1 X76.064 Y32.073 E0.71276
G1 X76.345 Y32.328 E0.72787
G1 X76.565 Y32.637 E0.74297
G1 X76.717 Y32.984 E0.75805
G1 X76.798 Y33.431 E0.77613
G1 X76.985 Y36.998 E0.91834
G1 X77.528 Y40.426 E1.05652
G1 X78.43 Y43.79 E1.19518
G1 X79.67 Y47.022 E1.333
G1 X81.25 Y50.122 E1.47152
G1 X83.142 Y53.037 E1.60988
G1 X85.322 Y55.729 E1.74779
G1 X87.794 Y58.203 E1.88702
G1 X90.49 Y60.384 E2.02508
G1 X93.401 Y62.274 E2.16326
G1 X96.501 Y63.854 E2.30179
G1 X99.735 Y65.095 E2.43969
G1 X103.099 Y65.997 E2.57835
G1 X106.528 Y66.54 E2.71657
G1 X110 Y66.722 E2.85499
G1 X113.472 Y66.54 E2.99341
G1 X116.901 Y65.997 E3.13163
G1 X120.265 Y65.095 E3.27029
G1 X123.499 Y63.854 E3.40819
G1 X126.599 Y62.274 E3.54672
G1 X129.516 Y60.38 E3.68518
G1 X132.2 Y58.207 E3.82267
G1 X134.679 Y55.731 E3.96216
G1 X136.859 Y53.036 E4.10016
G1 X138.75 Y50.122 E4.23846
G1 X140.33 Y47.022 E4.37699
G1 X141.57 Y43.79 E4.51481
G1 X142.472 Y40.426 E4.65347
G1 X143.015 Y36.998 E4.79164
G1 X143.202 Y33.431 E4.93385
G1 X143.262 Y33.056 E4.94897
G1 X143.399 Y32.703 E4.96404
G1 X143.606 Y32.386 E4.97912
G1 X143.876 Y32.119 E4.99424
G1 X144.195 Y31.915 E5.00931
G1 X144.55 Y31.782 E5.0244
G1 X145 Y31.725 E5.04246
G1 X160 Y31.725 E5.63965
G1 X160.377 Y31.765 E5.65474
G1 X160.737 Y31.883 E5.66982
G1 X161.064 Y32.073 E5.68488
G1 X161.345 Y32.328 E5.69999
G1 X161.565 Y32.637 E5.71509
G1 X161.717 Y32.984 E5.73017
G1 X161.792 Y33.355 E5.74524
G1 X161.798 Y33.606 E5.75524
G1 X161.597 Y38.087 E5.93381
G1 X161.583 Y38.247 E5.94021
G1 X160.981 Y42.695 E6.11891
G1 X160.952 Y42.855 E6.12538
G1 X159.953 Y47.227 E6.30393
G1 X159.91 Y47.382 E6.31033
G1 X158.525 Y51.649 E6.48894
G1 X158.468 Y51.801 E6.4954
G1 X156.703 Y55.927 E6.67406
G1 X156.633 Y56.072 E6.68047
G1 X154.507 Y60.022 E6.85907
G1 X154.424 Y60.16 E6.86548
G1 X151.953 Y63.905 E7.0441
G1 X151.858 Y64.036 E7.05055
G1 X149.062 Y67.543 E7.22911
G1 X148.956 Y67.665 E7.23555
G1 X145.855 Y70.908 E7.41418
G1 X145.738 Y71.02 E7.42063
G1 X142.358 Y73.973 E7.59932
G1 X142.232 Y74.073 E7.60573
G1 X138.602 Y76.711 E7.78438
G1 X138.467 Y76.8 E7.79081
G1 X134.616 Y79.1 E7.96939
G1 X134.474 Y79.177 E7.97583
G1 X130.433 Y81.123 E8.15439
G1 X130.285 Y81.186 E8.16079
G1 X126.083 Y82.764 E8.33949
G1 X125.929 Y82.814 E8.34594
G1 X121.605 Y84.007 E8.52452
G1 X121.447 Y84.043 E8.53097
G1 X117.032 Y84.844 E8.70961
G1 X116.872 Y84.866 E8.71604
G1 X112.403 Y85.268 E8.89468
G1 X112.242 Y85.275 E8.9011
G1 X107.758 Y85.275 E9.07962
G1 X107.597 Y85.268 E9.08603
G1 X103.128 Y84.866 E9.26467
G1 X102.968 Y84.844 E9.2711
G1 X98.553 Y84.044 E9.44974
G1 X98.395 Y84.008 E9.45619
G1 X94.071 Y82.813 E9.63479
G1 X93.918 Y82.763 E9.6412
G1 X89.716 Y81.186 E9.81988
G1 X89.567 Y81.123 E9.82632
G1 X85.526 Y79.177 E10.00489
G1 X85.384 Y79.1 E10.01132
G1 X81.533 Y76.8 E10.1899
G1 X81.398 Y76.711 E10.19634
G1 X77.768 Y74.073 E10.37499
G1 X77.642 Y73.973 E10.38139
G1 X74.262 Y71.02 E10.56008
G1 X74.145 Y70.908 E10.56653
G1 X71.044 Y67.665 E10.74517
G1 X70.938 Y67.543 E10.7516
G1 X68.142 Y64.036 E10.93017
G1 X68.047 Y63.905 E10.93661
G1 X65.576 Y60.16 E11.11524
G1 X65.493 Y60.022 E11.12165
G1 X63.367 Y56.072 E11.30024
G1 X63.297 Y55.927 E11.30665
G1 X61.532 Y51.801 E11.48531
G1 X61.475 Y51.649 E11.49178
G1 X60.09 Y47.382 E11.67038
G1 X60.047 Y47.227 E11.67679
G1 X59.049 Y42.855 E11.85532
G1 X59.02 Y42.696 E11.86176
G1 X58.417 Y38.248 E12.04046
G1 X58.403 Y38.087 E12.0469
G1 X58.202 Y33.606 E12.22547
G1 X58.225 Y33.227 E12.24059
G1 X58.326 Y32.862 E12.25567
G1 X58.502 Y32.527 E12.27073
G0 F7500 X58.905 Y32.653
G1 F1500 X59.143 Y32.418 E12.28405
G1 X59.43 Y32.246 E12.29737
G1 X59.749 Y32.148 E12.31066
G1 X60 Y32.125 E12.32069
G1 X75 Y32.125 E12.91788
G1 X75.332 Y32.165 E12.93119
G1 X75.644 Y32.282 E12.94446
G1 X75.921 Y32.47 E12.95779
G1 X76.144 Y32.718 E12.97106
G1 X76.303 Y33.012 E12.98437
G1 X76.398 Y33.452 E13.00229
G1 X76.586 Y37.033 E13.14506
G1 X77.137 Y40.517 E13.28549
G1 X78.045 Y43.903 E13.42505
G1 X79.308 Y47.192 E13.56532
G1 X80.904 Y50.325 E13.7053
G1 X82.816 Y53.27 E13.84509
G1 X85.023 Y55.996 E13.98473
G1 X87.526 Y58.502 E14.12574
G1 X90.252 Y60.706 E14.26531
G1 X93.203 Y62.623 E14.40541
G1 X96.331 Y64.216 E14.54516
G1 X99.623 Y65.48 E14.68555
G1 X103.008 Y66.388 E14.82508
G1 X106.493 Y66.939 E14.96555
G1 X110 Y67.123 E15.10536
G1 X113.507 Y66.939 E15.24518
G1 X116.992 Y66.388 E15.38565
G1 X120.377 Y65.48 E15.52518
G1 X123.669 Y64.216 E15.66557
G1 X126.797 Y62.623 E15.80532
G1 X129.749 Y60.706 E15.94545
G1 X132.472 Y58.501 E16.08495
G1 X134.977 Y55.999 E16.2259
G1 X137.184 Y53.27 E16.36563
G1 X139.096 Y50.325 E16.50543
G1 X140.692 Y47.192 E16.64541
G1 X141.955 Y43.903 E16.78567
G1 X142.863 Y40.517 E16.92524
G1 X143.414 Y37.033 E17.06567
G1 X143.602 Y33.452 E17.20844
G1 X143.659 Y33.122 E17.22177
G1 X143.793 Y32.816 E17.23507
G1 X143.995 Y32.55 E17.24837
G1 X144.254 Y32.34 E17.26164
G1 X144.556 Y32.197 E17.27494
G1 X145 Y32.125 E17.29285
G1 X160 Y32.125 E17.89004
G1 X160.332 Y32.165 E17.90335
G1 X160.644 Y32.282 E17.91662
G1 X160.921 Y32.47 E17.92995
G1 X161.144 Y32.718 E17.94322
G1 X161.303 Y33.012 E17.95653
G1 X161.387 Y33.336 E17.96986
G1 X161.399 Y33.588 E17.9799
G1 X161.198 Y38.069 E18.15848
G1 X161.186 Y38.194 E18.16348
G1 X160.584 Y42.642 E18.34218
G1 X160.562 Y42.766 E18.34719
G1 X159.563 Y47.138 E18.52574
G1 X159.53 Y47.258 E18.53069
G1 X158.145 Y51.525 E18.7093
G1 X158.1 Y51.644 E18.71436
G1 X156.335 Y55.77 E18.89303
G1 X156.281 Y55.883 E18.89801
G1 X154.155 Y59.833 E19.0766
G1 X154.091 Y59.94 E19.08157
G1 X151.62 Y63.685 E19.2602
G1 X151.546 Y63.787 E19.26521
G1 X148.75 Y67.294 E19.44378
G1 X148.667 Y67.389 E19.4488
G1 X145.566 Y70.632 E19.62744
G1 X145.475 Y70.718 E19.63242
G1 X142.095 Y73.671 E19.81111
G1 X141.997 Y73.75 E19.81612
G1 X138.367 Y76.388 E19.99477
G1 X138.262 Y76.457 E19.99978
G1 X134.411 Y78.757 E20.17836
G1 X134.3 Y78.816 E20.18336
G1 X130.259 Y80.762 E20.36193
G1 X130.144 Y80.812 E20.36692
G1 X125.942 Y82.39 E20.54562
G1 X125.822 Y82.429 E20.55064
G1 X121.498 Y83.622 E20.72922
G1 X121.376 Y83.65 E20.7342
G1 X116.961 Y84.451 E20.91285
G1 X116.836 Y84.467 E20.91786
G1 X112.367 Y84.869 E21.0965
G1 X112.242 Y84.875 E21.10148
G1 X107.758 Y84.875 E21.28
G1 X107.633 Y84.869 E21.28499
G1 X103.164 Y84.467 E21.46363
G1 X103.039 Y84.451 E21.46864
G1 X98.624 Y83.651 E21.64728
G1 X98.501 Y83.622 E21.65231
G1 X94.177 Y82.427 E21.83091
G1 X94.058 Y82.389 E21.83588
G1 X89.856 Y80.812 E22.01457
G1 X89.741 Y80.762 E22.01956
G1 X85.7 Y78.816 E22.19813
G1 X85.589 Y78.757 E22.20313
G1 X81.738 Y76.457 E22.38171
G1 X81.633 Y76.388 E22.38671
G1 X78.003 Y73.75 E22.56536
G1 X77.905 Y73.671 E22.57037
G1 X74.525 Y70.718 E22.74906
G1 X74.434 Y70.632 E22.75405
G1 X71.333 Y67.389 E22.93269
G1 X71.25 Y67.294 E22.93771
G1 X68.454 Y63.787 E23.11627
G1 X68.38 Y63.685 E23.12129
G1 X65.909 Y59.94 E23.29992
G1 X65.845 Y59.833 E23.30488
G1 X63.719 Y55.883 E23.48347
G1 X63.665 Y55.77 E23.48846
G1 X61.9 Y51.644 E23.66712
G1 X61.855 Y51.525 E23.67219
G1 X60.47 Y47.258 E23.85079
G1 X60.437 Y47.138 E23.85575
G1 X59.439 Y42.766 E24.03429
G1 X59.417 Y42.642 E24.0393
G1 X58.814 Y38.194 E24.218
G1 X58.802 Y38.069 E24.223
G1 X58.601 Y33.588 E24.40158
G1 X58.626 Y33.255 E24.41488
G1 X58.73 Y32.937 E24.4282
G1 X58.905 Y32.653 E24.44148
G0 F7500 X59.133 Y33.027
G1 F1500 X59.306 Y32.805 E24.45268
G1 X59.535 Y32.64 E24.46392
G1 X59.801 Y32.545 E24.47517
G1 X60 Y32.525 E24.48313
G1 X75 Y32.525 E25.08031
G1 X75.279 Y32.565 E25.09154
G1 X75.536 Y32.681 E25.10276
G1 X75.751 Y32.864 E25.114
G1 X75.905 Y33.1 E25.12522
G1 X75.999 Y33.473 E25.14054
G1 X76.188 Y37.079 E25.2843
G1 X76.745 Y40.596 E25.42606
G1 X77.665 Y44.029 E25.56756
G1 X78.942 Y47.355 E25.7094
G1 X80.554 Y50.519 E25.85077
G1 X82.499 Y53.515 E25.99298
G1 X84.721 Y56.259 E26.13355
G1 X87.259 Y58.8 E26.27654
G1 X90.017 Y61.03 E26.41774
G1 X93.004 Y62.97 E26.55954
G1 X96.168 Y64.582 E26.70091
G1 X99.496 Y65.86 E26.84284
G1 X102.929 Y66.78 E26.98434
G1 X106.447 Y67.337 E27.12615
G1 X110 Y67.523 E27.26779
G1 X113.553 Y67.337 E27.40944
G1 X117.071 Y66.78 E27.55124
G1 X120.504 Y65.86 E27.69274
G1 X123.832 Y64.582 E27.83467
G1 X126.996 Y62.97 E27.97604
G1 X129.989 Y61.026 E28.11813
G1 X132.734 Y58.804 E28.25873
G1 X135.275 Y56.266 E28.40172
G1 X137.505 Y53.509 E28.54289
G1 X139.446 Y50.519 E28.68481
G1 X141.058 Y47.355 E28.82618
G1 X142.335 Y44.029 E28.96802
G1 X143.255 Y40.596 E29.10952
G1 X143.812 Y37.079 E29.25129
G1 X144.001 Y33.473 E29.39505
G1 X144.056 Y33.196 E29.40629
G1 X144.185 Y32.945 E29.41753
G1 X144.38 Y32.741 E29.42876
G1 X144.623 Y32.599 E29.43997
G1 X145 Y32.525 E29.45526
G1 X160 Y32.525 E30.05245
G1 X160.279 Y32.565 E30.06367
G1 X160.536 Y32.681 E30.0749
G1 X160.751 Y32.864 E30.08614
G1 X160.905 Y33.1 E30.09736
G1 X160.988 Y33.37 E30.1086
G1 X160.999 Y33.57 E30.11658
G1 X160.798 Y38.051 E30.29516
G1 X160.79 Y38.14 E30.29871
G1 X160.188 Y42.588 E30.47741
G1 X160.172 Y42.677 E30.48101
G1 X159.173 Y47.049 E30.65956
G1 X159.149 Y47.135 E30.66311
G1 X157.764 Y51.402 E30.84172
G1 X157.732 Y51.486 E30.8453
G1 X155.967 Y55.612 E31.02396
G1 X155.929 Y55.693 E31.02752
G1 X153.803 Y59.643 E31.20611
G1 X153.757 Y59.72 E31.20968
G1 X151.286 Y63.465 E31.38831
G1 X151.233 Y63.537 E31.39187
G1 X148.437 Y67.044 E31.57044
G1 X148.378 Y67.112 E31.57402
G1 X145.277 Y70.355 E31.75266
G1 X145.212 Y70.417 E31.75624
G1 X141.832 Y73.37 E31.93492
G1 X141.762 Y73.426 E31.93849
G1 X138.132 Y76.064 E32.11714
G1 X138.057 Y76.114 E32.12073
G1 X134.206 Y78.414 E32.29931
G1 X134.127 Y78.456 E32.30288
G1 X130.086 Y80.402 E32.48144
G1 X130.004 Y80.437 E32.48499
G1 X125.802 Y82.015 E32.66369
G1 X125.716 Y82.043 E32.66729
G1 X121.392 Y83.236 E32.84587
G1 X121.305 Y83.256 E32.84942
G1 X116.89 Y84.057 E33.02807
G1 X116.801 Y84.069 E33.03164
G1 X112.332 Y84.471 E33.21028
G1 X112.242 Y84.475 E33.21387
G1 X107.758 Y84.475 E33.39239
G1 X107.668 Y84.471 E33.39597
G1 X103.199 Y84.069 E33.57461
G1 X103.111 Y84.057 E33.57815
G1 X98.696 Y83.257 E33.75678
G1 X98.608 Y83.237 E33.76037
G1 X94.284 Y82.042 E33.93898
G1 X94.199 Y82.014 E33.94254
G1 X89.997 Y80.437 E34.12122
G1 X89.914 Y80.402 E34.12481
G1 X85.873 Y78.456 E34.30338
G1 X85.794 Y78.414 E34.30694
G1 X81.943 Y76.114 E34.48552
G1 X81.868 Y76.064 E34.48911
G1 X78.238 Y73.426 E34.66776
G1 X78.168 Y73.37 E34.67133
G1 X74.788 Y70.417 E34.85002
G1 X74.723 Y70.355 E34.85359
G1 X71.622 Y67.112 E35.03223
G1 X71.563 Y67.044 E35.03581
G1 X68.767 Y63.537 E35.21438
G1 X68.714 Y63.465 E35.21794
G1 X66.243 Y59.72 E35.39657
G1 X66.197 Y59.643 E35.40014
G1 X64.071 Y55.693 E35.57873
G1 X64.033 Y55.612 E35.58229
G1 X62.268 Y51.486 E35.76095
G1 X62.236 Y51.402 E35.76453
G1 X60.851 Y47.135 E35.94314
G1 X60.827 Y47.049 E35.94669
G1 X59.829 Y42.677 E36.12523
G1 X59.813 Y42.588 E36.12883
G1 X59.21 Y38.14 E36.30753
G1 X59.202 Y38.051 E36.31109
G1 X59.001 Y33.57 E36.48967
G1 X59.028 Y33.289 E36.50091
G1 X59.133 Y33.027 E36.51215
G0 F7500 X59.536 Y33.145
G1 F1500 X59.703 Y33.004 E36.52085
G1 X60 Y32.925 E36.53308
G1 X75 Y32.925 E37.13027
G1 X75.215 Y32.965 E37.13898
G1 X75.401 Y33.078 E37.14764
G1 X75.534 Y33.251 E37.15633
G1 X75.599 Y33.494 E37.16634
G1 X75.789 Y37.114 E37.31066
G1 X76.353 Y40.678 E37.45432
G1 X77.286 Y44.159 E37.5978
G1 X78.574 Y47.513 E37.74084
G1 X80.21 Y50.725 E37.88434
G1 X82.17 Y53.743 E38.02761
G1 X84.427 Y56.531 E38.17042
G1 X86.991 Y59.098 E38.31487
G1 X89.784 Y61.356 E38.45786
G1 X92.798 Y63.314 E38.60095
G1 X96.01 Y64.95 E38.74446
G1 X99.366 Y66.239 E38.88759
G1 X102.847 Y67.172 E39.03106
G1 X106.412 Y67.736 E39.17476
G1 X110 Y67.924 E39.3178
G1 X113.588 Y67.736 E39.46085
G1 X117.153 Y67.172 E39.60454
G1 X120.634 Y66.239 E39.74802
G1 X123.99 Y64.95 E39.89115
G1 X127.202 Y63.314 E40.03466
G1 X130.222 Y61.352 E40.17804
G1 X133.002 Y59.102 E40.32042
G1 X135.573 Y56.534 E40.46509
G1 X137.831 Y53.742 E40.60805
G1 X139.79 Y50.725 E40.75127
G1 X141.426 Y47.513 E40.89478
G1 X142.714 Y44.159 E41.03781
G1 X143.647 Y40.678 E41.18129
G1 X144.211 Y37.114 E41.32495
G1 X144.401 Y33.494 E41.46927
G1 X144.452 Y33.281 E41.47799
G1 X144.575 Y33.101 E41.48667
G1 X144.755 Y32.977 E41.49537
G1 X145 Y32.925 E41.50534
G1 X160 Y32.925 E42.10253
G1 X160.215 Y32.965 E42.11123
G1 X160.401 Y33.078 E42.1199
G1 X160.534 Y33.251 E42.12859
G1 X160.599 Y33.552 E42.14085
G1 X160.398 Y38.033 E42.31942
G1 X160.394 Y38.086 E42.32154
G1 X159.792 Y42.534 E42.50024
G1 X159.782 Y42.588 E42.50243
G1 X158.783 Y46.96 E42.68097
G1 X158.769 Y47.011 E42.68308
G1 X157.384 Y51.278 E42.86168
G1 X157.365 Y51.329 E42.86385
G1 X155.6 Y55.455 E43.04251
G1 X155.576 Y55.503 E43.04465
G1 X153.45 Y59.453 E43.22324
G1 X153.423 Y59.499 E43.22536
G1 X150.952 Y63.244 E43.40399
G1 X150.92 Y63.288 E43.40616
G1 X148.124 Y66.795 E43.58472
G1 X148.089 Y66.836 E43.58687
G1 X144.988 Y70.079 E43.76551
G1 X144.949 Y70.116 E43.76765
G1 X141.569 Y73.069 E43.94634
G1 X141.527 Y73.102 E43.94846
G1 X137.897 Y75.74 E44.12711
G1 X137.852 Y75.77 E44.12927
G1 X134.001 Y78.07 E44.30785
G1 X133.953 Y78.096 E44.31002
G1 X129.912 Y80.042 E44.48859
G1 X129.863 Y80.063 E44.49071
G1 X125.661 Y81.641 E44.66941
G1 X125.61 Y81.657 E44.67153
G1 X121.286 Y82.85 E44.85012
G1 X121.233 Y82.862 E44.85228
G1 X116.818 Y83.663 E45.03092
G1 X116.765 Y83.671 E45.03305
G1 X112.296 Y84.073 E45.21169
G1 X112.242 Y84.075 E45.21385
G1 X107.758 Y84.075 E45.39236
G1 X107.704 Y84.073 E45.39452
G1 X103.235 Y83.671 E45.57316
G1 X103.182 Y83.663 E45.57529
G1 X98.767 Y82.863 E45.75392
G1 X98.714 Y82.851 E45.75609
G1 X94.39 Y81.656 E45.93469
G1 X94.339 Y81.64 E45.93682
G1 X90.137 Y80.063 E46.1155
G1 X90.088 Y80.042 E46.11762
G1 X86.047 Y78.096 E46.29619
G1 X85.999 Y78.07 E46.29836
G1 X82.148 Y75.77 E46.47694
G1 X82.103 Y75.74 E46.4791
G1 X78.473 Y73.102 E46.65775
G1 X78.431 Y73.069 E46.65987
G1 X75.051 Y70.116 E46.83856
G1 X75.012 Y70.079 E46.8407
G1 X71.911 Y66.836 E47.01934
G1 X71.876 Y66.795 E47.02149
G1 X69.08 Y63.288 E47.20005
G1 X69.048 Y63.244 E47.20222
G1 X66.577 Y59.499 E47.38085
G1 X66.55 Y59.453 E47.38297
G1 X64.424 Y55.503 E47.56156
G1 X64.4 Y55.455 E47.5637
G1 X62.635 Y51.329 E47.74236
G1 X62.616 Y51.278 E47.74453
G1 X61.231 Y47.011 E47.92313
G1 X61.217 Y46.96 E47.92524
G1 X60.219 Y42.588 E48.10377
G1 X60.209 Y42.535 E48.10592
G1 X59.606 Y38.087 E48.28463
G1 X59.602 Y38.033 E48.28678
G1 X59.401 Y33.552 E48.46536
G1 X59.431 Y33.336 E48.47404
G1 X59.536 Y33.145 E48.48272
G0 F7500 X59.834 Y33.414
G1 F1500 X60 Y33.325 E48.49022
G1 X75 Y33.325 E49.0874
G1 X75.119 Y33.364 E49.09239
G1 X75.2 Y33.515 E49.09921
G1 X75.391 Y37.16 E49.24453
G1 X75.962 Y40.766 E49.38988
G1 X76.902 Y44.274 E49.53447
G1 X78.211 Y47.683 E49.67985
G1 X79.861 Y50.921 E49.82454
G1 X81.849 Y53.983 E49.96988
G1 X84.129 Y56.799 E50.11413
G1 X86.719 Y59.392 E50.26004
G1 X89.549 Y61.68 E50.40493
G1 X92.602 Y63.663 E50.54986
G1 X95.84 Y65.313 E50.69455
G1 X99.251 Y66.623 E50.84002
G1 X102.759 Y67.563 E50.98461
G1 X106.366 Y68.134 E51.13
G1 X110 Y68.324 E51.27488
G1 X113.634 Y68.134 E51.41975
G1 X117.241 Y67.563 E51.56514
