;FLAVOR:Marlin
;TIME:2284
;Filament used: 2.41062m
;Layer height: 0.28
;MINX:91.95
;MINY:98.2
;MINZ:0.28
;MAXX:128.11
;MAXY:143.981
;MAXZ:15.96
;Generated with Cura_SteamEngine 4.13.1
M140 S85
M105
M190 S85
M104 S245
M105
M109 S245
M82 ;absolute extrusion mode
; Ender 3 Custom Start G-code
G92 E0 ; Reset Extruder
G28 ; Home all axes
G1 Z2.0 F3000 ; Move Z Axis up little to prevent scratching of Heat Bed
G1 X0.1 Y20 Z0.3 F5000.0 ; Move to start position
G1 X0.1 Y200.0 Z0.3 F1500.0 E15 ; Draw the first line
G1 X0.4 Y200.0 Z0.3 F5000.0 ; Move to side a little
G1 X0.4 Y20 Z0.3 F1500.0 E30 ; Draw the second line
G92 E0 ; Reset Extruder
G1 Z2.0 F3000 ; Move Z Axis up little to prevent scratching of Heat Bed
G1 X5 Y20 Z0.3 F5000.0 ; Move over to prevent blob squish
G92 E0
G92 E0
G1 F900 E-7
;LAYER_COUNT:57
;LAYER:0
M107
G0 F7500 X92.553 Y98.655 Z0.28
;TYPE:SKIRT
G1 F900 E0
G1 F1500 X92.862 Y98.435 E0.0159
G1 X93.209 Y98.283 E0.03177
G1 X93.75 Y98.2 E0.05471
G1 X126.25 Y98.2 E1.41671
G1 X126.627 Y98.24 E1.4326
G1 X126.987 Y98.358 E1.44848
G1 X127.314 Y98.548 E1.46433
G1 X127.595 Y98.803 E1.48023
G1 X127.815 Y99.112 E1.49612
G1 X127.967 Y99.459 E1.512
G1 X128.05 Y100 E1.53494
G1 X128.05 Y120 E2.37309
G1 X128.01 Y120.377 E2.38898
G1 X127.892 Y120.737 E2.40486
G1 X127.706 Y121.056 E2.42033
G1 X127.875 Y121.293 E2.43253
G1 X128.027 Y121.64 E2.44841
G1 X128.11 Y122.181 E2.47134
G1 X128.11 Y142.181 E3.3095
G1 X128.07 Y142.558 E3.32539
G1 X127.952 Y142.918 E3.34126
G1 X127.762 Y143.245 E3.35711
G1 X127.507 Y143.526 E3.37302
G1 X127.198 Y143.746 E3.38891
G1 X126.851 Y143.898 E3.40479
G1 X126.31 Y143.981 E3.42773
G1 X93.81 Y143.981 E4.78973
G1 X93.433 Y143.941 E4.80562
G1 X93.073 Y143.823 E4.82149
G1 X92.746 Y143.633 E4.83734
G1 X92.465 Y143.378 E4.85324
G1 X92.245 Y143.069 E4.86914
G1 X92.093 Y142.722 E4.88502
G1 X92.01 Y142.181 E4.90795
G1 X92.01 Y132.181 E5.32703
G1 X92.05 Y131.804 E5.34292
G1 X92.168 Y131.444 E5.3588
G1 X92.358 Y131.117 E5.37464
G1 X92.613 Y130.836 E5.39055
G1 X92.922 Y130.616 E5.40644
G1 X93.269 Y130.464 E5.42232
G1 X93.81 Y130.381 E5.44526
G1 X117.01 Y130.381 E6.41752
G1 X117.01 Y122.181 E6.76116
G1 X117.05 Y121.804 E6.77705
G1 X117.168 Y121.444 E6.79292
G1 X117.354 Y121.125 E6.8084
G1 X117.185 Y120.888 E6.8206
G1 X117.033 Y120.541 E6.83647
G1 X116.95 Y120 E6.85941
G1 X116.95 Y111.8 E7.20306
G1 X93.75 Y111.8 E8.17532
G1 X93.373 Y111.76 E8.1912
G1 X93.013 Y111.642 E8.20708
G1 X92.686 Y111.452 E8.22293
G1 X92.405 Y111.197 E8.23883
G1 X92.185 Y110.888 E8.25473
G1 X92.033 Y110.541 E8.2706
G1 X91.95 Y110 E8.29354
G1 X91.95 Y100 E8.71262
G1 X91.99 Y99.623 E8.72851
G1 X92.108 Y99.263 E8.74438
G1 X92.298 Y98.936 E8.76023
G1 X92.553 Y98.655 E8.77613
G0 F7500 X92.943 Y98.856
G1 F1500 X93.237 Y98.697 E8.79014
G1 X93.561 Y98.613 E8.80417
G1 X93.75 Y98.6 E8.81211
G1 X126.25 Y98.6 E10.17411
G1 X126.582 Y98.64 E10.18813
G1 X126.894 Y98.757 E10.20209
G1 X127.171 Y98.945 E10.21612
G1 X127.394 Y99.193 E10.2301
G1 X127.553 Y99.487 E10.2441
G1 X127.637 Y99.811 E10.25813
G1 X127.65 Y100 E10.26607
G1 X127.65 Y120 E11.10422
G1 X127.61 Y120.332 E11.11824
G1 X127.493 Y120.644 E11.1322
G1 X127.305 Y120.921 E11.14623
G1 X127.143 Y121.066 E11.15534
G1 X127.231 Y121.126 E11.15981
G1 X127.454 Y121.374 E11.17378
G1 X127.613 Y121.668 E11.18779
G1 X127.697 Y121.992 E11.20182
G1 X127.71 Y122.181 E11.20976
G1 X127.71 Y142.181 E12.04791
G1 X127.67 Y142.513 E12.06193
G1 X127.553 Y142.825 E12.07589
G1 X127.365 Y143.102 E12.08992
G1 X127.117 Y143.325 E12.1039
G1 X126.823 Y143.484 E12.11791
G1 X126.499 Y143.568 E12.13193
G1 X126.31 Y143.581 E12.13987
G1 X93.81 Y143.581 E13.50187
G1 X93.478 Y143.541 E13.51589
G1 X93.166 Y143.424 E13.52985
G1 X92.889 Y143.236 E13.54388
G1 X92.666 Y142.988 E13.55786
G1 X92.507 Y142.694 E13.57187
G1 X92.423 Y142.37 E13.58589
G1 X92.41 Y142.181 E13.59383
G1 X92.41 Y132.181 E14.01291
G1 X92.45 Y131.849 E14.02692
G1 X92.567 Y131.537 E14.04089
G1 X92.755 Y131.26 E14.05492
G1 X93.003 Y131.037 E14.0689
G1 X93.297 Y130.878 E14.0829
G1 X93.621 Y130.794 E14.09693
G1 X93.81 Y130.781 E14.10487
G1 X117.41 Y130.781 E15.09389
G1 X117.41 Y122.181 E15.4543
G1 X117.45 Y121.849 E15.46831
G1 X117.567 Y121.537 E15.48228
G1 X117.755 Y121.26 E15.49631
G1 X117.917 Y121.115 E15.50542
G1 X117.829 Y121.055 E15.50988
G1 X117.606 Y120.807 E15.52386
G1 X117.447 Y120.513 E15.53787
G1 X117.363 Y120.189 E15.55189
G1 X117.35 Y120 E15.55983
G1 X117.35 Y111.4 E15.92024
G1 X93.75 Y111.4 E16.90926
G1 X93.418 Y111.36 E16.92328
G1 X93.106 Y111.243 E16.93724
G1 X92.829 Y111.055 E16.95127
G1 X92.606 Y110.807 E16.96525
G1 X92.447 Y110.513 E16.97926
G1 X92.363 Y110.189 E16.99328
G1 X92.35 Y110 E17.00122
G1 X92.35 Y100 E17.4203
G1 X92.39 Y99.668 E17.43431
G1 X92.507 Y99.356 E17.44828
G1 X92.695 Y99.079 E17.46231
G1 X92.943 Y98.856 E17.47628
G0 F7500 X93.089 Y99.249
G1 F1500 X93.325 Y99.095 E17.48809
G1 X93.595 Y99.012 E17.49993
G1 X93.75 Y99 E17.50645
G1 X126.25 Y99 E18.86845
G1 X126.529 Y99.04 E18.88026
G1 X126.786 Y99.156 E18.89208
G1 X127.001 Y99.339 E18.90391
G1 X127.155 Y99.575 E18.91572
G1 X127.238 Y99.845 E18.92756
G1 X127.25 Y100 E18.93407
G1 X127.25 Y120 E19.77223
G1 X127.21 Y120.279 E19.78404
G1 X127.094 Y120.536 E19.79586
G1 X126.911 Y120.751 E19.80769
G1 X126.675 Y120.905 E19.8195
G1 X126.405 Y120.988 E19.83134
G1 X126.25 Y121 E19.83785
G1 X118.75 Y121 E20.15216
G1 X118.471 Y120.96 E20.16397
G1 X118.214 Y120.844 E20.17579
G1 X117.999 Y120.661 E20.18762
G1 X117.845 Y120.425 E20.19943
G1 X117.762 Y120.155 E20.21127
G1 X117.75 Y120 E20.21778
G1 X117.75 Y111 E20.59495
G1 X93.75 Y111 E21.60074
G1 X93.471 Y110.96 E21.61255
G1 X93.214 Y110.844 E21.62437
G1 X92.999 Y110.661 E21.6362
G1 X92.845 Y110.425 E21.64801
G1 X92.762 Y110.155 E21.65985
G1 X92.75 Y110 E21.66636
G1 X92.75 Y100 E22.08544
G1 X92.79 Y99.721 E22.09725
G1 X92.906 Y99.464 E22.10907
G1 X93.089 Y99.249 E22.1209
G0 F7500 X93.303 Y99.599
G1 F1500 X93.476 Y99.466 E22.13004
G1 X93.75 Y99.4 E22.14186
G1 X126.25 Y99.4 E23.50386
G1 X126.465 Y99.44 E23.51302
G1 X126.651 Y99.553 E23.52214
G1 X126.784 Y99.726 E23.53129
G1 X126.85 Y100 E23.5431
G1 X126.85 Y120 E24.38125
G1 X126.81 Y120.215 E24.39042
G1 X126.697 Y120.401 E24.39954
G1 X126.524 Y120.534 E24.40868
G1 X126.25 Y120.6 E24.4205
G1 X118.75 Y120.6 E24.7348
G1 X118.535 Y120.56 E24.74397
G1 X118.349 Y120.447 E24.75309
G1 X118.216 Y120.274 E24.76223
G1 X118.15 Y120 E24.77405
G1 X118.15 Y110.6 E25.16798
G1 X93.75 Y110.6 E26.19053
G1 X93.535 Y110.56 E26.19969
G1 X93.349 Y110.447 E26.20881
G1 X93.216 Y110.274 E26.21796
G1 X93.15 Y110 E26.22977
G1 X93.15 Y100 E26.64885
G1 X93.19 Y99.785 E26.65801
G1 X93.303 Y99.599 E26.66713
G0 F7500 X93.589 Y99.881
G1 F1500 X93.75 Y99.8 E26.67469
G1 X126.25 Y99.8 E28.03669
G1 X126.369 Y99.839 E28.04194
G1 X126.45 Y100 E28.04949
G1 X126.45 Y120 E28.88764
G1 X126.411 Y120.119 E28.89289
G1 X126.25 Y120.2 E28.90045
G1 X118.75 Y120.2 E29.21475
G1 X118.631 Y120.161 E29.22
G1 X118.55 Y120 E29.22756
G1 X118.55 Y110.2 E29.63825
G1 X93.75 Y110.2 E30.67756
G1 X93.631 Y110.161 E30.68281
G1 X93.55 Y110 E30.69036
G1 X93.55 Y100 E31.10944
G1 X93.589 Y99.881 E31.11469
G1 F900 E24.11469
G0 F7500 X93.085 Y99.881
G0 X93.097 Y110.653
G0 X93.81 Y131.181
G1 F900 E31.11469
G1 F1500 X117.81 Y131.181 E32.12048
G1 X117.81 Y122.181 E32.49765
G1 X117.85 Y121.902 E32.50946
G1 X117.966 Y121.645 E32.52128
G1 X118.149 Y121.43 E32.53311
G1 X118.385 Y121.276 E32.54492
G1 X118.655 Y121.193 E32.55675
G1 X118.81 Y121.181 E32.56327
G1 X126.31 Y121.181 E32.87758
G1 X126.589 Y121.221 E32.88939
G1 X126.846 Y121.337 E32.90121
G1 X127.061 Y121.52 E32.91304
G1 X127.215 Y121.756 E32.92485
G1 X127.298 Y122.026 E32.93669
G1 X127.31 Y122.181 E32.9432
G1 X127.31 Y142.181 E33.78136
G1 X127.27 Y142.46 E33.79317
G1 X127.154 Y142.717 E33.80499
G1 X126.971 Y142.932 E33.81682
G1 X126.735 Y143.086 E33.82863
G1 X126.465 Y143.169 E33.84046
G1 X126.31 Y143.181 E33.84698
G1 X93.81 Y143.181 E35.20898
G1 X93.531 Y143.141 E35.22079
G1 X93.274 Y143.025 E35.23261
G1 X93.059 Y142.842 E35.24444
G1 X92.905 Y142.606 E35.25625
G1 X92.822 Y142.336 E35.26809
G1 X92.81 Y142.181 E35.27461
G1 X92.81 Y132.181 E35.69368
G1 X92.85 Y131.902 E35.70549
G1 X92.966 Y131.645 E35.71731
G1 X93.149 Y131.43 E35.72914
G1 X93.385 Y131.276 E35.74095
G1 X93.655 Y131.193 E35.75279
G1 X93.81 Y131.181 E35.75931
G0 F7500 X93.81 Y131.581
G1 F1500 X118.21 Y131.581 E36.78186
G1 X118.21 Y122.181 E37.17579
G1 X118.25 Y121.966 E37.18495
G1 X118.363 Y121.78 E37.19407
G1 X118.536 Y121.647 E37.20322
G1 X118.81 Y121.581 E37.21503
G1 X126.31 Y121.581 E37.52934
G1 X126.525 Y121.621 E37.5385
G1 X126.711 Y121.734 E37.54762
G1 X126.844 Y121.907 E37.55677
G1 X126.91 Y122.181 E37.56858
G1 X126.91 Y142.181 E38.40673
G1 X126.87 Y142.396 E38.4159
G1 X126.757 Y142.582 E38.42502
G1 X126.584 Y142.715 E38.43417
G1 X126.31 Y142.781 E38.44598
G1 X93.81 Y142.781 E39.80798
G1 X93.595 Y142.741 E39.81714
G1 X93.409 Y142.628 E39.82626
G1 X93.276 Y142.455 E39.83541
G1 X93.21 Y142.181 E39.84722
G1 X93.21 Y132.181 E40.2663
G1 X93.25 Y131.966 E40.27546
G1 X93.363 Y131.78 E40.28458
G1 X93.536 Y131.647 E40.29373
G1 X93.81 Y131.581 E40.30554
G0 F7500 X93.81 Y131.981
G1 F1500 X118.61 Y131.981 E41.34485
G1 X118.61 Y122.181 E41.75555
G1 X118.649 Y122.062 E41.7608
G1 X118.81 Y121.981 E41.76835
G1 X126.31 Y121.981 E42.08266
G1 X126.429 Y122.02 E42.08791
G1 X126.51 Y122.181 E42.09546
G1 X126.51 Y142.181 E42.93361
G1 X126.471 Y142.3 E42.93886
G1 X126.31 Y142.381 E42.94641
G1 X93.81 Y142.381 E44.30842
G1 X93.691 Y142.342 E44.31367
G1 X93.61 Y142.181 E44.32122
G1 X93.61 Y132.181 E44.7403
G1 X93.649 Y132.062 E44.74554
G1 X93.81 Y131.981 E44.7531
G1 F900 E37.7531
;MESH:limit_switch_post_left.STL
G0 F7500 X93.81 Y131.516
G0 X118.085 Y119.586
G0 X119.164 Y119.586
G1 F900 E44.7531
G0 F7500 X118.95 Y119.8
;TYPE:WALL-OUTER
G1 F1500 X118.95 Y109.8 E45.17217
G1 X93.95 Y109.8 E46.21987
G1 X93.95 Y100.2 E46.62218
G1 X126.05 Y100.2 E47.96742
G1 X126.05 Y119.8 E48.78882
G1 X118.95 Y119.8 E49.08636
G0 F7500 X119.35 Y119.4
;TYPE:WALL-INNER
G1 F1500 X119.35 Y109.4 E49.50544
G1 X94.35 Y109.4 E50.55313
G1 X94.35 Y100.6 E50.92192
G1 X125.65 Y100.6 E52.23363
G1 X125.65 Y119.4 E53.0215
G1 X119.35 Y119.4 E53.28552
G0 F7500 X119.75 Y119
G1 F1500 X119.75 Y109 E53.7046
G1 X94.75 Y109 E54.75229
G1 X94.75 Y101 E55.08755
G1 X125.25 Y101 E56.36574
G1 X125.25 Y119 E57.12008
G1 X119.75 Y119 E57.35057
G0 F7500 X120.14 Y118.61
;TYPE:SKIN
G1 F1500 X120.14 Y108.61 E57.76965
G1 X95.14 Y108.61 E58.81734
G1 X95.14 Y101.39 E59.11992
G1 X124.86 Y101.39 E60.36542
G1 X124.86 Y118.61 E61.08707
G1 X120.14 Y118.61 E61.28487
G0 F7500 X119.86 Y118.61
G0 X125.068 Y118.818
G0 X125.14 Y102.072
G0 X124.699 Y102.072
G1 F1500 X124.177 Y101.549 E61.31584
G0 F7500 X123.611 Y101.549
G1 F1500 X124.699 Y102.637 E61.38032
G0 F7500 X124.699 Y103.203
G1 F1500 X123.045 Y101.549 E61.47835
G0 F7500 X122.48 Y101.549
G1 F1500 X124.699 Y103.769 E61.60989
G0 F7500 X124.699 Y104.335
G1 F1500 X121.914 Y101.549 E61.77498
G0 F7500 X121.348 Y101.549
G1 F1500 X124.699 Y104.9 E61.97358
G0 F7500 X124.699 Y105.466
G1 F1500 X120.783 Y101.549 E62.2057
G0 F7500 X120.217 Y101.549
G1 F1500 X124.699 Y106.032 E62.47136
G0 F7500 X124.699 Y106.597
G1 F1500 X119.651 Y101.549 E62.77054
G0 F7500 X119.085 Y101.549
G1 F1500 X124.699 Y107.163 E63.10326
G0 F7500 X124.699 Y107.729
G1 F1500 X118.52 Y101.549 E63.4695
G0 F7500 X117.954 Y101.549
G1 F1500 X124.699 Y108.294 E63.86925
G0 F7500 X124.699 Y108.86
G1 F1500 X117.388 Y101.549 E64.30255
G0 F7500 X116.823 Y101.549
G1 F1500 X124.699 Y109.426 E64.76936
G0 F7500 X124.699 Y109.991
G1 F1500 X116.257 Y101.549 E65.26969
G0 F7500 X115.691 Y101.549
G1 F1500 X124.699 Y110.557 E65.80356
G0 F7500 X124.699 Y111.123
G1 F1500 X115.126 Y101.549 E66.37095
G0 F7500 X114.56 Y101.549
G1 F1500 X124.699 Y111.688 E66.97185
G0 F7500 X124.699 Y112.254
G1 F1500 X113.994 Y101.549 E67.6063
G0 F7500 X113.429 Y101.549
G1 F1500 X124.699 Y112.82 E68.27427
G0 F7500 X124.699 Y113.385
G1 F1500 X120.299 Y108.985 E68.53504
G0 F7500 X120.299 Y109.551
G1 F1500 X124.699 Y113.951 E68.79581
G0 F7500 X124.699 Y114.517
G1 F1500 X120.299 Y110.117 E69.05658
G0 F7500 X120.299 Y110.682
G1 F1500 X124.699 Y115.083 E69.31739
G0 F7500 X124.699 Y115.648
G1 F1500 X120.299 Y111.248 E69.57816
G0 F7500 X120.299 Y111.814
G1 F1500 X124.699 Y116.214 E69.83893
G0 F7500 X124.699 Y116.78
G1 F1500 X120.299 Y112.379 E70.09973
G0 F7500 X120.299 Y112.945
G1 F1500 X124.699 Y117.345 E70.36051
G0 F7500 X124.699 Y117.911
G1 F1500 X120.299 Y113.511 E70.62128
G0 F7500 X120.299 Y114.076
G1 F1500 X124.672 Y118.449 E70.88045
G0 F7500 X124.106 Y118.449
G1 F1500 X120.299 Y114.642 E71.10608
G0 F7500 X120.299 Y115.208
G1 F1500 X123.54 Y118.449 E71.29816
G0 F7500 X122.975 Y118.449
G1 F1500 X120.299 Y115.773 E71.45676
G0 F7500 X120.299 Y116.339
G1 F1500 X122.409 Y118.449 E71.58181
G0 F7500 X121.843 Y118.449
G1 F1500 X120.299 Y116.905 E71.67332
G0 F7500 X120.299 Y117.47
G1 F1500 X121.278 Y118.449 E71.73134
G0 F7500 X120.712 Y118.449
G1 F1500 X120.299 Y118.036 E71.75582
G0 F7500 X119.86 Y118.036
G0 X119.763 Y108.89
G0 X119.763 Y108.449
G1 F1500 X112.863 Y101.549 E72.16476
G0 F7500 X112.297 Y101.549
G1 F1500 X119.197 Y108.449 E72.5737
G0 F7500 X118.632 Y108.449
G1 F1500 X111.732 Y101.549 E72.98264
G0 F7500 X111.166 Y101.549
G1 F1500 X118.066 Y108.449 E73.39158
G0 F7500 X117.5 Y108.449
G1 F1500 X110.6 Y101.549 E73.80051
G0 F7500 X110.035 Y101.549
G1 F1500 X116.934 Y108.449 E74.20942
G0 F7500 X116.369 Y108.449
G1 F1500 X109.469 Y101.549 E74.61836
G0 F7500 X108.903 Y101.549
G1 F1500 X115.803 Y108.449 E75.0273
G0 F7500 X115.237 Y108.449
G1 F1500 X108.337 Y101.549 E75.43624
G0 F7500 X107.772 Y101.549
G1 F1500 X114.672 Y108.449 E75.84518
G0 F7500 X114.106 Y108.449
G1 F1500 X107.206 Y101.549 E76.25412
G0 F7500 X106.64 Y101.549
G1 F1500 X113.54 Y108.449 E76.66306
G0 F7500 X112.975 Y108.449
G1 F1500 X106.075 Y101.549 E77.072
G0 F7500 X105.509 Y101.549
G1 F1500 X112.409 Y108.449 E77.48094
G0 F7500 X111.843 Y108.449
G1 F1500 X104.943 Y101.549 E77.88988
G0 F7500 X104.378 Y101.549
G1 F1500 X111.278 Y108.449 E78.29882
G0 F7500 X110.712 Y108.449
G1 F1500 X103.812 Y101.549 E78.70775
G0 F7500 X103.246 Y101.549
G1 F1500 X110.146 Y108.449 E79.11669
G0 F7500 X109.581 Y108.449
G1 F1500 X102.681 Y101.549 E79.52563
G0 F7500 X102.115 Y101.549
G1 F1500 X109.015 Y108.449 E79.93457
G0 F7500 X108.449 Y108.449
G1 F1500 X101.549 Y101.549 E80.34351
G0 F7500 X100.984 Y101.549
G1 F1500 X107.883 Y108.449 E80.75242
G0 F7500 X107.318 Y108.449
G1 F1500 X100.418 Y101.549 E81.16136
G0 F7500 X99.852 Y101.549
G1 F1500 X106.752 Y108.449 E81.5703
G0 F7500 X106.186 Y108.449
G1 F1500 X99.286 Y101.549 E81.97924
G0 F7500 X98.721 Y101.549
G1 F1500 X105.621 Y108.449 E82.38818
G0 F7500 X105.055 Y108.449
G1 F1500 X98.155 Y101.549 E82.79712
G0 F7500 X97.589 Y101.549
G1 F1500 X104.489 Y108.449 E83.20606
G0 F7500 X103.924 Y108.449
G1 F1500 X97.024 Y101.549 E83.61499
G0 F7500 X96.458 Y101.549
G1 F1500 X103.358 Y108.449 E84.02393
G0 F7500 X102.792 Y108.449
G1 F1500 X95.892 Y101.549 E84.43287
G0 F7500 X95.327 Y101.549
G1 F1500 X102.227 Y108.449 E84.84181
G0 F7500 X101.661 Y108.449
G1 F1500 X95.299 Y102.087 E85.21887
G0 F7500 X95.299 Y102.653
G1 F1500 X101.095 Y108.449 E85.56237
G0 F7500 X100.53 Y108.449
G1 F1500 X95.299 Y103.219 E85.87237
G0 F7500 X95.299 Y103.784
G1 F1500 X99.964 Y108.449 E86.14885
G0 F7500 X99.398 Y108.449
G1 F1500 X95.299 Y104.35 E86.39178
G0 F7500 X95.299 Y104.916
G1 F1500 X98.833 Y108.449 E86.6012
G0 F7500 X98.267 Y108.449
G1 F1500 X95.299 Y105.481 E86.7771
G0 F7500 X95.299 Y106.047
G1 F1500 X97.701 Y108.449 E86.91946
G0 F7500 X97.135 Y108.449
G1 F1500 X95.299 Y106.613 E87.02827
G0 F7500 X95.299 Y107.179
G1 F1500 X96.57 Y108.449 E87.10357
G0 F7500 X96.004 Y108.449
G1 F1500 X95.299 Y107.744 E87.14535
G0 F7500 X95.299 Y108.31
G1 F1500 X95.438 Y108.449 E87.15359
G0 F7500 X95.438 Y109.19
G1 F900 E80.15359
;MESH:limit_switch_post_right.STL
G0 F7500 X94.31 Y109.58
G0 X94.31 Y110.665
G0 X94.31 Y131.516
G0 X94.31 Y132.601
G0 X94.31 Y141.711
G1 F900 E87.15359
G0 F7500 X94.01 Y141.981
;TYPE:WALL-OUTER
