; This file has been post-processed by \\wsl.localhost\Ubuntu\home\wmmc88\git-repos\PrusaSlicer-FlashForge\flashforge_post_process.py
; Original File Location: C:\Users\melvi\AppData\Local\Temp\.36588.gcode.pp


; generated by PrusaSlicer 2.4.0+win64 on 2022-03-05 at 07:07:06 UTC

; 

; external perimeters extrusion width = 0.61mm
; perimeters extrusion width = 0.65mm
; infill extrusion width = 0.70mm
; solid infill extrusion width = 0.65mm
; top infill extrusion width = 0.60mm
; support material extrusion width = 0.55mm
; first layer extrusion width = 0.65mm

; external perimeters extrusion width = 0.61mm
; perimeters extrusion width = 0.65mm
; infill extrusion width = 0.70mm
; solid infill extrusion width = 0.65mm
; top infill extrusion width = 0.60mm
; support material extrusion width = 0.55mm
; first layer extrusion width = 0.65mm

M107
;TYPE:Custom
; **** Start of Start GCode: FlashForge Creator 3 ****
M118 X150.00 Y125.00 Z200.00 T0 T1
; todo: need to post process Active extruders in m118

M108 T0 ; tool change
G90 ; absolute positioning
M108 T0 ; tool change
G90 ; absolute positioning
G1 X187 Y0.000 F12000 ; Move initial extruder over anti-ooze plate

; Set Filament Z-Offset
G1 Z0.000 F720 ;
G92 Z-0.06 ; Value substituted by FFPP script (FFPP-filament_extra_z_offset)(negative is printing higher in air)

M140 S60 T0 ; set bed temperature
M104 S225 T0 ; set right extruder temp
M104 S245 T1 ; set left extruder temp

M7 T0 ; wait for platform
M6 T0 ; wait for temp
M6 T1 ; wait for temp

M106 ; Extruder/Heat Break fan on
M651 S255 ; chassis fan on (after heating reached to speed up heating)

; Purge Filament (gets rid of any curling filament too)
G1 X172 F12000 ; Move initial extruder off anti-ooze plate
G92 E0 ; reset extrusion distance 
G1 F150 E20 ; feed 20mm of feed stock 
G92 E0 ; reset extrusion distance


; M652 ; chassis fan off 
; M109 T1/2 only if dupe or mirror

;layer_count: 150 ; Value substituted by FFPP script (FFPP-calculated-total_layer_count)
; **** End of Start GCode: FlashForge Creator 3 ****
G21 ; set units to millimeters
G90 ; use absolute coordinates
M82 ; use absolute distances for extrusion
G92 E0
; **** Start of Tool Change GCode: FlashForge Creator 3 ****
M108 T0
; **** End of Tool Change GCode: FlashForge Creator 3 ****
G92 E0
; **** Start of Filament-Specific Start GCode: PLA (Hardened 0.6mm) ****

; **** End of Filament-Specific Start GCode: PLA (Hardened 0.6mm) ****
M107
;LAYER_CHANGE
;Z:0.2
;HEIGHT:0.2
; **** Start of Before Layer Change GCode: FlashForge Creator 3 ****
; FFPP-layer_z_height: 0.2 ; Value parsed by FFPP script
;layer:0.200 ; Value substituted by FFPP script (FFPP-calculated-next_layer_height)
; **** End of Before Layer Change GCode: FlashForge Creator 3 ****
G1 Z.4 F720
; **** Start of After Layer Change GCode: FlashForge Creator 3 ****
; **** End of After Layer Change GCode: FlashForge Creator 3 ****
G1 E-2 F1800
G92 E0
G1 X-1.69 Y-22.357 F12000
G1 E2 F1800
M204 S800
;TYPE:Skirt/Brim
;WIDTH:0.65
G1 F480
G1 X7.847 Y-23.078 E2.4828
G1 X33.957 Y-23.085 E3.80081
G1 X35.8 Y-22.321 E3.90153
G1 X43.321 Y-14.8 E4.43846
G1 X44.085 Y-12.957 E4.53918
G1 X44.085 Y12.957 E5.84727
G1 X43.321 Y14.8 E5.94799
G1 X35.8 Y22.321 E6.48492
G1 X33.957 Y23.085 E6.58564
G1 X8.043 Y23.085 E7.89373
G1 X-31.223 Y20.149 E9.88138
G1 X-32.872 Y19.393 E9.97294
G1 X-40.393 Y11.872 E10.50987
G1 X-41.157 Y10.028 E10.61059
G1 X-41.157 Y-10.028 E11.62303
G1 X-40.393 Y-11.872 E11.72376
G1 X-37.824 Y-14.439 E11.90709
G1 X-32.466 Y-19.453 E12.2775
G1 X-30.882 Y-20.149 E12.36488
G1 X-1.78 Y-22.35 E13.83807
M204 S1000
; printing object cam_a.STL id:1 copy 0
;WIPE_START
G1 F9600
G1 X7.847 Y-23.078 E12.11838
G1 X8.859 Y-23.078 E11.93807
;WIPE_END
G1 E11.83807 F1800
G92 E0
G1 X-10.972 Y-16.904 F12000
G1 E2 F1800
M204 S800
;TYPE:Support material interface
;WIDTH:0.55
G1 F480
G1 X-10.972 Y-17.55 E2.02724
G1 X-11.315 Y-17.55 E2.04172
G1 X-11.315 Y17.55 E3.52163
G1 X-12.122 Y17.55 E3.55566
G1 X-12.122 Y-17.55 E5.03558
G1 X-12.929 Y-17.55 E5.06961
G1 X-12.929 Y-.476 E5.78947
G1 X-12.775 Y1.091 E5.85589
G1 X-12.929 Y2.695 E5.92385
G1 X-12.929 Y17.55 E6.55015
G1 X-13.736 Y17.55 E6.58418
G1 X-13.736 Y4.972 E7.1145
G1 X-13.475 Y4.432 E7.1398
M204 S1000
G1 X-13.335 Y4.095 F12000
M204 S800
G1 F480
G1 X-13.19 Y3.69 E7.15794
M204 S1000
G1 X-13.859 Y5.194 F12000
M204 S800
G1 F480
G1 X-14.543 Y6.21 E7.20961
G1 X-14.543 Y17.55 E7.68771
G1 X-15.35 Y17.55 E7.72174
G1 X-15.35 Y7.094 E8.16257
G1 X-16.158 Y7.766 E8.20686
G1 X-16.158 Y17.55 E8.61936
G1 X-16.965 Y17.55 E8.65339
G1 X-16.965 Y8.286 E9.04397
G1 X-17.772 Y8.685 E9.08193
G1 X-17.772 Y17.55 E9.45568
G1 X-18.579 Y17.55 E9.48971
G1 X-18.579 Y8.982 E9.85094
G1 X-19.386 Y9.188 E9.88606
G1 X-19.386 Y17.55 E10.23861
G1 X-20.193 Y17.55 E10.27264
G1 X-20.193 Y9.31 E10.62006
G1 X-21 Y9.351 E10.65413
G1 X-21 Y17.55 E10.99981
G1 X-21.807 Y17.55 E11.03384
G1 X-21.807 Y9.313 E11.38112
G1 X-22.614 Y9.195 E11.41551
G1 X-22.614 Y17.55 E11.76778
G1 X-23.421 Y17.55 E11.80181
G1 X-23.421 Y8.993 E12.16261
G1 X-24.228 Y8.7 E12.19881
G1 X-24.228 Y17.55 E12.57196
G1 X-25.035 Y17.55 E12.60599
G1 X-25.035 Y8.305 E12.99578
G1 X-25.842 Y7.791 E13.03614
G1 X-25.842 Y17.55 E13.44762
G1 X-26.65 Y17.55 E13.48165
G1 X-26.65 Y7.126 E13.92116
G1 X-27.457 Y6.253 E13.97129
G1 X-27.457 Y17.55 E14.44762
G1 X-28.264 Y17.55 E14.48165
G1 X-28.264 Y5.034 E15.00935
G1 X-28.665 Y4.179 E15.04917
M204 S1000
;WIPE_START
G1 F9600
G1 X-28.264 Y5.034 E14.88094
G1 X-28.264 Y14.756 E13.14917
;WIPE_END
G1 E13.04917 F1800
G92 E0
G1 X-31.028 Y16.904 F12000
G1 E2 F1800
M204 S800
G1 F480
G1 X-31.028 Y17.55 E2.02724
G1 X-30.685 Y17.55 E2.04172
G1 X-30.685 Y-17.55 E3.52163
G1 X-29.878 Y-17.55 E3.55566
G1 X-29.878 Y17.55 E5.03558
G1 X-29.071 Y17.55 E5.06961
G1 X-29.071 Y2.857 E5.68911
G1 X-29.258 Y1.128 E5.76242
G1 X-29.071 Y-.638 E5.83729
G1 X-29.071 Y-17.55 E6.55037
G1 X-28.264 Y-17.55 E6.5844
G1 X-28.264 Y-2.815 E7.20566
G1 X-28.665 Y-1.96 E7.24548
M204 S1000
M204 S800
G1 X-28.816 Y-1.553 E7.2638
M204 S1000
G1 X-28.14 Y-3.036 F12000
M204 S800
G1 F480
G1 X-27.457 Y-4.033 E7.31476
G1 X-27.457 Y-17.55 E7.88466
G1 X-26.65 Y-17.55 E7.91869
G1 X-26.65 Y-4.906 E8.45178
G1 X-25.842 Y-5.571 E8.49586
G1 X-25.842 Y-17.55 E9.00092
G1 X-25.035 Y-17.55 E9.03495
G1 X-25.035 Y-6.086 E9.51831
G1 X-24.228 Y-6.48 E9.55619
G1 X-24.228 Y-17.55 E10.02291
G1 X-23.421 Y-17.55 E10.05694
G1 X-23.421 Y-6.773 E10.51131
G1 X-22.614 Y-6.976 E10.5464
G1 X-22.614 Y-17.55 E10.99224
G1 X-21.807 Y-17.55 E11.02627
G1 X-21.807 Y-7.094 E11.46712
G1 X-21 Y-7.132 E11.50119
G1 X-21 Y-17.55 E11.94044
G1 X-20.193 Y-17.55 E11.97447
G1 X-20.193 Y-7.091 E12.41546
G1 X-19.386 Y-6.969 E12.44987
G1 X-19.386 Y-17.55 E12.89599
G1 X-18.579 Y-17.55 E12.93002
G1 X-18.579 Y-6.763 E13.38483
G1 X-17.772 Y-6.466 E13.42109
G1 X-17.772 Y-17.55 E13.88841
G1 X-16.965 Y-17.55 E13.92244
G1 X-16.965 Y-6.067 E14.40659
G1 X-16.158 Y-5.547 E14.44707
G1 X-16.158 Y-17.55 E14.95314
G1 X-15.35 Y-17.55 E14.98717
G1 X-15.35 Y-4.875 E15.52158
G1 X-14.543 Y-3.991 E15.57205
G1 X-14.543 Y-17.55 E16.14372
G1 X-13.736 Y-17.55 E16.17775
G1 X-13.736 Y-2.753 E16.80164
G1 X-13.335 Y-1.876 E16.84231
M204 S1000
;WIPE_START
G1 F9600
G1 X-13.736 Y-2.753 E16.6705
G1 X-13.736 Y-12.455 E14.94231
;WIPE_END
G1 E14.84231 F1800
G92 E0
G1 X-3.798 Y10.028 F12000
G1 E2 F1800
M204 S800
G1 F480
G1 X-3.45 Y10.028 E2.01465
G1 X-3.45 Y-10.028 E2.86031
G1 X-4.051 Y-10.028 E2.88565
G1 X-4.051 Y10.028 E3.73132
G1 X-4.858 Y10.028 E3.76535
G1 X-4.858 Y-10.028 E4.61101
G1 X-5.665 Y-10.028 E4.64504
G1 X-5.665 Y10.028 E5.49071
G1 X-5.958 Y10.028 E5.50302
G1 X-5.958 Y12.535 E5.60873
G1 X-6.473 Y12.535 E5.63045
G1 X-6.473 Y-12.535 E6.68753
G1 X-7.28 Y-12.535 E6.72156
G1 X-7.28 Y12.535 E7.77864
G1 X-8.087 Y12.535 E7.81267
G1 X-8.087 Y-12.535 E8.86975
G1 X-8.465 Y-12.535 E8.88568
G1 X-8.465 Y-15.042 E8.99139
G1 X-8.894 Y-15.042 E9.00949
G1 X-8.894 Y15.042 E10.27799
G1 X-9.701 Y15.042 E10.31202
G1 X-9.701 Y-15.042 E11.58052
G1 X-10.508 Y-15.042 E11.61455
G1 X-10.508 Y15.042 E12.88304
G1 X-10.909 Y15.042 E12.89997
M204 S1000
;WIPE_START
G1 F9600
G1 X-10.508 Y15.042 E12.82847
G1 X-10.508 Y4.777 E10.99997
;WIPE_END
G1 E10.89997 F1800
G92 E0
G1 X-31.091 Y-15.042 F12000
G1 E2 F1800
M204 S800
G1 F480
G1 X-31.492 Y-15.042 E2.01693
G1 X-31.492 Y15.042 E3.28542
G1 X-32.299 Y15.042 E3.31945
G1 X-32.299 Y-15.042 E4.58795
G1 X-33.106 Y-15.042 E4.62198
G1 X-33.106 Y15.042 E5.89048
G1 X-33.535 Y15.042 E5.90858
G1 X-33.535 Y12.535 E6.01429
G1 X-33.913 Y12.535 E6.03022
G1 X-33.913 Y-12.535 E7.0873
G1 X-34.72 Y-12.535 E7.12133
G1 X-34.72 Y12.535 E8.17841
G1 X-35.527 Y12.535 E8.21244
G1 X-35.527 Y-12.535 E9.26952
G1 X-36.042 Y-12.535 E9.29124
G1 X-36.042 Y-10.028 E9.39695
G1 X-36.334 Y-10.028 E9.40926
G1 X-36.335 Y10.028 E10.25493
G1 X-37.142 Y10.028 E10.28896
G1 X-37.142 Y-10.028 E11.13462
G1 X-37.949 Y-10.028 E11.16865
G1 X-37.949 Y10.028 E12.01432
G1 X-38.55 Y10.028 E12.03966
G1 X-38.55 Y-10.028 E12.88532
G1 X-38.202 Y-10.028 E12.89997
M204 S1000
; stop printing object cam_a.STL id:1 copy 0
; printing object cam_b.STL id:0 copy 0
;WIPE_START
G1 F9600
G1 X-38.55 Y-10.028 E12.83809
G1 X-38.55 Y.291 E10.99997
;WIPE_END
G1 E10.89997 F1800
G92 E0
G1 X33.957 Y-17.971 F12000
G1 E2 F1800
M204 S800
;TYPE:Support material
;WIDTH:0.65
G1 F480
G1 X36.464 Y-17.971 E2.12655
G1 X36.464 Y-15.464 E2.25311
G1 X38.971 Y-15.464 E2.37966
G1 X38.971 Y-12.957 E2.50622
G1 X41.478 Y-12.957 E2.63277
G1 X41.478 Y12.957 E3.94086
G1 X38.971 Y12.957 E4.06741
G1 X38.971 Y15.464 E4.19397
G1 X36.464 Y15.464 E4.32052
G1 X36.464 Y17.971 E4.44708
G1 X33.957 Y17.971 E4.57363
G1 X33.957 Y20.478 E4.70019
G1 X8.043 Y20.478 E6.00827
G1 X8.043 Y17.971 E6.13483
G1 X5.536 Y17.971 E6.26138
G1 X5.536 Y15.464 E6.38794
G1 X3.029 Y15.464 E6.51449
G1 X3.029 Y12.957 E6.64104
G1 X.522 Y12.957 E6.7676
G1 X.522 Y-12.957 E8.07568
G1 X3.029 Y-12.957 E8.20224
G1 X3.029 Y-15.464 E8.32879
G1 X5.536 Y-15.464 E8.45535
G1 X5.536 Y-17.971 E8.5819
G1 X8.043 Y-17.971 E8.70846
G1 X8.043 Y-20.478 E8.83501
G1 X33.957 Y-20.478 E10.1431
G1 X33.957 Y-18.062 E10.26506
M204 S1000
G1 X21.043 Y-3.289 F12000
M204 S800
G1 F480
G1 X20.17 Y-3.2 E10.30935
G1 X19.364 Y-2.953 E10.35191
G1 X18.617 Y-2.555 E10.39464
G1 X17.938 Y-1.999 E10.43895
G1 X17.4 Y-1.345 E10.48168
G1 X16.985 Y-.572 E10.52599
G1 X16.739 Y.235 E10.56855
G1 X16.652 Y1.077 E10.61128
G1 X16.733 Y1.951 E10.6556
G1 X16.974 Y2.762 E10.69834
G1 X17.384 Y3.539 E10.74264
G1 X17.917 Y4.196 E10.78536
G1 X18.593 Y4.757 E10.82968
G1 X19.337 Y5.16 E10.87241
G1 X20.142 Y5.412 E10.91496
G1 X21.014 Y5.507 E10.95927
G1 X21.857 Y5.432 E11.002
G1 X22.7 Y5.185 E11.04631
G1 X23.45 Y4.794 E11.08905
G1 X24.116 Y4.262 E11.13204
G1 X24.676 Y3.597 E11.17592
G1 X25.085 Y2.856 E11.21865
G1 X25.352 Y2.02 E11.26296
G1 X25.447 Y1.179 E11.30569
G1 X25.373 Y.304 E11.34999
G1 X25.14 Y-.506 E11.39256
G1 X24.755 Y-1.26 E11.43529
G1 X24.211 Y-1.949 E11.47959
G1 X23.567 Y-2.498 E11.52233
G1 X22.801 Y-2.926 E11.56664
G1 X21.995 Y-3.187 E11.60937
G1 X21.134 Y-3.289 E11.65314
M204 S1000
;WIPE_START
G1 F9600
G1 X21.995 Y-3.187 E11.49869
G1 X22.801 Y-2.926 E11.34789
G1 X23.567 Y-2.498 E11.19156
G1 X24.211 Y-1.949 E11.04074
G1 X24.755 Y-1.26 E10.8844
G1 X25.14 Y-.506 E10.7336
G1 X25.373 Y.304 E10.58342
G1 X25.447 Y1.179 E10.42709
G1 X25.352 Y2.02 E10.2763
G1 X25.085 Y2.856 E10.11994
G1 X24.676 Y3.597 E9.96915
G1 X24.116 Y4.262 E9.81433
G1 X23.847 Y4.476 E9.75314
;WIPE_END
G1 E9.65314 F1800
G92 E0
G1 X40.561 Y12.684 F12000
G1 E2 F1800
M204 S800
G1 F480
G1 X40.561 Y-12.41 E3.26672
G1 X39.887 Y-12.41 E3.30077
G1 X39.887 Y12.41 E4.55369
G1 X39.212 Y12.41 E4.58774
G1 X39.212 Y-12.41 E5.84067
G1 X38.538 Y-12.41 E5.87471
G1 X38.538 Y12.41 E7.12764
G1 X38.425 Y12.41 E7.13336
G1 X38.425 Y14.917 E7.25991
G1 X37.863 Y14.917 E7.28824
G1 X37.863 Y-14.917 E8.79428
G1 X37.189 Y-14.917 E8.82833
G1 X37.189 Y14.917 E10.33436
G1 X36.514 Y14.917 E10.36841
G1 X36.514 Y-14.917 E11.87445
G1 X35.917 Y-14.917 E11.90457
G1 X35.917 Y-17.425 E12.03113
G1 X35.84 Y-17.425 E12.03505
G1 X35.84 Y17.425 E13.79419
G1 X35.165 Y17.425 E13.82824
G1 X35.165 Y-17.425 E15.58739
G1 X34.491 Y-17.425 E15.62144
G1 X34.491 Y17.425 E17.38058
G1 X33.816 Y17.425 E17.41463
G1 X33.816 Y-17.425 E19.17377
G1 X33.41 Y-17.425 E19.19425
G1 X33.41 Y-19.932 E19.32081
G1 X33.142 Y-19.932 E19.33438
G1 X33.142 Y19.932 E21.34663
G1 X32.467 Y19.932 E21.38068
G1 X32.467 Y-19.932 E23.39293
G1 X31.793 Y-19.932 E23.42698
G1 X31.793 Y19.932 E25.43924
G1 X31.118 Y19.932 E25.47328
G1 X31.118 Y-19.932 E27.48554
G1 X30.443 Y-19.932 E27.51959
G1 X30.443 Y19.932 E29.53184
G1 X29.769 Y19.932 E29.56589
G1 X29.769 Y-19.932 E31.57814
G1 X29.094 Y-19.932 E31.61219
G1 X29.094 Y19.932 E33.62444
G1 X28.42 Y19.932 E33.65849
G1 X28.42 Y-19.932 E35.67075
G1 X27.745 Y-19.932 E35.7048
G1 X27.745 Y19.932 E37.71705
G1 X27.071 Y19.932 E37.7511
G1 X27.071 Y-19.932 E39.76335
G1 X26.396 Y-19.932 E39.7974
G1 X26.396 Y19.932 E41.80965
G1 X25.722 Y19.932 E41.8437
G1 X25.722 Y-19.932 E43.85596
G1 X25.047 Y-19.932 E43.89
G1 X25.047 Y-1.801 E44.80522
G1 X24.373 Y-2.552 E44.85619
G1 X24.373 Y-19.932 E45.73347
G1 X23.698 Y-19.932 E45.76752
G1 X23.698 Y-3.067 E46.61885
G1 X23.024 Y-3.425 E46.6574
G1 X23.024 Y-19.932 E47.49065
G1 X22.349 Y-19.932 E47.5247
G1 X22.349 Y-3.662 E48.34598
G1 X21.675 Y-3.796 E48.3807
G1 X21.675 Y-19.932 E49.1952
G1 X21 Y-19.932 E49.22925
G1 X21 Y-3.835 E50.04177
G1 X20.325 Y-3.782 E50.07592
G1 X20.325 Y-19.932 E50.89112
G1 X19.651 Y-19.932 E50.92517
G1 X19.651 Y-3.634 E51.74787
G1 X18.976 Y-3.38 E51.78425
G1 X18.976 Y-19.932 E52.61975
G1 X18.302 Y-19.932 E52.6538
G1 X18.302 Y-3.002 E53.5084
G1 X17.627 Y-2.46 E53.55208
G1 X17.627 Y-19.932 E54.43403
G1 X16.953 Y-19.932 E54.46808
G1 X16.953 Y-1.135 E55.41689
M204 S1000
;WIPE_START
G1 F9600
G1 X16.953 Y-11.802 E53.51689
;WIPE_END
G1 E53.41689 F1800
G92 E0
G1 X25.047 Y20.205 F12000
G1 E2 F1800
M204 S800
G1 F480
G1 X25.047 Y4.018 E2.81708
G1 X24.373 Y4.77 E2.86805
G1 X24.373 Y19.932 E3.6334
G1 X23.698 Y19.932 E3.66745
G1 X23.698 Y5.284 E4.40686
G1 X23.024 Y5.642 E4.44541
G1 X23.024 Y19.932 E5.16674
G1 X22.349 Y19.932 E5.20079
G1 X22.349 Y5.879 E5.91014
G1 X21.675 Y6.013 E5.94486
G1 X21.675 Y19.932 E6.64744
G1 X21 Y19.932 E6.68149
G1 X21 Y6.053 E7.38208
G1 X20.325 Y6 E7.41623
G1 X20.325 Y19.932 E8.1195
G1 X19.651 Y19.932 E8.15355
G1 X19.651 Y5.851 E8.86432
G1 X18.976 Y5.597 E8.9007
G1 X18.976 Y19.932 E9.62428
G1 X18.302 Y19.932 E9.65833
G1 X18.302 Y5.219 E10.401
G1 X17.627 Y4.677 E10.44468
G1 X17.627 Y19.932 E11.21471
G1 X16.953 Y19.932 E11.24876
G1 X16.953 Y3.353 E12.08564
M204 S1000
G1 X16.278 Y20.205 F12000
M204 S800
G1 F480
G1 X16.278 Y-19.932 E14.11169
G1 X15.604 Y-19.932 E14.14573
G1 X15.604 Y19.932 E16.15799
G1 X14.929 Y19.932 E16.19204
G1 X14.929 Y-19.932 E18.20429
G1 X14.255 Y-19.932 E18.23834
G1 X14.255 Y19.932 E20.25059
G1 X13.58 Y19.932 E20.28464
G1 X13.58 Y-19.932 E22.29689
G1 X12.906 Y-19.932 E22.33094
G1 X12.906 Y19.932 E24.3432
G1 X12.231 Y19.932 E24.37725
G1 X12.231 Y-19.932 E26.3895
G1 X11.557 Y-19.932 E26.42355
G1 X11.557 Y19.932 E28.4358
G1 X10.882 Y19.932 E28.46985
G1 X10.882 Y-19.932 E30.4821
G1 X10.207 Y-19.932 E30.51615
G1 X10.207 Y19.932 E32.52841
G1 X9.533 Y19.932 E32.56246
G1 X9.533 Y-19.932 E34.57471
G1 X8.858 Y-19.932 E34.60876
G1 X8.858 Y19.932 E36.62101
G1 X8.59 Y19.932 E36.63458
G1 X8.59 Y17.425 E36.76113
G1 X8.184 Y17.425 E36.78161
G1 X8.184 Y-17.425 E38.54076
G1 X7.509 Y-17.425 E38.57481
G1 X7.509 Y17.425 E40.33395
G1 X6.835 Y17.425 E40.368
G1 X6.835 Y-17.425 E42.12714
G1 X6.16 Y-17.425 E42.16119
G1 X6.16 Y17.425 E43.92034
G1 X6.083 Y17.425 E43.92426
G1 X6.083 Y14.917 E44.05082
G1 X5.486 Y14.917 E44.08094
G1 X5.486 Y-14.917 E45.58698
G1 X4.811 Y-14.917 E45.62103
G1 X4.811 Y14.917 E47.12706
G1 X4.137 Y14.917 E47.16111
G1 X4.137 Y-14.917 E48.66714
G1 X3.575 Y-14.917 E48.69547
G1 X3.575 Y-12.41 E48.82203
G1 X3.462 Y-12.41 E48.82775
G1 X3.462 Y12.41 E50.08067
G1 X2.788 Y12.41 E50.11472
G1 X2.788 Y-12.41 E51.36765
G1 X2.113 Y-12.41 E51.4017
G1 X2.113 Y12.41 E52.65462
