; generated by PrusaSlicer 2.4.0+win64 on 2022-03-07 at 21:20:50 UTC

; 

; external perimeters extrusion width = 0.61mm
; perimeters extrusion width = 0.65mm
; infill extrusion width = 0.70mm
; solid infill extrusion width = 0.65mm
; top infill extrusion width = 0.60mm
; support material extrusion width = 0.55mm
; first layer extrusion width = 0.65mm

; external perimeters extrusion width = 0.61mm
; perimeters extrusion width = 0.65mm
; infill extrusion width = 0.70mm
; solid infill extrusion width = 0.65mm
; top infill extrusion width = 0.60mm
; support material extrusion width = 0.55mm
; first layer extrusion width = 0.65mm

M107
;TYPE:Custom
; **** Start of Start GCode: FlashForge Creator 3 ****
M118 X150.00 Y125.00 Z200.00 T0 T1
; todo: need to post process Active extruders in m118

M108 T0 ; tool change
G90 ; absolute positioning
M108 T0 ; tool change
G90 ; absolute positioning
G1 X187 Y0.000 F12000 ; Move initial extruder over anti-ooze plate

; Set Filament Z-Offset
G1 Z0.000 F720 ;
;FFPP-UNCOMMENT; G92 Z-<FFPP-filament_extra_z_offset> ; Value substituted by FFPP script (FFPP-filament_extra_z_offset)(negative is printing higher in air)

M140 S60 T0 ; set bed temperature
M104 S220 T0 ; set right extruder temp
M104 S245 T1 ; set left extruder temp

M7 T0 ; wait for platform
M6 T0 ; wait for temp
M6 T1 ; wait for temp

M106 ; Extruder/Heat Break fan on
M651 S255 ; chassis fan on (after heating reached to speed up heating)

; Purge Filament (gets rid of any curling filament too)
G1 X172 F12000 ; Move initial extruder off anti-ooze plate
G92 E0 ; reset extrusion distance 
G1 F150 E20 ; feed 20mm of feed stock 
G92 E0 ; reset extrusion distance


; M652 ; chassis fan off 
; M109 T1/2 only if dupe or mirror

;layer_count: <FFPP-calculated-total_layer_count> ; Value substituted by FFPP script (FFPP-calculated-total_layer_count)
; **** End of Start GCode: FlashForge Creator 3 ****
G21 ; set units to millimeters
G90 ; use absolute coordinates
M82 ; use absolute distances for extrusion
G92 E0
; **** Start of Tool Change GCode: FlashForge Creator 3 ****
M108 T0
; **** End of Tool Change GCode: FlashForge Creator 3 ****
T0
G92 E0
; **** Start of Filament-Specific Start GCode: Ingeo PLA 4043D - Peacock Blue (Hardened 0.6mm) ****

; **** End of Filament-Specific Start GCode: Ingeo PLA 4043D - Peacock Blue (Hardened 0.6mm) ****
M107
;LAYER_CHANGE
;Z:0.2
;HEIGHT:0.2
; **** Start of Before Layer Change GCode: FlashForge Creator 3 ****
; FFPP-layer_z_height: 0.2 ; Value parsed by FFPP script
;layer:<FFPP-calculated-next_layer_height> ; Value substituted by FFPP script (FFPP-calculated-next_layer_height)
; **** End of Before Layer Change GCode: FlashForge Creator 3 ****
G1 Z.4 F720
; **** Start of After Layer Change GCode: FlashForge Creator 3 ****
; **** End of After Layer Change GCode: FlashForge Creator 3 ****
G1 E-2 F1800
G92 E0
G1 X1.78 Y22.384 F12000
G1 E2.1 F1800
M204 S800
;TYPE:Skirt/Brim
;WIDTH:0.65
G1 F600
G1 X-7.043 Y23.085 E2.54678
G1 X-32.957 Y23.085 E3.85486
G1 X-34.8 Y22.321 E3.95559
G1 X-42.321 Y14.8 E4.49251
G1 X-43.085 Y12.957 E4.59324
G1 X-43.085 Y-12.957 E5.90132
G1 X-42.321 Y-14.8 E6.00205
G1 X-34.8 Y-22.321 E6.53897
G1 X-32.957 Y-23.085 E6.6397
G1 X-6.838 Y-23.077 E7.95814
G1 X30.234 Y-20.149 E9.83531
G1 X31.872 Y-19.393 E9.92637
G1 X39.393 Y-11.872 E10.46329
G1 X40.157 Y-10.028 E10.56402
G1 X40.157 Y10.028 E11.57646
G1 X39.393 Y11.872 E11.67718
G1 X36.824 Y14.439 E11.86051
G1 X31.466 Y19.453 E12.23092
G1 X29.892 Y20.148 E12.31779
G1 X1.869 Y22.376 E13.73682
M204 S1000
; printing object cam_a.STL id:1 copy 0
;WIPE_START
G1 F9600
G1 X-7.043 Y23.085 E12.14424
G1 X-8.769 Y23.085 E11.83682
;WIPE_END
G1 E11.73682 F1800
G92 E0
G1 X9.972 Y16.904 F12000
G1 E2.1 F1800
M204 S800
;TYPE:Support material interface
;WIDTH:0.55
G1 F600
G1 X9.972 Y17.55 E2.12724
G1 X10.315 Y17.55 E2.14172
G1 X10.315 Y-17.55 E3.62163
G1 X11.122 Y-17.55 E3.65566
G1 X11.122 Y17.55 E5.13558
G1 X11.929 Y17.55 E5.16961
G1 X11.929 Y-17.55 E6.64952
G1 X12.736 Y-17.55 E6.68355
G1 X12.736 Y-4.24 E7.24474
G1 X12.335 Y-3.023 E7.29875
M204 S1000
M204 S800
G1 X12.19 Y-2.294 E7.33008
M204 S1000
;WIPE_START
G1 F9600
G1 X12.335 Y-3.023 E7.19771
;WIPE_END
G1 E5.33008 F1800
G92 E0
G1 X13.141 Y-5.072 F12000
G1 E2.1 F1800
M204 S800
G1 F600
G1 X13.543 Y-5.721 E2.1322
G1 X13.543 Y-17.55 E2.63095
G1 X14.35 Y-17.55 E2.66498
G1 X14.35 Y-6.72 E3.12161
G1 X15.158 Y-7.466 E3.16797
G1 X15.158 Y-17.55 E3.59312
G1 X15.965 Y-17.55 E3.62715
G1 X15.965 Y-8.042 E4.02802
G1 X16.772 Y-8.487 E4.06687
G1 X16.772 Y-17.55 E4.449
G1 X17.579 Y-17.55 E4.48302
G1 X17.579 Y-8.823 E4.85098
G1 X18.386 Y-9.064 E4.8865
G1 X18.386 Y-17.55 E5.24429
G1 X19.193 Y-17.55 E5.27832
G1 X19.193 Y-9.218 E5.6296
G1 X20 Y-9.291 E5.66377
G1 X20 Y-17.55 E6.01196
G1 X20.807 Y-17.55 E6.04599
G1 X20.807 Y-9.285 E6.39445
G1 X21.614 Y-9.199 E6.42867
G1 X21.614 Y-17.55 E6.78076
G1 X22.421 Y-17.55 E6.81479
G1 X22.421 Y-9.031 E7.17397
G1 X23.228 Y-8.775 E7.20967
G1 X23.228 Y-17.55 E7.57964
G1 X24.035 Y-17.55 E7.61367
G1 X24.035 Y-8.423 E7.99849
G1 X24.842 Y-7.959 E8.03774
G1 X24.842 Y-17.55 E8.44213
G1 X25.65 Y-17.55 E8.47616
G1 X25.65 Y-7.359 E8.90585
G1 X26.457 Y-6.579 E8.95318
G1 X26.457 Y-17.55 E9.41576
G1 X27.264 Y-17.55 E9.44979
G1 X27.264 Y-5.525 E9.9568
G1 X27.665 Y-4.831 E9.99061
M204 S1000
;WIPE_START
G1 F9600
G1 X27.264 Y-5.525 E9.84779
G1 X27.264 Y-15.39 E8.09061
;WIPE_END
G1 E7.99061 F1800
G92 E0
G1 X28.472 Y-2.385 F12000
G1 E2.1 F1800
M204 S800
G1 F600
G1 X28.071 Y-3.909 E2.16645
G1 X28.071 Y-17.55 E2.74161
G1 X28.878 Y-17.55 E2.77564
G1 X28.878 Y17.55 E4.25555
G1 X29.685 Y17.55 E4.28958
G1 X29.685 Y-17.55 E5.76949
G1 X30.028 Y-17.55 E5.78397
G1 X30.028 Y-16.904 E5.81121
M204 S1000
;WIPE_START
G1 F9600
G1 X30.028 Y-17.55 E5.69614
G1 X29.685 Y-17.55 E5.63497
G1 X29.685 Y-7.872 E3.91121
;WIPE_END
G1 E3.81121 F1800
G92 E0
G1 X9.909 Y-15.042 F12000
G1 E2.1 F1800
M204 S800
G1 F600
G1 X9.508 Y-15.042 E2.11693
G1 X9.508 Y15.042 E3.38542
G1 X8.701 Y15.042 E3.41945
G1 X8.701 Y-15.042 E4.68795
G1 X7.894 Y-15.042 E4.72198
G1 X7.894 Y15.042 E5.99048
G1 X7.465 Y15.042 E6.00858
G1 X7.465 Y12.535 E6.11429
G1 X7.087 Y12.535 E6.13022
G1 X7.087 Y-12.535 E7.1873
G1 X6.28 Y-12.535 E7.22133
G1 X6.28 Y12.535 E8.27841
G1 X5.473 Y12.535 E8.31244
G1 X5.473 Y-12.535 E9.36952
G1 X4.958 Y-12.535 E9.39124
G1 X4.958 Y-10.028 E9.49695
G1 X4.666 Y-10.028 E9.50926
G1 X4.665 Y10.028 E10.35493
G1 X3.858 Y10.028 E10.38896
G1 X3.858 Y-10.028 E11.23462
G1 X3.051 Y-10.028 E11.26865
G1 X3.051 Y10.028 E12.11432
G1 X2.45 Y10.028 E12.13966
G1 X2.45 Y-10.028 E12.98532
G1 X2.798 Y-10.028 E12.99997
M204 S1000
;WIPE_START
G1 F9600
G1 X2.45 Y-10.028 E12.93809
G1 X2.45 Y.291 E11.09997
;WIPE_END
G1 E10.99997 F1800
G92 E0
G1 X12.335 Y.91 F12000
G1 E2.1 F1800
M204 S800
G1 F600
G1 X12.736 Y2.126 E2.15401
G1 X12.736 Y17.55 E2.80433
G1 X13.543 Y17.55 E2.83836
G1 X13.543 Y3.607 E3.42624
G1 X13.282 Y3.201 E3.44658
M204 S1000
G1 X13.69 Y3.814 F12000
M204 S800
G1 F600
G1 X14.35 Y4.606 E3.49007
G1 X14.35 Y17.55 E4.03583
G1 X15.158 Y17.55 E4.06986
G1 X15.158 Y5.353 E4.58413
G1 X15.965 Y5.928 E4.62593
G1 X15.965 Y17.55 E5.11594
G1 X16.772 Y17.55 E5.14996
G1 X16.772 Y6.373 E5.62122
G1 X17.579 Y6.709 E5.65808
G1 X17.579 Y17.55 E6.11517
G1 X18.386 Y17.55 E6.1492
G1 X18.386 Y6.95 E6.59612
G1 X19.193 Y7.105 E6.63077
G1 X19.193 Y17.55 E7.07117
G1 X20 Y17.55 E7.1052
G1 X20 Y7.178 E7.54252
G1 X20.807 Y7.171 E7.57655
G1 X20.807 Y17.55 E8.01414
G1 X21.614 Y17.55 E8.04817
G1 X21.614 Y7.085 E8.48939
G1 X22.421 Y6.917 E8.52415
G1 X22.421 Y17.55 E8.97246
G1 X23.228 Y17.55 E9.00649
G1 X23.228 Y6.661 E9.46559
G1 X24.035 Y6.309 E9.50272
G1 X24.035 Y17.55 E9.97667
G1 X24.842 Y17.55 E10.0107
G1 X24.842 Y5.845 E10.50422
G1 X25.65 Y5.245 E10.54662
G1 X25.65 Y17.55 E11.06544
G1 X26.457 Y17.55 E11.09946
G1 X26.457 Y4.465 E11.65117
G1 X27.123 Y3.622 E11.69648
M204 S1000
G1 X27.53 Y2.969 F12000
M204 S800
G1 F600
G1 X27.264 Y3.411 E11.71824
G1 X27.264 Y17.55 E12.31438
G1 X28.071 Y17.55 E12.34841
G1 X28.071 Y1.795 E13.0127
G1 X28.472 Y.271 E13.07915
M204 S1000
;WIPE_START
G1 F9600
G1 X28.071 Y1.795 E12.79843
G1 X28.071 Y10.885 E11.17915
;WIPE_END
G1 E11.07915 F1800
G92 E0
G1 X37.202 Y10.028 F12000
G1 E2.1 F1800
M204 S800
G1 F600
G1 X37.55 Y10.028 E2.11465
G1 X37.55 Y-10.028 E2.96031
G1 X36.949 Y-10.028 E2.98565
G1 X36.949 Y10.028 E3.83132
G1 X36.142 Y10.028 E3.86535
G1 X36.142 Y-10.028 E4.71101
G1 X35.335 Y-10.028 E4.74504
G1 X35.335 Y10.028 E5.59071
G1 X35.042 Y10.028 E5.60302
G1 X35.042 Y12.535 E5.70873
G1 X34.527 Y12.535 E5.73045
G1 X34.527 Y-12.535 E6.78753
G1 X33.72 Y-12.535 E6.82156
G1 X33.72 Y12.535 E7.87864
G1 X32.913 Y12.535 E7.91267
G1 X32.913 Y-12.535 E8.96975
G1 X32.535 Y-12.535 E8.98568
G1 X32.535 Y-15.042 E9.09139
G1 X32.106 Y-15.042 E9.10949
G1 X32.106 Y15.042 E10.37799
G1 X31.299 Y15.042 E10.41202
G1 X31.299 Y-15.042 E11.68052
G1 X30.492 Y-15.042 E11.71455
G1 X30.492 Y15.042 E12.98304
G1 X30.091 Y15.042 E12.99997
M204 S1000
; stop printing object cam_a.STL id:1 copy 0
; printing object cam_b.STL id:0 copy 0
;WIPE_START
G1 F9600
G1 X30.492 Y15.042 E12.92847
G1 X30.492 Y4.777 E11.09997
;WIPE_END
G1 E10.99997 F1800
G92 E0
G1 X-7.043 Y-17.971 F12000
G1 E2.1 F1800
M204 S800
;TYPE:Support material
;WIDTH:0.65
G1 F600
G1 X-4.536 Y-17.971 E2.22655
G1 X-4.536 Y-15.464 E2.35311
G1 X-2.029 Y-15.464 E2.47966
G1 X-2.029 Y-12.957 E2.60622
G1 X.478 Y-12.957 E2.73277
G1 X.478 Y12.957 E4.04086
G1 X-2.029 Y12.957 E4.16741
G1 X-2.029 Y15.464 E4.29397
G1 X-4.536 Y15.464 E4.42052
G1 X-4.536 Y17.971 E4.54708
G1 X-7.043 Y17.971 E4.67363
G1 X-7.043 Y20.478 E4.80019
G1 X-32.957 Y20.478 E6.10827
G1 X-32.957 Y17.971 E6.23483
G1 X-35.464 Y17.971 E6.36138
G1 X-35.464 Y15.464 E6.48794
G1 X-37.971 Y15.464 E6.61449
G1 X-37.971 Y12.957 E6.74104
G1 X-40.478 Y12.957 E6.8676
G1 X-40.478 Y-12.957 E8.17568
G1 X-37.971 Y-12.957 E8.30224
G1 X-37.971 Y-15.464 E8.42879
G1 X-35.464 Y-15.464 E8.55535
G1 X-35.464 Y-17.971 E8.6819
G1 X-32.957 Y-17.971 E8.80846
G1 X-32.957 Y-20.478 E8.93501
G1 X-7.043 Y-20.478 E10.2431
G1 X-7.043 Y-18.062 E10.36506
M204 S1000
G1 X-19.679 Y-5.455 F12000
M204 S800
G1 F600
G1 X-20.521 Y-5.37 E10.40779
G1 X-21.361 Y-5.113 E10.4521
G1 X-22.107 Y-4.713 E10.49484
G1 X-22.765 Y-4.173 E10.53783
G1 X-23.318 Y-3.502 E10.5817
G1 X-23.718 Y-2.756 E10.62443
G1 X-23.975 Y-1.917 E10.66873
G1 X-24.06 Y-1.074 E10.71147
G1 X-23.981 Y-.226 E10.75447
G1 X-23.733 Y.607 E10.79834
G1 X-23.339 Y1.356 E10.84107
G1 X-22.786 Y2.038 E10.88537
G1 X-22.136 Y2.579 E10.9281
G1 X-21.364 Y2.998 E10.97242
G1 X-20.555 Y3.249 E11.01516
G1 X-19.683 Y3.341 E11.05946
G1 X-18.839 Y3.264 E11.1022
G1 X-17.998 Y3.014 E11.1465
G1 X-17.249 Y2.62 E11.18924
G1 X-16.567 Y2.068 E11.23354
G1 X-16.025 Y1.417 E11.27627
G1 X-15.607 Y.645 E11.32059
G1 X-15.355 Y-.163 E11.36331
G1 X-15.264 Y-1.001 E11.40588
G1 X-15.334 Y-1.841 E11.44844
G1 X-15.576 Y-2.685 E11.49274
G1 X-15.964 Y-3.438 E11.53548
G1 X-16.51 Y-4.125 E11.57978
G1 X-17.156 Y-4.672 E11.62251
G1 X-17.924 Y-5.097 E11.66682
G1 X-18.73 Y-5.355 E11.70955
G1 X-19.588 Y-5.454 E11.75314
M204 S1000
;WIPE_START
G1 F9600
G1 X-18.73 Y-5.355 E11.59933
G1 X-17.924 Y-5.097 E11.44855
G1 X-17.156 Y-4.672 E11.29219
G1 X-16.51 Y-4.125 E11.14139
G1 X-15.964 Y-3.438 E10.98506
G1 X-15.576 Y-2.685 E10.83424
G1 X-15.334 Y-1.841 E10.67792
G1 X-15.264 Y-1.001 E10.52775
G1 X-15.355 Y-.163 E10.37755
G1 X-15.607 Y.645 E10.22678
G1 X-16.025 Y1.417 E10.07041
G1 X-16.567 Y2.068 E9.91962
G1 X-16.857 Y2.303 E9.85314
;WIPE_END
G1 E9.75314 F1800
G92 E0
G1 X-.439 Y12.684 F12000
G1 E2.1 F1800
M204 S800
G1 F600
G1 X-.439 Y-12.41 E3.36672
G1 X-1.113 Y-12.41 E3.40077
G1 X-1.113 Y12.41 E4.65369
G1 X-1.788 Y12.41 E4.68774
G1 X-1.788 Y-12.41 E5.94067
G1 X-2.462 Y-12.41 E5.97471
G1 X-2.462 Y12.41 E7.22764
G1 X-2.575 Y12.41 E7.23336
G1 X-2.575 Y14.917 E7.35991
G1 X-3.137 Y14.917 E7.38824
G1 X-3.137 Y-14.917 E8.89428
G1 X-3.811 Y-14.917 E8.92833
G1 X-3.811 Y14.917 E10.43436
G1 X-4.486 Y14.917 E10.46841
G1 X-4.486 Y-14.917 E11.97445
G1 X-5.083 Y-14.917 E12.00457
G1 X-5.083 Y-17.425 E12.13113
G1 X-5.16 Y-17.425 E12.13505
G1 X-5.16 Y17.425 E13.89419
G1 X-5.835 Y17.425 E13.92824
G1 X-5.835 Y-17.425 E15.68739
G1 X-6.509 Y-17.425 E15.72144
G1 X-6.509 Y17.425 E17.48058
G1 X-7.184 Y17.425 E17.51463
G1 X-7.184 Y-17.425 E19.27377
G1 X-7.59 Y-17.425 E19.29425
G1 X-7.59 Y-19.932 E19.42081
G1 X-7.858 Y-19.932 E19.43438
G1 X-7.858 Y19.932 E21.44663
G1 X-8.533 Y19.932 E21.48068
G1 X-8.533 Y-19.932 E23.49293
G1 X-9.207 Y-19.932 E23.52698
G1 X-9.207 Y19.932 E25.53924
G1 X-9.882 Y19.932 E25.57328
G1 X-9.882 Y-19.932 E27.58554
G1 X-10.557 Y-19.932 E27.61959
G1 X-10.557 Y19.932 E29.63184
G1 X-11.231 Y19.932 E29.66589
G1 X-11.231 Y-19.932 E31.67814
G1 X-11.906 Y-19.932 E31.71219
G1 X-11.906 Y19.932 E33.72444
G1 X-12.58 Y19.932 E33.75849
G1 X-12.58 Y-19.932 E35.77075
G1 X-13.255 Y-19.932 E35.8048
G1 X-13.255 Y19.932 E37.81705
G1 X-13.929 Y19.932 E37.8511
G1 X-13.929 Y-19.932 E39.86335
G1 X-14.604 Y-19.932 E39.8974
G1 X-14.604 Y19.932 E41.90965
G1 X-15.278 Y19.932 E41.9437
G1 X-15.278 Y1.23 E42.88772
G1 X-15.953 Y2.213 E42.94787
G1 X-15.953 Y19.932 E43.84229
G1 X-16.627 Y19.932 E43.87634
G1 X-16.627 Y2.847 E44.73877
G1 X-17.302 Y3.288 E44.77945
G1 X-17.302 Y19.932 E45.6196
G1 X-17.976 Y19.932 E45.65365
G1 X-17.976 Y3.591 E46.47849
G1 X-18.651 Y3.783 E46.51389
G1 X-18.651 Y19.932 E47.32906
G1 X-19.325 Y19.932 E47.36311
G1 X-19.325 Y3.876 E48.17358
G1 X-20 Y3.876 E48.20763
G1 X-20 Y19.932 E49.01811
G1 X-20.675 Y19.932 E49.05216
G1 X-20.675 Y3.783 E49.86734
G1 X-21.349 Y3.591 E49.90274
G1 X-21.349 Y19.932 E50.72762
G1 X-22.024 Y19.932 E50.76167
G1 X-22.024 Y3.287 E51.60189
G1 X-22.698 Y2.845 E51.64258
G1 X-22.698 Y19.932 E52.50509
G1 X-23.373 Y19.932 E52.53914
G1 X-23.373 Y2.21 E53.43369
G1 X-24.047 Y1.226 E53.49391
G1 X-24.047 Y19.932 E54.43812
G1 X-24.722 Y19.932 E54.47217
G1 X-24.722 Y-19.932 E56.48443
G1 X-24.047 Y-19.932 E56.51848
G1 X-24.047 Y-3.34 E57.35599
G1 X-23.373 Y-4.324 E57.41621
G1 X-23.373 Y-19.932 E58.20405
G1 X-22.698 Y-19.932 E58.2381
G1 X-22.698 Y-4.959 E58.9939
G1 X-22.024 Y-5.401 E59.0346
G1 X-22.024 Y-19.932 E59.7681
G1 X-21.349 Y-19.932 E59.80215
G1 X-21.349 Y-5.704 E60.52033
G1 X-20.675 Y-5.896 E60.55573
G1 X-20.675 Y-19.932 E61.26421
G1 X-20 Y-19.932 E61.29826
G1 X-20 Y-5.99 E62.00203
G1 X-19.325 Y-5.99 E62.03608
G1 X-19.325 Y-19.932 E62.73985
G1 X-18.651 Y-19.932 E62.7739
G1 X-18.651 Y-5.897 E63.48236
G1 X-17.976 Y-5.705 E63.51775
G1 X-17.976 Y-19.932 E64.23589
G1 X-17.302 Y-19.932 E64.26994
G1 X-17.302 Y-5.402 E65.00339
G1 X-16.627 Y-4.961 E65.04407
G1 X-16.627 Y-19.932 E65.79979
G1 X-15.953 Y-19.932 E65.83384
G1 X-15.953 Y-4.327 E66.62156
G1 X-15.278 Y-3.344 E66.68171
G1 X-15.278 Y-20.205 E67.53281
M204 S1000
;WIPE_START
G1 F9600
G1 X-15.278 Y-9.538 E65.63281
;WIPE_END
G1 E65.53281 F1800
G92 E0
G1 X-25.396 Y20.205 F12000
G1 E2.1 F1800
M204 S800
G1 F600
G1 X-25.396 Y-19.932 E4.12604
G1 X-26.071 Y-19.932 E4.16009
G1 X-26.071 Y19.932 E6.17234
G1 X-26.745 Y19.932 E6.20639
G1 X-26.745 Y-19.932 E8.21865
G1 X-27.42 Y-19.932 E8.2527
G1 X-27.42 Y19.932 E10.26495
G1 X-28.094 Y19.932 E10.299
G1 X-28.094 Y-19.932 E12.31125
G1 X-28.769 Y-19.932 E12.3453
G1 X-28.769 Y19.932 E14.35755
G1 X-29.443 Y19.932 E14.3916
G1 X-29.443 Y-19.932 E16.40386
G1 X-30.118 Y-19.932 E16.43791
G1 X-30.118 Y19.932 E18.45016
G1 X-30.793 Y19.932 E18.48421
G1 X-30.793 Y-19.932 E20.49646
G1 X-31.467 Y-19.932 E20.53051
G1 X-31.467 Y19.932 E22.54276
G1 X-32.142 Y19.932 E22.57681
G1 X-32.142 Y-19.932 E24.58907
G1 X-32.41 Y-19.932 E24.60263
G1 X-32.41 Y-17.425 E24.72919
G1 X-32.816 Y-17.425 E24.74967
G1 X-32.816 Y17.425 E26.50881
G1 X-33.491 Y17.425 E26.54286
G1 X-33.491 Y-17.425 E28.30201
G1 X-34.165 Y-17.425 E28.33606
G1 X-34.165 Y17.425 E30.0952
G1 X-34.84 Y17.425 E30.12925
G1 X-34.84 Y-17.425 E31.88839
G1 X-34.917 Y-17.425 E31.89232
G1 X-34.917 Y-14.917 E32.01887
G1 X-35.514 Y-14.917 E32.049
G1 X-35.514 Y14.917 E33.55503
G1 X-36.189 Y14.917 E33.58908
G1 X-36.189 Y-14.917 E35.09511
G1 X-36.863 Y-14.917 E35.12916
