;FLAVOR:Marlin
;TIME:4771
;Filament used: 3.64594m
;Layer height: 0.25
;MINX:86.816
;MINY:95.7
;MINZ:0.28
;MAXX:133.184
;MAXY:138.384
;MAXZ:12.78
;Generated with Cura_SteamEngine 4.13.1
M140 S85
M105
M190 S85
M104 S245
M105
M109 S245
M82 ;absolute extrusion mode
; Ender 3 Custom Start G-code
G92 E0 ; Reset Extruder
G28 ; Home all axes
G1 Z2.0 F3000 ; Move Z Axis up little to prevent scratching of Heat Bed
G1 X0.1 Y20 Z0.3 F5000.0 ; Move to start position
G1 X0.1 Y200.0 Z0.3 F1500.0 E15 ; Draw the first line
G1 X0.4 Y200.0 Z0.3 F5000.0 ; Move to side a little
G1 X0.4 Y20 Z0.3 F1500.0 E30 ; Draw the second line
G92 E0 ; Reset Extruder
G1 Z2.0 F3000 ; Move Z Axis up little to prevent scratching of Heat Bed
G1 X5 Y20 Z0.3 F5000.0 ; Move over to prevent blob squish
G92 E0
G92 E0
G1 F900 E-7
;LAYER_COUNT:51
;LAYER:0
M107
G0 F7500 X88.961 Y96.155 Z0.28
;TYPE:SKIRT
G1 F900 E0
G1 F1500 X89.269 Y95.935 E0.01428
G1 X89.617 Y95.783 E0.0286
G1 X90.158 Y95.7 E0.04924
G1 X97.641 Y95.7 E0.33148
G1 X98.018 Y95.74 E0.34578
G1 X98.378 Y95.858 E0.36007
G1 X98.705 Y96.048 E0.37433
G1 X98.986 Y96.303 E0.38864
G1 X99.206 Y96.612 E0.40295
G1 X99.358 Y96.959 E0.41724
G1 X99.441 Y97.5 E0.43788
G1 X99.442 Y122.5 E1.38081
G1 X99.402 Y122.877 E1.39511
G1 X99.284 Y123.237 E1.40939
G1 X99.094 Y123.564 E1.42366
G1 X98.839 Y123.845 E1.43797
G1 X98.531 Y124.065 E1.45225
G1 X98.183 Y124.217 E1.46657
G1 X97.642 Y124.3 E1.48721
G1 X90.159 Y124.3 E1.76945
G1 X89.782 Y124.26 E1.78375
G1 X89.422 Y124.142 E1.79804
G1 X89.095 Y123.952 E1.8123
G1 X88.814 Y123.697 E1.82661
G1 X88.594 Y123.388 E1.84092
G1 X88.442 Y123.041 E1.85521
G1 X88.359 Y122.5 E1.87585
G1 X88.358 Y97.5 E2.81878
G1 X88.398 Y97.123 E2.83308
G1 X88.516 Y96.763 E2.84737
G1 X88.706 Y96.436 E2.86163
G1 X88.961 Y96.155 E2.87594
G0 F7500 X89.351 Y96.356
G1 F1500 X89.645 Y96.197 E2.88855
G1 X89.969 Y96.113 E2.90117
G1 X90.158 Y96.1 E2.90832
G1 X97.641 Y96.1 E3.19055
G1 X97.973 Y96.14 E3.20317
G1 X98.285 Y96.257 E3.21573
G1 X98.562 Y96.445 E3.22836
G1 X98.785 Y96.693 E3.24094
G1 X98.944 Y96.987 E3.25355
G1 X99.028 Y97.311 E3.26617
G1 X99.041 Y97.5 E3.27332
G1 X99.042 Y122.5 E4.21624
G1 X99.002 Y122.832 E4.22885
G1 X98.885 Y123.144 E4.24142
G1 X98.697 Y123.421 E4.25405
G1 X98.449 Y123.644 E4.26663
G1 X98.155 Y123.803 E4.27923
G1 X97.831 Y123.887 E4.29186
G1 X97.642 Y123.9 E4.299
G1 X90.159 Y123.9 E4.58124
G1 X89.827 Y123.86 E4.59385
G1 X89.515 Y123.743 E4.60642
G1 X89.238 Y123.555 E4.61905
G1 X89.015 Y123.307 E4.63163
G1 X88.856 Y123.013 E4.64423
G1 X88.772 Y122.689 E4.65686
G1 X88.759 Y122.5 E4.664
G1 X88.758 Y97.5 E5.60693
G1 X88.798 Y97.168 E5.61954
G1 X88.915 Y96.856 E5.63211
G1 X89.103 Y96.579 E5.64473
G1 X89.351 Y96.356 E5.65731
G0 F7500 X89.497 Y96.749
G1 F1500 X89.733 Y96.595 E5.66794
G1 X90.003 Y96.512 E5.6786
G1 X90.158 Y96.5 E5.68446
G1 X97.641 Y96.5 E5.9667
G1 X97.92 Y96.54 E5.97733
G1 X98.177 Y96.656 E5.98796
G1 X98.392 Y96.839 E5.99861
G1 X98.546 Y97.075 E6.00924
G1 X98.629 Y97.345 E6.01989
G1 X98.641 Y97.5 E6.02576
G1 X98.642 Y122.5 E6.96868
G1 X98.602 Y122.779 E6.97931
G1 X98.486 Y123.036 E6.98995
G1 X98.303 Y123.251 E7.0006
G1 X98.067 Y123.405 E7.01123
G1 X97.797 Y123.488 E7.02188
G1 X97.642 Y123.5 E7.02774
G1 X90.159 Y123.5 E7.30998
G1 X89.88 Y123.46 E7.32061
G1 X89.623 Y123.344 E7.33124
G1 X89.408 Y123.161 E7.34189
G1 X89.254 Y122.925 E7.35252
G1 X89.171 Y122.655 E7.36318
G1 X89.159 Y122.5 E7.36904
G1 X89.158 Y97.5 E8.31196
G1 X89.198 Y97.221 E8.3226
G1 X89.314 Y96.964 E8.33323
G1 X89.497 Y96.749 E8.34388
G0 F7500 X89.711 Y97.099
G1 F1500 X89.884 Y96.966 E8.35211
G1 X90.158 Y96.9 E8.36274
G1 X97.641 Y96.9 E8.64498
G1 X97.856 Y96.94 E8.65322
G1 X98.042 Y97.053 E8.66143
G1 X98.175 Y97.226 E8.66966
G1 X98.241 Y97.5 E8.68029
G1 X98.242 Y122.5 E9.62322
G1 X98.202 Y122.715 E9.63147
G1 X98.089 Y122.901 E9.63967
G1 X97.916 Y123.034 E9.64791
G1 X97.642 Y123.1 E9.65854
G1 X90.159 Y123.1 E9.94077
G1 X89.944 Y123.06 E9.94902
G1 X89.758 Y122.947 E9.95723
G1 X89.625 Y122.774 E9.96546
G1 X89.559 Y122.5 E9.97609
G1 X89.558 Y97.5 E10.91901
G1 X89.598 Y97.285 E10.92726
G1 X89.711 Y97.099 E10.93547
G0 F7500 X89.997 Y97.381
G1 F1500 X90.158 Y97.3 E10.94227
G1 X97.641 Y97.3 E11.2245
G1 X97.76 Y97.339 E11.22923
G1 X97.841 Y97.5 E11.23603
G1 X97.842 Y122.5 E12.17895
G1 X97.803 Y122.619 E12.18367
G1 X97.642 Y122.7 E12.19047
G1 X90.159 Y122.7 E12.47271
G1 X90.04 Y122.661 E12.47743
G1 X89.959 Y122.5 E12.48423
G1 X89.958 Y97.5 E13.42715
G1 X89.997 Y97.381 E13.43188
G1 F900 E6.43188
G0 F7500 X89.997 Y96.835
G0 X98.294 Y96.847
G0 X104.458 Y97.5
G1 F900 E13.43188
G1 F1500 X104.498 Y97.123 E13.44618
G1 X104.616 Y96.763 E13.46046
G1 X104.806 Y96.436 E13.47473
G1 X105.061 Y96.155 E13.48904
G1 X105.369 Y95.935 E13.50332
G1 X105.717 Y95.783 E13.51764
G1 X106.258 Y95.7 E13.53828
G1 X113.741 Y95.7 E13.82052
G1 X114.118 Y95.74 E13.83482
G1 X114.478 Y95.858 E13.84911
G1 X114.805 Y96.048 E13.86337
G1 X115.086 Y96.303 E13.87768
G1 X115.306 Y96.612 E13.89199
G1 X115.458 Y96.959 E13.90628
G1 X115.541 Y97.5 E13.92692
G1 X115.542 Y122.5 E14.86985
G1 X115.502 Y122.877 E14.88415
G1 X115.384 Y123.237 E14.89843
G1 X115.194 Y123.564 E14.9127
G1 X114.939 Y123.845 E14.92701
G1 X114.631 Y124.065 E14.94129
G1 X114.283 Y124.217 E14.95561
G1 X113.742 Y124.3 E14.97625
G1 X106.259 Y124.3 E15.25849
G1 X105.882 Y124.26 E15.27279
G1 X105.522 Y124.142 E15.28708
G1 X105.195 Y123.952 E15.30134
G1 X104.914 Y123.697 E15.31565
G1 X104.694 Y123.388 E15.32996
G1 X104.542 Y123.041 E15.34425
G1 X104.459 Y122.5 E15.36489
G1 X104.458 Y97.5 E16.30782
G0 F7500 X104.858 Y97.5
G1 F1500 X104.898 Y97.168 E16.32043
G1 X105.015 Y96.856 E16.333
G1 X105.203 Y96.579 E16.34562
G1 X105.451 Y96.356 E16.3582
G1 X105.745 Y96.197 E16.37081
G1 X106.069 Y96.113 E16.38343
G1 X106.258 Y96.1 E16.39058
G1 X113.741 Y96.1 E16.67282
G1 X114.073 Y96.14 E16.68543
G1 X114.385 Y96.257 E16.698
G1 X114.662 Y96.445 E16.71062
G1 X114.885 Y96.693 E16.7232
G1 X115.044 Y96.987 E16.73581
G1 X115.128 Y97.311 E16.74843
G1 X115.141 Y97.5 E16.75558
G1 X115.142 Y122.5 E17.6985
G1 X115.102 Y122.832 E17.71112
G1 X114.985 Y123.144 E17.72368
G1 X114.797 Y123.421 E17.73631
G1 X114.549 Y123.644 E17.74889
G1 X114.255 Y123.803 E17.7615
G1 X113.931 Y123.887 E17.77412
G1 X113.742 Y123.9 E17.78127
G1 X106.259 Y123.9 E18.0635
G1 X105.927 Y123.86 E18.07612
G1 X105.615 Y123.743 E18.08868
G1 X105.338 Y123.555 E18.10131
G1 X105.115 Y123.307 E18.11389
G1 X104.956 Y123.013 E18.1265
G1 X104.872 Y122.689 E18.13912
G1 X104.859 Y122.5 E18.14627
G1 X104.858 Y97.5 E19.08919
G0 F7500 X105.258 Y97.5
G1 F1500 X105.298 Y97.221 E19.09982
G1 X105.414 Y96.964 E19.11046
G1 X105.597 Y96.749 E19.1211
G1 X105.833 Y96.595 E19.13173
G1 X106.103 Y96.512 E19.14239
G1 X106.258 Y96.5 E19.14825
G1 X113.741 Y96.5 E19.43049
G1 X114.02 Y96.54 E19.44112
G1 X114.277 Y96.656 E19.45175
G1 X114.492 Y96.839 E19.4624
G1 X114.646 Y97.075 E19.47303
G1 X114.729 Y97.345 E19.48368
G1 X114.741 Y97.5 E19.48955
G1 X114.742 Y122.5 E20.43247
G1 X114.702 Y122.779 E20.4431
G1 X114.586 Y123.036 E20.45374
G1 X114.403 Y123.251 E20.46439
G1 X114.167 Y123.405 E20.47502
G1 X113.897 Y123.488 E20.48567
G1 X113.742 Y123.5 E20.49153
G1 X106.259 Y123.5 E20.77377
G1 X105.98 Y123.46 E20.7844
G1 X105.723 Y123.344 E20.79503
G1 X105.508 Y123.161 E20.80568
G1 X105.354 Y122.925 E20.81631
G1 X105.271 Y122.655 E20.82697
G1 X105.259 Y122.5 E20.83283
G1 X105.258 Y97.5 E21.77575
G0 F7500 X105.658 Y97.5
G1 F1500 X105.698 Y97.285 E21.784
G1 X105.811 Y97.099 E21.79221
G1 X105.984 Y96.966 E21.80044
G1 X106.258 Y96.9 E21.81107
G1 X113.741 Y96.9 E22.09331
G1 X113.956 Y96.94 E22.10156
G1 X114.142 Y97.053 E22.10977
G1 X114.275 Y97.226 E22.118
G1 X114.341 Y97.5 E22.12863
G1 X114.342 Y122.5 E23.07155
G1 X114.302 Y122.715 E23.0798
G1 X114.189 Y122.901 E23.08801
G1 X114.016 Y123.034 E23.09624
G1 X113.742 Y123.1 E23.10687
G1 X106.259 Y123.1 E23.3891
G1 X106.044 Y123.06 E23.39735
G1 X105.858 Y122.947 E23.40556
G1 X105.725 Y122.774 E23.41379
G1 X105.659 Y122.5 E23.42442
G1 X105.658 Y97.5 E24.36735
G0 F7500 X106.058 Y97.5
G1 F1500 X106.097 Y97.381 E24.37207
G1 X106.258 Y97.3 E24.37887
G1 X113.741 Y97.3 E24.6611
G1 X113.86 Y97.339 E24.66583
G1 X113.941 Y97.5 E24.67262
G1 X113.942 Y122.5 E25.61555
G1 X113.903 Y122.619 E25.62027
G1 X113.742 Y122.7 E25.62707
G1 X106.259 Y122.7 E25.90931
G1 X106.14 Y122.661 E25.91403
G1 X106.059 Y122.5 E25.92083
G1 X106.058 Y97.5 E26.86375
G1 F900 E19.86375
G0 F7500 X106.058 Y96.835
G0 X114.394 Y96.847
G0 X120.558 Y97.5
G1 F900 E26.86375
G1 F1500 X120.598 Y97.123 E26.87805
G1 X120.716 Y96.763 E26.89234
G1 X120.906 Y96.436 E26.9066
G1 X121.161 Y96.155 E26.92092
G1 X121.469 Y95.935 E26.93519
G1 X121.817 Y95.783 E26.94951
G1 X122.358 Y95.7 E26.97016
G1 X129.841 Y95.7 E27.25239
G1 X130.218 Y95.74 E27.26669
G1 X130.578 Y95.858 E27.28098
G1 X130.905 Y96.048 E27.29525
G1 X131.186 Y96.303 E27.30956
G1 X131.406 Y96.612 E27.32387
G1 X131.558 Y96.959 E27.33815
G1 X131.641 Y97.5 E27.3588
G1 X131.642 Y122.5 E28.30172
G1 X131.602 Y122.877 E28.31602
G1 X131.484 Y123.237 E28.33031
G1 X131.294 Y123.564 E28.34457
G1 X131.039 Y123.845 E28.35889
G1 X130.731 Y124.065 E28.37316
G1 X130.383 Y124.217 E28.38749
G1 X129.842 Y124.3 E28.40813
G1 X122.359 Y124.3 E28.69037
G1 X121.982 Y124.26 E28.70466
G1 X121.622 Y124.142 E28.71895
G1 X121.295 Y123.952 E28.73322
G1 X121.014 Y123.697 E28.74753
G1 X120.794 Y123.388 E28.76184
G1 X120.642 Y123.041 E28.77612
G1 X120.559 Y122.5 E28.79677
G1 X120.558 Y97.5 E29.73969
G0 F7500 X120.958 Y97.5
G1 F1500 X120.998 Y97.168 E29.75231
G1 X121.115 Y96.856 E29.76487
G1 X121.303 Y96.579 E29.7775
G1 X121.551 Y96.356 E29.79008
G1 X121.845 Y96.197 E29.80269
G1 X122.169 Y96.113 E29.81531
G1 X122.358 Y96.1 E29.82246
G1 X129.841 Y96.1 E30.10469
G1 X130.173 Y96.14 E30.1173
G1 X130.485 Y96.257 E30.12987
G1 X130.762 Y96.445 E30.1425
G1 X130.985 Y96.693 E30.15508
G1 X131.144 Y96.987 E30.16768
G1 X131.228 Y97.311 E30.18031
G1 X131.241 Y97.5 E30.18745
G1 X131.242 Y122.5 E31.13038
G1 X131.202 Y122.832 E31.14299
G1 X131.085 Y123.144 E31.15556
G1 X130.897 Y123.421 E31.16819
G1 X130.649 Y123.644 E31.18077
G1 X130.355 Y123.803 E31.19337
G1 X130.031 Y123.887 E31.206
G1 X129.842 Y123.9 E31.21314
G1 X122.359 Y123.9 E31.49538
G1 X122.027 Y123.86 E31.50799
G1 X121.715 Y123.743 E31.52056
G1 X121.438 Y123.555 E31.53319
G1 X121.215 Y123.307 E31.54576
G1 X121.056 Y123.013 E31.55837
G1 X120.972 Y122.689 E31.571
G1 X120.959 Y122.5 E31.57814
G1 X120.958 Y97.5 E32.52107
G0 F7500 X121.358 Y97.5
G1 F1500 X121.398 Y97.221 E32.5317
G1 X121.514 Y96.964 E32.54233
G1 X121.697 Y96.749 E32.55298
G1 X121.933 Y96.595 E32.56361
G1 X122.203 Y96.512 E32.57426
G1 X122.358 Y96.5 E32.58013
G1 X129.841 Y96.5 E32.86236
G1 X130.12 Y96.54 E32.87299
G1 X130.377 Y96.656 E32.88363
G1 X130.592 Y96.839 E32.89428
G1 X130.746 Y97.075 E32.90491
G1 X130.829 Y97.345 E32.91556
G1 X130.841 Y97.5 E32.92142
G1 X130.842 Y122.5 E33.86435
G1 X130.802 Y122.779 E33.87498
G1 X130.686 Y123.036 E33.88561
G1 X130.503 Y123.251 E33.89626
G1 X130.267 Y123.405 E33.90689
G1 X129.997 Y123.488 E33.91755
G1 X129.842 Y123.5 E33.92341
G1 X122.359 Y123.5 E34.20565
G1 X122.08 Y123.46 E34.21628
G1 X121.823 Y123.344 E34.22691
G1 X121.608 Y123.161 E34.23756
G1 X121.454 Y122.925 E34.24819
G1 X121.371 Y122.655 E34.25884
G1 X121.359 Y122.5 E34.26471
G1 X121.358 Y97.5 E35.20763
G0 F7500 X121.758 Y97.5
G1 F1500 X121.798 Y97.285 E35.21588
G1 X121.911 Y97.099 E35.22409
G1 X122.084 Y96.966 E35.23232
G1 X122.358 Y96.9 E35.24295
G1 X129.841 Y96.9 E35.52518
G1 X130.056 Y96.94 E35.53343
G1 X130.242 Y97.053 E35.54164
G1 X130.375 Y97.226 E35.54987
G1 X130.441 Y97.5 E35.5605
G1 X130.442 Y122.5 E36.50343
G1 X130.402 Y122.715 E36.51167
G1 X130.289 Y122.901 E36.51988
G1 X130.116 Y123.034 E36.52811
G1 X129.842 Y123.1 E36.53874
G1 X122.359 Y123.1 E36.82098
G1 X122.144 Y123.06 E36.82923
G1 X121.958 Y122.947 E36.83744
G1 X121.825 Y122.774 E36.84567
G1 X121.759 Y122.5 E36.8563
G1 X121.758 Y97.5 E37.79922
G0 F7500 X122.158 Y97.5
G1 F1500 X122.197 Y97.381 E37.80395
G1 X122.358 Y97.3 E37.81074
G1 X129.841 Y97.3 E38.09298
G1 X129.96 Y97.339 E38.0977
G1 X130.041 Y97.5 E38.1045
G1 X130.042 Y122.5 E39.04742
G1 X130.003 Y122.619 E39.05215
G1 X129.842 Y122.7 E39.05895
G1 X122.359 Y122.7 E39.34118
G1 X122.24 Y122.661 E39.34591
G1 X122.159 Y122.5 E39.3527
G1 X122.158 Y97.5 E40.29563
G1 F900 E33.29563
G0 F7500 X121.694 Y97.501
G0 X114.395 Y123.153
G0 X96.959 Y125.842
G1 F900 E40.29563
G1 F1500 X97.5 Y125.759 E40.31627
G1 X122.5 Y125.758 E41.2592
G1 X122.877 Y125.798 E41.2735
G1 X123.237 Y125.916 E41.28778
G1 X123.564 Y126.106 E41.30205
G1 X123.845 Y126.361 E41.31636
G1 X124.065 Y126.669 E41.33064
G1 X124.217 Y127.017 E41.34496
G1 X124.3 Y127.558 E41.3656
G1 X124.3 Y135.041 E41.64784
G1 X124.26 Y135.418 E41.66214
G1 X124.142 Y135.778 E41.67643
G1 X123.952 Y136.105 E41.69069
G1 X123.697 Y136.386 E41.705
G1 X123.388 Y136.606 E41.71931
G1 X123.041 Y136.758 E41.7336
G1 X122.5 Y136.841 E41.75424
G1 X97.5 Y136.842 E42.69717
G1 X97.123 Y136.802 E42.71147
G1 X96.763 Y136.684 E42.72575
G1 X96.436 Y136.494 E42.74002
G1 X96.155 Y136.239 E42.75433
G1 X95.935 Y135.931 E42.76861
G1 X95.783 Y135.583 E42.78293
G1 X95.7 Y135.042 E42.80357
G1 X95.7 Y127.559 E43.08581
G1 X95.74 Y127.182 E43.10011
G1 X95.858 Y126.822 E43.1144
G1 X96.048 Y126.495 E43.12866
G1 X96.303 Y126.214 E43.14297
G1 X96.612 Y125.994 E43.15728
G1 X96.959 Y125.842 E43.17157
G0 F7500 X96.987 Y126.256
G1 F1500 X97.311 Y126.172 E43.18419
G1 X97.5 Y126.159 E43.19134
G1 X122.5 Y126.158 E44.13426
G1 X122.832 Y126.198 E44.14688
G1 X123.144 Y126.315 E44.15944
G1 X123.421 Y126.503 E44.17207
G1 X123.644 Y126.751 E44.18465
G1 X123.803 Y127.045 E44.19726
G1 X123.887 Y127.369 E44.20988
G1 X123.9 Y127.558 E44.21703
G1 X123.9 Y135.041 E44.49926
G1 X123.86 Y135.373 E44.51188
G1 X123.743 Y135.685 E44.52444
G1 X123.555 Y135.962 E44.53707
G1 X123.307 Y136.185 E44.54965
G1 X123.013 Y136.344 E44.56226
G1 X122.689 Y136.428 E44.57488
G1 X122.5 Y136.441 E44.58203
G1 X97.5 Y136.442 E45.52495
G1 X97.168 Y136.402 E45.53756
G1 X96.856 Y136.285 E45.55013
G1 X96.579 Y136.097 E45.56276
G1 X96.356 Y135.849 E45.57534
G1 X96.197 Y135.555 E45.58794
G1 X96.113 Y135.231 E45.60057
G1 X96.1 Y135.042 E45.60771
G1 X96.1 Y127.559 E45.88995
G1 X96.14 Y127.227 E45.90256
G1 X96.257 Y126.915 E45.91513
G1 X96.445 Y126.638 E45.92776
G1 X96.693 Y126.415 E45.94034
G1 X96.987 Y126.256 E45.95294
G0 F7500 X97.345 Y126.571
G1 F1500 X97.5 Y126.559 E45.95881
G1 X122.5 Y126.558 E46.90173
G1 X122.779 Y126.598 E46.91236
G1 X123.036 Y126.714 E46.923
G1 X123.251 Y126.897 E46.93364
G1 X123.405 Y127.133 E46.94427
G1 X123.488 Y127.403 E46.95493
G1 X123.5 Y127.558 E46.96079
G1 X123.5 Y135.041 E47.24303
G1 X123.46 Y135.32 E47.25366
G1 X123.344 Y135.577 E47.26429
G1 X123.161 Y135.792 E47.27494
G1 X122.925 Y135.946 E47.28557
G1 X122.655 Y136.029 E47.29622
G1 X122.5 Y136.041 E47.30209
G1 X97.5 Y136.042 E48.24501
G1 X97.221 Y136.002 E48.25564
G1 X96.964 Y135.886 E48.26628
G1 X96.749 Y135.703 E48.27693
G1 X96.595 Y135.467 E48.28756
G1 X96.512 Y135.197 E48.29821
G1 X96.5 Y135.042 E48.30407
G1 X96.5 Y127.559 E48.58631
G1 X96.54 Y127.28 E48.59694
G1 X96.656 Y127.023 E48.60758
G1 X96.839 Y126.808 E48.61822
G1 X97.075 Y126.654 E48.62885
G1 X97.345 Y126.571 E48.63951
G0 F7500 X97.226 Y127.025
G1 F1500 X97.5 Y126.959 E48.65014
G1 X122.5 Y126.958 E49.59306
G1 X122.715 Y126.998 E49.60131
G1 X122.901 Y127.111 E49.60952
G1 X123.034 Y127.284 E49.61775
G1 X123.1 Y127.558 E49.62838
G1 X123.1 Y135.041 E49.91062
G1 X123.06 Y135.256 E49.91886
G1 X122.947 Y135.442 E49.92707
G1 X122.774 Y135.575 E49.9353
G1 X122.5 Y135.641 E49.94593
G1 X97.5 Y135.642 E50.88886
G1 X97.285 Y135.602 E50.89711
G1 X97.099 Y135.489 E50.90531
G1 X96.966 Y135.316 E50.91354
G1 X96.9 Y135.042 E50.92417
G1 X96.9 Y127.559 E51.20641
G1 X96.94 Y127.344 E51.21466
G1 X97.053 Y127.158 E51.22287
G1 X97.226 Y127.025 E51.2311
G0 F7500 X97.5 Y127.359
G1 F1500 X122.5 Y127.358 E52.17402
G1 X122.619 Y127.397 E52.17875
G1 X122.7 Y127.558 E52.18554
G1 X122.7 Y135.041 E52.46778
G1 X122.661 Y135.16 E52.4725
G1 X122.5 Y135.241 E52.4793
