;FLAVOR:Marlin
;TIME:1076
;Filament used: 0.918767m
;Layer height: 0.28
;MINX:80.882
;MINY:86.53
;MINZ:0.28
;MAXX:139.115
;MAXY:127.27
;MAXZ:2.52
;Generated with Cura_SteamEngine 4.13.1
M140 S85
M105
M190 S85
M104 S245
M105
M109 S245
M82 ;absolute extrusion mode
; Ender 3 Custom Start G-code
G92 E0 ; Reset Extruder
G28 ; Home all axes
G1 Z2.0 F3000 ; Move Z Axis up little to prevent scratching of Heat Bed
G1 X0.1 Y20 Z0.3 F5000.0 ; Move to start position
G1 X0.1 Y200.0 Z0.3 F1500.0 E15 ; Draw the first line
G1 X0.4 Y200.0 Z0.3 F5000.0 ; Move to side a little
G1 X0.4 Y20 Z0.3 F1500.0 E30 ; Draw the second line
G92 E0 ; Reset Extruder
G1 Z2.0 F3000 ; Move Z Axis up little to prevent scratching of Heat Bed
G1 X5 Y20 Z0.3 F5000.0 ; Move over to prevent blob squish
G92 E0
G92 E0
G1 F900 E-7
;LAYER_COUNT:9
;LAYER:0
M107
G0 F7500 X87.493 Y89.823 Z0.28
;TYPE:SKIRT
G1 F900 E0
G1 F1500 X88.154 Y89.195 E0.03439
G1 X88.293 Y89.076 E0.04129
G1 X89.015 Y88.518 E0.07571
G1 X89.162 Y88.415 E0.08248
G1 X89.935 Y87.932 E0.11686
G1 X90.098 Y87.842 E0.12388
G1 X90.916 Y87.442 E0.15822
G1 X91.081 Y87.371 E0.165
G1 X91.938 Y87.053 E0.19947
G1 X92.113 Y86.998 E0.20639
G1 X92.994 Y86.77 E0.24072
G1 X93.171 Y86.734 E0.24753
G1 X94.074 Y86.595 E0.28199
G1 X94.257 Y86.576 E0.28893
G1 X95.167 Y86.53 E0.32329
G1 X95.349 Y86.53 E0.33016
G1 X96.258 Y86.576 E0.36449
G1 X96.441 Y86.595 E0.37143
G1 X97.344 Y86.734 E0.40589
G1 X97.521 Y86.77 E0.4127
G1 X98.402 Y86.998 E0.44702
G1 X98.577 Y87.053 E0.45394
G1 X99.434 Y87.371 E0.48842
G1 X99.599 Y87.442 E0.49519
G1 X100.415 Y87.841 E0.52945
G1 X100.577 Y87.931 E0.53644
G1 X101.352 Y88.415 E0.5709
G1 X101.5 Y88.518 E0.57771
G1 X102.222 Y89.076 E0.61212
G1 X102.361 Y89.195 E0.61902
G1 X103.021 Y89.822 E0.65336
G1 X103.148 Y89.956 E0.66032
G1 X103.742 Y90.649 E0.69475
G1 X103.852 Y90.792 E0.70155
G1 X104.372 Y91.539 E0.73588
G1 X104.468 Y91.693 E0.74273
G1 X104.911 Y92.49 E0.77712
G1 X104.993 Y92.655 E0.78407
G1 X105.352 Y93.493 E0.81845
G1 X105.415 Y93.664 E0.82533
G1 X105.687 Y94.533 E0.85967
G1 X105.732 Y94.706 E0.86641
G1 X105.917 Y95.599 E0.90081
G1 X105.945 Y95.782 E0.90779
G1 X106.037 Y96.689 E0.94218
G1 X106.046 Y96.871 E0.94905
G1 X106.046 Y97.783 E0.98345
G1 X106.037 Y97.965 E0.99032
G1 X105.945 Y98.872 E1.0247
G1 X105.917 Y99.054 E1.03165
G1 X105.732 Y99.949 E1.06612
G1 X105.693 Y100.098 E1.07193
G1 X105.826 Y100.042 E1.07737
G1 X106.683 Y99.725 E1.11184
G1 X106.854 Y99.671 E1.1186
G1 X107.734 Y99.442 E1.1529
G1 X107.915 Y99.405 E1.15986
G1 X108.818 Y99.267 E1.19432
G1 X108.999 Y99.248 E1.20118
G1 X109.909 Y99.202 E1.23555
G1 X110.091 Y99.202 E1.24241
G1 X111.001 Y99.248 E1.27678
G1 X111.182 Y99.267 E1.28364
G1 X112.085 Y99.405 E1.3181
G1 X112.266 Y99.442 E1.32507
G1 X113.146 Y99.671 E1.35936
G1 X113.317 Y99.725 E1.36613
G1 X114.174 Y100.042 E1.40059
G1 X114.342 Y100.113 E1.40747
G1 X115.159 Y100.513 E1.44178
G1 X115.321 Y100.604 E1.44879
G1 X116.095 Y101.088 E1.48322
G1 X116.242 Y101.19 E1.48997
G1 X116.962 Y101.747 E1.5243
G1 X117.1 Y101.865 E1.53115
G1 X117.602 Y102.341 E1.55724
G1 X117.639 Y101.974 E1.57115
G1 X117.667 Y101.792 E1.5781
G1 X117.852 Y100.897 E1.61257
G1 X117.897 Y100.725 E1.61927
G1 X118.168 Y99.857 E1.65357
G1 X118.231 Y99.684 E1.66051
G1 X118.59 Y98.846 E1.6949
G1 X118.671 Y98.681 E1.70183
G1 X119.114 Y97.883 E1.73626
G1 X119.211 Y97.729 E1.74312
G1 X119.731 Y96.982 E1.77745
G1 X119.842 Y96.838 E1.78431
G1 X120.436 Y96.146 E1.81871
G1 X120.563 Y96.012 E1.82567
G1 X121.226 Y95.383 E1.86014
G1 X121.364 Y95.265 E1.86699
G1 X122.084 Y94.708 E1.90132
G1 X122.231 Y94.605 E1.90809
G1 X123.004 Y94.122 E1.94247
G1 X123.166 Y94.033 E1.94944
G1 X123.984 Y93.632 E1.9838
G1 X124.152 Y93.56 E1.99069
G1 X125.009 Y93.243 E2.02516
G1 X125.18 Y93.189 E2.03192
G1 X126.061 Y92.96 E2.06625
G1 X126.242 Y92.923 E2.07322
G1 X127.145 Y92.785 E2.10768
G1 X127.326 Y92.766 E2.11454
G1 X128.235 Y92.72 E2.14887
G1 X128.417 Y92.72 E2.15573
G1 X129.327 Y92.766 E2.1901
G1 X129.508 Y92.785 E2.19696
G1 X130.411 Y92.923 E2.23142
G1 X130.592 Y92.96 E2.23839
G1 X131.473 Y93.189 E2.27272
G1 X131.644 Y93.243 E2.27948
G1 X132.501 Y93.56 E2.31395
G1 X132.669 Y93.632 E2.32084
G1 X133.485 Y94.032 E2.35512
G1 X133.646 Y94.121 E2.36206
G1 X134.421 Y94.605 E2.39652
G1 X134.569 Y94.708 E2.40332
G1 X135.291 Y95.266 E2.43774
G1 X135.43 Y95.385 E2.44464
G1 X136.089 Y96.011 E2.47892
G1 X136.216 Y96.144 E2.48585
G1 X136.811 Y96.838 E2.52033
G1 X136.921 Y96.981 E2.52714
G1 X137.441 Y97.727 E2.56144
G1 X137.537 Y97.882 E2.56831
G1 X137.98 Y98.679 E2.6027
G1 X138.062 Y98.844 E2.60965
G1 X138.421 Y99.682 E2.64404
G1 X138.484 Y99.854 E2.65095
G1 X138.756 Y100.724 E2.68533
G1 X138.801 Y100.896 E2.69203
G1 X138.986 Y101.789 E2.72643
G1 X139.014 Y101.972 E2.73341
G1 X139.106 Y102.879 E2.7678
G1 X139.115 Y103.061 E2.77467
G1 X139.115 Y103.973 E2.80907
G1 X139.106 Y104.155 E2.81594
G1 X139.014 Y105.062 E2.85033
G1 X138.986 Y105.244 E2.85727
G1 X138.801 Y106.139 E2.89174
G1 X138.756 Y106.311 E2.89845
G1 X138.485 Y107.179 E2.93274
G1 X138.421 Y107.353 E2.93974
G1 X138.062 Y108.19 E2.97409
G1 X137.982 Y108.354 E2.98097
G1 X137.539 Y109.152 E3.01539
G1 X137.442 Y109.307 E3.02229
G1 X136.921 Y110.055 E3.05667
G1 X136.811 Y110.197 E3.06345
G1 X136.217 Y110.89 E3.09787
G1 X136.09 Y111.024 E3.10484
G1 X135.43 Y111.651 E3.13917
G1 X135.291 Y111.77 E3.14607
G1 X134.569 Y112.328 E3.18049
G1 X134.422 Y112.431 E3.18726
G1 X133.649 Y112.914 E3.22164
G1 X133.485 Y113.004 E3.22869
G1 X132.666 Y113.404 E3.26307
G1 X132.503 Y113.474 E3.26976
G1 X131.647 Y113.792 E3.3042
G1 X131.473 Y113.847 E3.31109
G1 X130.592 Y114.076 E3.34542
G1 X130.411 Y114.113 E3.35239
G1 X129.508 Y114.251 E3.38684
G1 X129.327 Y114.27 E3.39371
G1 X128.417 Y114.316 E3.42807
G1 X128.235 Y114.316 E3.43494
G1 X127.326 Y114.27 E3.46927
G1 X127.145 Y114.251 E3.47613
G1 X126.242 Y114.113 E3.51058
G1 X126.061 Y114.076 E3.51755
G1 X125.18 Y113.847 E3.55188
G1 X125.007 Y113.793 E3.55872
G1 X124.15 Y113.475 E3.5932
G1 X123.985 Y113.404 E3.59997
G1 X123.167 Y113.004 E3.63432
G1 X123.004 Y112.914 E3.64134
G1 X122.231 Y112.431 E3.67572
G1 X122.084 Y112.328 E3.68249
G1 X121.364 Y111.771 E3.71682
G1 X121.226 Y111.653 E3.72367
G1 X120.724 Y111.177 E3.74976
G1 X120.687 Y111.544 E3.76367
G1 X120.659 Y111.724 E3.77054
G1 X120.475 Y112.619 E3.80501
G1 X120.43 Y112.793 E3.81179
G1 X120.159 Y113.661 E3.84608
G1 X120.095 Y113.835 E3.85308
G1 X119.735 Y114.673 E3.88748
G1 X119.656 Y114.835 E3.89427
G1 X119.214 Y115.633 E3.92868
G1 X119.115 Y115.791 E3.93571
G1 X118.594 Y116.538 E3.97006
G1 X118.484 Y116.68 E3.97684
G1 X117.89 Y117.372 E4.01124
G1 X117.763 Y117.506 E4.0182
G1 X117.1 Y118.135 E4.05267
G1 X116.962 Y118.253 E4.05952
G1 X116.242 Y118.81 E4.09385
G1 X116.096 Y118.912 E4.10057
G1 X115.324 Y119.395 E4.13491
G1 X115.161 Y119.486 E4.14196
G1 X114.342 Y119.887 E4.17635
G1 X114.174 Y119.958 E4.18323
G1 X113.317 Y120.275 E4.21769
G1 X113.146 Y120.329 E4.22446
G1 X112.266 Y120.558 E4.25875
G1 X112.085 Y120.595 E4.26572
G1 X111.182 Y120.733 E4.30017
G1 X111.001 Y120.752 E4.30704
G1 X110.091 Y120.798 E4.3414
G1 X109.909 Y120.798 E4.34827
G1 X108.999 Y120.752 E4.38264
G1 X108.818 Y120.733 E4.3895
G1 X107.915 Y120.595 E4.42395
G1 X107.734 Y120.558 E4.43092
G1 X106.854 Y120.329 E4.46522
G1 X106.683 Y120.275 E4.47198
G1 X105.826 Y119.958 E4.50645
G1 X105.658 Y119.887 E4.51332
G1 X104.839 Y119.486 E4.54772
G1 X104.676 Y119.395 E4.55476
G1 X103.904 Y118.912 E4.58911
G1 X103.758 Y118.81 E4.59582
G1 X103.038 Y118.253 E4.63016
G1 X102.9 Y118.135 E4.63701
G1 X102.394 Y117.655 E4.66331
G1 X102.357 Y118.016 E4.677
G1 X102.329 Y118.196 E4.68387
G1 X102.145 Y119.091 E4.71833
G1 X102.1 Y119.266 E4.72515
G1 X101.829 Y120.133 E4.75941
G1 X101.765 Y120.306 E4.76637
G1 X101.405 Y121.144 E4.80077
G1 X101.326 Y121.306 E4.80756
G1 X100.884 Y122.104 E4.84197
G1 X100.786 Y122.261 E4.84895
G1 X100.265 Y123.009 E4.88333
G1 X100.154 Y123.152 E4.89016
G1 X99.56 Y123.844 E4.92456
G1 X99.434 Y123.977 E4.93147
G1 X98.773 Y124.605 E4.96586
G1 X98.634 Y124.724 E4.97276
G1 X97.912 Y125.282 E5.00717
G1 X97.766 Y125.384 E5.01389
G1 X96.994 Y125.867 E5.04824
G1 X96.829 Y125.958 E5.05534
G1 X96.01 Y126.358 E5.08972
G1 X95.846 Y126.429 E5.09646
G1 X94.989 Y126.747 E5.13094
G1 X94.814 Y126.801 E5.13785
G1 X93.934 Y127.029 E5.17213
G1 X93.757 Y127.066 E5.17895
G1 X92.854 Y127.205 E5.21341
G1 X92.671 Y127.224 E5.22035
G1 X91.761 Y127.27 E5.25472
G1 X91.579 Y127.27 E5.26158
G1 X90.669 Y127.224 E5.29595
G1 X90.486 Y127.205 E5.30289
G1 X89.583 Y127.066 E5.33735
G1 X89.406 Y127.029 E5.34417
G1 X88.526 Y126.801 E5.37846
G1 X88.351 Y126.747 E5.38536
G1 X87.494 Y126.429 E5.41984
G1 X87.33 Y126.358 E5.42658
G1 X86.511 Y125.958 E5.46096
G1 X86.346 Y125.867 E5.46807
G1 X85.574 Y125.384 E5.50241
G1 X85.428 Y125.282 E5.50913
G1 X84.706 Y124.724 E5.54355
G1 X84.567 Y124.605 E5.55045
G1 X83.906 Y123.977 E5.58484
G1 X83.78 Y123.844 E5.59175
G1 X83.186 Y123.152 E5.62614
G1 X83.075 Y123.009 E5.63297
G1 X82.554 Y122.261 E5.66735
G1 X82.456 Y122.104 E5.67433
G1 X82.014 Y121.306 E5.70874
G1 X81.935 Y121.144 E5.71554
G1 X81.575 Y120.306 E5.74994
G1 X81.511 Y120.133 E5.7569
G1 X81.24 Y119.266 E5.79116
G1 X81.195 Y119.091 E5.79797
G1 X81.011 Y118.196 E5.83243
G1 X80.983 Y118.016 E5.83931
G1 X80.891 Y117.111 E5.87361
G1 X80.882 Y116.929 E5.88049
G1 X80.882 Y116.017 E5.91489
G1 X80.891 Y115.835 E5.92176
G1 X80.983 Y114.928 E5.95614
G1 X81.011 Y114.748 E5.96301
G1 X81.195 Y113.853 E5.99748
G1 X81.24 Y113.679 E6.00426
G1 X81.511 Y112.811 E6.03855
G1 X81.575 Y112.637 E6.04554
G1 X81.935 Y111.799 E6.07994
G1 X82.014 Y111.637 E6.08674
G1 X82.456 Y110.839 E6.12115
G1 X82.555 Y110.681 E6.12818
G1 X83.076 Y109.934 E6.16253
G1 X83.186 Y109.792 E6.16931
G1 X83.78 Y109.1 E6.2037
G1 X83.907 Y108.966 E6.21067
G1 X84.57 Y108.337 E6.24514
G1 X84.708 Y108.219 E6.25199
G1 X85.428 Y107.662 E6.28632
G1 X85.574 Y107.56 E6.29304
G1 X86.346 Y107.077 E6.32738
G1 X86.509 Y106.986 E6.33442
G1 X87.328 Y106.585 E6.36882
G1 X87.494 Y106.514 E6.37563
G1 X88.351 Y106.196 E6.41011
G1 X88.526 Y106.142 E6.41701
G1 X88.896 Y106.046 E6.43143
G1 X88.295 Y105.581 E6.46009
G1 X88.157 Y105.463 E6.46694
G1 X87.494 Y104.834 E6.50141
G1 X87.366 Y104.699 E6.50843
G1 X86.773 Y104.007 E6.5428
G1 X86.664 Y103.866 E6.54952
G1 X86.143 Y103.119 E6.58387
G1 X86.045 Y102.963 E6.59082
G1 X85.602 Y102.165 E6.62524
G1 X85.521 Y102 E6.63218
G1 X85.162 Y101.162 E6.66656
G1 X85.099 Y100.989 E6.67351
G1 X84.828 Y100.121 E6.7078
G1 X84.783 Y99.949 E6.71451
G1 X84.598 Y99.054 E6.74898
G1 X84.57 Y98.872 E6.75592
G1 X84.478 Y97.967 E6.79023
G1 X84.469 Y97.785 E6.79711
G1 X84.469 Y96.873 E6.8315
G1 X84.478 Y96.691 E6.83838
G1 X84.57 Y95.784 E6.87276
G1 X84.598 Y95.602 E6.87971
G1 X84.783 Y94.707 E6.91418
G1 X84.828 Y94.534 E6.92092
G1 X85.099 Y93.667 E6.95518
G1 X85.162 Y93.495 E6.96209
G1 X85.521 Y92.657 E6.99647
G1 X85.602 Y92.492 E7.00341
G1 X86.045 Y91.694 E7.03783
G1 X86.142 Y91.539 E7.04473
G1 X86.663 Y90.791 E7.07911
G1 X86.773 Y90.649 E7.08588
G1 X87.366 Y89.957 E7.12026
G1 X87.493 Y89.823 E7.12722
G0 F7500 X87.769 Y90.113
G1 F1500 X88.43 Y89.485 E7.16161
G1 X88.538 Y89.392 E7.16699
G1 X89.26 Y88.834 E7.2014
G1 X89.374 Y88.755 E7.20663
G1 X90.147 Y88.272 E7.24101
G1 X90.274 Y88.201 E7.2465
G1 X91.092 Y87.801 E7.28084
G1 X91.22 Y87.746 E7.2861
G1 X92.077 Y87.428 E7.32057
G1 X92.213 Y87.386 E7.32594
G1 X93.094 Y87.158 E7.36027
G1 X93.232 Y87.129 E7.36559
G1 X94.135 Y86.99 E7.40004
G1 X94.277 Y86.976 E7.40543
G1 X95.187 Y86.93 E7.43979
G1 X95.329 Y86.93 E7.44515
G1 X96.238 Y86.976 E7.47948
G1 X96.38 Y86.99 E7.48486
G1 X97.283 Y87.129 E7.51932
G1 X97.421 Y87.158 E7.52464
G1 X98.302 Y87.386 E7.55896
G1 X98.438 Y87.428 E7.56433
G1 X99.295 Y87.746 E7.59881
G1 X99.423 Y87.801 E7.60406
G1 X100.239 Y88.2 E7.63832
G1 X100.366 Y88.271 E7.64381
G1 X101.141 Y88.755 E7.67827
G1 X101.255 Y88.834 E7.6835
G1 X101.977 Y89.392 E7.71792
G1 X102.085 Y89.485 E7.72329
G1 X102.745 Y90.112 E7.75763
G1 X102.844 Y90.216 E7.76305
G1 X103.438 Y90.909 E7.79747
G1 X103.524 Y91.02 E7.80277
G1 X104.044 Y91.767 E7.8371
G1 X104.119 Y91.887 E7.84243
G1 X104.562 Y92.684 E7.87683
G1 X104.625 Y92.813 E7.88224
G1 X104.984 Y93.651 E7.91662
G1 X105.033 Y93.784 E7.92197
G1 X105.305 Y94.653 E7.95632
G1 X105.34 Y94.787 E7.96154
G1 X105.525 Y95.68 E7.99594
G1 X105.547 Y95.823 E8.00139
G1 X105.639 Y96.73 E8.03578
G1 X105.646 Y96.871 E8.0411
G1 X105.646 Y97.783 E8.0755
G1 X105.639 Y97.924 E8.08082
G1 X105.547 Y98.831 E8.11521
G1 X105.525 Y98.973 E8.12063
G1 X105.34 Y99.868 E8.1551
G1 X105.305 Y100.002 E8.16032
G1 X105.036 Y100.864 E8.19438
G1 X105.834 Y100.473 E8.2279
G1 X105.964 Y100.417 E8.23324
G1 X106.821 Y100.1 E8.2677
G1 X106.954 Y100.058 E8.27296
G1 X107.834 Y99.829 E8.30726
G1 X107.976 Y99.8 E8.31272
G1 X108.879 Y99.662 E8.34718
G1 X109.019 Y99.648 E8.35248
G1 X109.929 Y99.602 E8.38685
G1 X110.071 Y99.602 E8.39221
G1 X110.981 Y99.648 E8.42657
G1 X111.121 Y99.662 E8.43188
G1 X112.024 Y99.8 E8.46633
G1 X112.166 Y99.829 E8.4718
G1 X113.046 Y100.058 E8.5061
G1 X113.179 Y100.1 E8.51136
G1 X114.036 Y100.417 E8.54582
G1 X114.166 Y100.473 E8.55116
G1 X114.983 Y100.873 E8.58547
G1 X115.109 Y100.943 E8.59091
G1 X115.883 Y101.427 E8.62534
G1 X115.998 Y101.507 E8.63062
G1 X116.718 Y102.064 E8.66495
G1 X116.825 Y102.155 E8.67025
G1 X117.488 Y102.784 E8.70472
G1 X117.586 Y102.888 E8.71011
G1 X117.938 Y103.298 E8.73049
G1 X117.945 Y102.922 E8.74468
G1 X118.037 Y102.015 E8.77906
G1 X118.059 Y101.873 E8.78448
G1 X118.244 Y100.978 E8.81895
G1 X118.279 Y100.844 E8.82417
G1 X118.55 Y99.976 E8.85847
G1 X118.599 Y99.842 E8.86385
G1 X118.958 Y99.004 E8.89824
G1 X119.021 Y98.875 E8.90365
G1 X119.464 Y98.077 E8.93808
G1 X119.539 Y97.957 E8.94342
G1 X120.059 Y97.21 E8.97774
G1 X120.146 Y97.098 E8.98309
G1 X120.74 Y96.406 E9.01749
G1 X120.838 Y96.302 E9.02288
G1 X121.501 Y95.673 E9.05735
G1 X121.608 Y95.582 E9.06265
G1 X122.328 Y95.025 E9.09698
G1 X122.443 Y94.945 E9.10226
G1 X123.216 Y94.462 E9.13664
G1 X123.342 Y94.392 E9.14208
G1 X124.16 Y93.991 E9.17644
G1 X124.29 Y93.935 E9.18178
G1 X125.147 Y93.618 E9.21624
G1 X125.281 Y93.576 E9.22154
G1 X126.162 Y93.347 E9.25587
G1 X126.303 Y93.318 E9.2613
G1 X127.206 Y93.18 E9.29576
G1 X127.346 Y93.166 E9.30106
G1 X128.255 Y93.12 E9.33539
G1 X128.397 Y93.12 E9.34075
G1 X129.307 Y93.166 E9.37511
G1 X129.447 Y93.18 E9.38042
G1 X130.35 Y93.318 E9.41487
G1 X130.491 Y93.347 E9.4203
G1 X131.372 Y93.576 E9.45464
G1 X131.506 Y93.618 E9.45993
G1 X132.363 Y93.935 E9.4944
G1 X132.493 Y93.991 E9.49973
G1 X133.309 Y94.391 E9.53401
G1 X133.435 Y94.461 E9.53945
G1 X134.21 Y94.945 E9.57391
G1 X134.324 Y95.024 E9.57914
G1 X135.046 Y95.582 E9.61356
G1 X135.154 Y95.675 E9.61893
G1 X135.813 Y96.301 E9.65322
G1 X135.912 Y96.405 E9.65863
G1 X136.507 Y97.099 E9.69311
G1 X136.593 Y97.209 E9.69838
G1 X137.113 Y97.955 E9.73267
G1 X137.188 Y98.076 E9.73804
G1 X137.631 Y98.873 E9.77244
G1 X137.694 Y99.002 E9.77785
G1 X138.053 Y99.84 E9.81224
G1 X138.102 Y99.973 E9.81758
G1 X138.374 Y100.843 E9.85196
G1 X138.409 Y100.977 E9.85719
G1 X138.594 Y101.87 E9.89158
G1 X138.616 Y102.013 E9.89704
G1 X138.708 Y102.92 E9.93142
G1 X138.715 Y103.061 E9.93675
G1 X138.715 Y103.973 E9.97115
G1 X138.708 Y104.114 E9.97647
G1 X138.616 Y105.021 E10.01086
G1 X138.594 Y105.163 E10.01628
G1 X138.409 Y106.058 E10.05075
G1 X138.374 Y106.192 E10.05597
G1 X138.103 Y107.06 E10.09027
G1 X138.054 Y107.195 E10.09568
G1 X137.695 Y108.032 E10.13003
G1 X137.632 Y108.16 E10.13541
G1 X137.189 Y108.958 E10.16984
G1 X137.114 Y109.078 E10.17518
G1 X136.593 Y109.826 E10.20956
G1 X136.507 Y109.937 E10.21485
G1 X135.913 Y110.63 E10.24928
G1 X135.814 Y110.734 E10.2547
G1 X135.154 Y111.361 E10.28903
G1 X135.046 Y111.454 E10.29441
G1 X134.324 Y112.012 E10.32882
G1 X134.21 Y112.091 E10.33405
G1 X133.437 Y112.574 E10.36843
G1 X133.309 Y112.645 E10.37395
G1 X132.49 Y113.045 E10.40833
G1 X132.364 Y113.099 E10.4135
G1 X131.508 Y113.417 E10.44794
G1 X131.372 Y113.46 E10.45332
G1 X130.491 Y113.689 E10.48766
G1 X130.35 Y113.718 E10.49309
G1 X129.447 Y113.856 E10.52754
G1 X129.307 Y113.87 E10.53285
