; generated by PrusaSlicer 2.4.0+win64 on 2022-01-21 at 20:01:01 UTC

; 

; external perimeters extrusion width = 0.61mm
; perimeters extrusion width = 0.65mm
; infill extrusion width = 0.70mm
; solid infill extrusion width = 0.65mm
; top infill extrusion width = 0.60mm
; support material extrusion width = 0.60mm
; first layer extrusion width = 0.65mm

M107
;TYPE:Custom
; **** Start of Start GCode: FlashForge Creator 3 ****
M118 X150.00 Y125.00 Z200.00 T0 T1
; todo: need to post process Active extruders in m118

G90 ; absolute positioning
M108 T0 ; tool change
G1 X187 Y0.000 F10800 ; Move initial extruder over anti-ooze plate (9-point Bed Levelling sometimes leaves it off plate)

; Set Filament Z-Offset
G1 Z0.000 F720 ;
;FFPP-UNCOMMENT; G92 Z-<FFPP-filament_extra_z_offset> ; Value substituted by FFPP script (FFPP-filament_extra_z_offset)(negative is printing higher in air)

M140 S85 T0 ; set bed temperature
M104 S250 T0 ; set right extruder temp
M104 S215 T1 ; set left extruder temp

M7 T0 ; wait for platform
M6 T0 ; wait for temp
M6 T1 ; wait for temp

M106 ; Extruder/Heat Break fan on
M651 S255 ; chassis fan on (after heating reached to speed up heating)

; Purge Filament (gets rid of any curling filament too)
G1 X172 F10800 ; Move initial extruder off anti-ooze plate
G92 E0 ; reset extrusion distance 
G1 F150 E20 ; feed 20mm of feed stock 
G92 E0 ; reset extrusion distance


; M652 ; chassis fan off 
; M109 T1/2 only if dupe or mirror

;layer_count: <FFPP-calculated-total_layer_count> ; Value substituted by FFPP script (FFPP-calculated-total_layer_count)
; **** End of Start GCode: FlashForge Creator 3 ****
G21 ; set units to millimeters
G90 ; use absolute coordinates
M82 ; use absolute distances for extrusion
G92 E0
; **** Start of Tool Change GCode: FlashForge Creator 3 ****
M108 T0
; **** End of Tool Change GCode: FlashForge Creator 3 ****
T0
G92 E0
; **** Start of Filament-Specific Start GCode: Filaments.ca PETG Filament - Transparent (Hardened 0.6mm) ****
; FFPP-filament_extra_z_offset: 0.06 ; Value parsed by FFPP script
; **** End of Filament-Specific Start GCode: EconoFil PETG ****
M107
;LAYER_CHANGE
;Z:0.2
;HEIGHT:0.2
; **** Start of Before Layer Change GCode: FlashForge Creator 3 ****
; FFPP-layer_z_height: 0.2 ; Value parsed by FFPP script
;layer:<FFPP-calculated-next_layer_height> ; Value substituted by FFPP script (FFPP-calculated-next_layer_height)
; **** End of Before Layer Change GCode: FlashForge Creator 3 ****
G1 Z.2 F720
; **** Start of After Layer Change GCode: FlashForge Creator 3 ****
; **** End of After Layer Change GCode: FlashForge Creator 3 ****
G1 E-3 F1800
G92 E0
G1 X-18.804 Y15.835 F10800
G1 E3 F1800
M204 S800
;TYPE:Skirt/Brim
;WIDTH:0.65
G1 F1200
G1 X-30.483 Y1.967 E3.91522
G1 X-31.238 Y-.104 E4.02647
G1 X-31.238 Y-48.481 E6.46851
G1 X-30.845 Y-50.022 E6.54882
G1 X-30.097 Y-50.938 E6.60849
G1 X-26.473 Y-53.995 E6.84782
G1 X-24.4 Y-54.752 E6.9592
G1 X-13.956 Y-54.752 E7.48642
G1 X-11.948 Y-54.048 E7.59383
G1 X26.408 Y-23.363 E10.07335
G1 X30.097 Y-20.253 E10.3169
G1 X31.021 Y-18.958 E10.39721
G1 X31.239 Y-17.796 E10.45688
G1 X31.239 Y48.481 E13.80247
G1 X30.845 Y50.023 E13.88278
G1 X29.76 Y51.186 E13.96309
G1 X28.024 Y51.695 E14.05439
G1 X12.889 Y51.695 E14.81841
G1 X11.347 Y51.301 E14.89872
G1 X10.43 Y50.551 E14.95852
G1 X-18.746 Y15.904 E17.245
M204 S1000
G1 X-18.282 Y15.513 F10800
M204 S800
G1 F1200
G1 X-30.019 Y1.576 E18.16476
G1 X-30.631 Y-.104 E18.255
G1 X-30.631 Y-48.481 E20.69704
G1 X-30.239 Y-49.856 E20.76924
G1 X-29.705 Y-50.474 E20.81044
G1 X-26.081 Y-53.531 E21.04977
G1 X-24.4 Y-54.145 E21.14011
G1 X-13.956 Y-54.145 E21.66733
G1 X-12.327 Y-53.574 E21.75446
G1 X26.029 Y-22.889 E24.23397
G1 X29.705 Y-19.789 E24.47673
G1 X30.504 Y-18.602 E24.54892
G1 X30.631 Y-17.796 E24.59012
G1 X30.631 Y48.481 E27.93571
G1 X30.239 Y49.856 E28.00791
G1 X29.18 Y50.818 E28.08011
G1 X28.024 Y51.088 E28.14002
G1 X12.889 Y51.088 E28.90404
G1 X11.514 Y50.696 E28.97624
G1 X10.895 Y50.16 E29.01755
G1 X-18.224 Y15.582 E31.29949
M204 S1000
; printing object central_crank_shaft.STL id:0 copy 0
;WIPE_START
G1 F8640
G1 X-27.5 Y4.567 E28.44949
;WIPE_END
G1 E28.29949 F1800
G92 E0
G1 X-12.389 Y-49.971 F10800
G1 E3 F1800
M204 S800
;TYPE:Support material
G1 F1200
G1 X-12.389 Y-20.853 E4.46984
G1 X24.4 Y-20.853 E6.32692
G1 X25.967 Y-19.286 E6.43878
G1 X25.967 Y-17.796 E6.514
G1 X28.024 Y-17.796 E6.61784
G1 X28.024 Y48.481 E9.96343
G1 X12.889 Y48.481 E10.72745
G1 X12.889 Y17.229 E12.30501
G1 X12.389 Y16.729 E12.34071
G1 X12.389 Y2.954 E13.03608
G1 X11.399 Y2.954 E13.08606
G1 X9.832 Y1.387 E13.19792
G1 X9.832 Y.396 E13.2479
G1 X-24.4 Y.396 E14.9759
G1 X-24.9 Y-.104 E15.01159
G1 X-28.024 Y-.104 E15.16929
G1 X-28.024 Y-48.481 E17.61133
G1 X-25.967 Y-48.481 E17.71517
G1 X-25.967 Y-49.971 E17.79039
G1 X-24.4 Y-51.538 E17.90225
G1 X-13.956 Y-51.538 E18.42947
G1 X-12.453 Y-50.035 E18.53674
M204 S1000
;WIPE_START
G1 F8640
G1 X-13.956 Y-51.538 E18.11617
G1 X-24.4 Y-51.538 E16.04905
G1 X-25.695 Y-50.244 E15.68674
;WIPE_END
G1 E15.53674 F1800
G92 E0
G1 X27.478 Y-16.706 F10800
G1 E3 F1800
M204 S800
G1 F1200
G1 X27.478 Y-17.25 E3.02742
G1 X26.631 Y-17.25 E3.07016
G1 X27.478 Y-16.403 E3.13061
G1 X27.478 Y-15.449 E3.17877
G1 X25.677 Y-17.25 E3.30731
G1 X25.421 Y-17.25 E3.32026
G1 X25.421 Y-17.506 E3.3332
G1 X22.62 Y-20.307 E3.53313
G1 X23.574 Y-20.307 E3.58129
G1 X25.421 Y-18.46 E3.71312
G1 X25.421 Y-17.81 E3.74595
M204 S1000
;WIPE_START
G1 F8640
G1 X25.421 Y-18.46 E3.61723
G1 X23.574 Y-20.307 E3.10033
G1 X22.62 Y-20.307 E2.91153
G1 X25.421 Y-17.506 E2.12763
G1 X25.421 Y-17.25 E2.07689
G1 X25.677 Y-17.25 E2.02614
G1 X27.478 Y-15.449 E1.52214
G1 X27.478 Y-16.403 E1.33334
G1 X26.631 Y-17.25 E1.09633
G1 X27.478 Y-17.25 E.92875
G1 X27.478 Y-17.084 E.89595
;WIPE_END
G1 E.74595 F1800
G92 E0
G1 X13.593 Y47.935 F10800
G1 E3 F1800
M204 S800
G1 F1200
G1 X13.435 Y47.777 E3.01125
G1 X13.435 Y46.823 E3.05941
G1 X14.547 Y47.935 E3.13876
G1 X15.501 Y47.935 E3.18691
G1 X13.435 Y45.869 E3.33436
G1 X13.435 Y44.915 E3.38252
G1 X16.455 Y47.935 E3.59807
G1 X17.409 Y47.935 E3.64622
G1 X13.435 Y43.961 E3.92987
G1 X13.435 Y43.007 E3.97802
G1 X18.363 Y47.935 E4.32977
G1 X19.317 Y47.935 E4.37793
G1 X13.435 Y42.053 E4.79777
G1 X13.435 Y41.099 E4.84593
G1 X20.27 Y47.935 E5.33387
G1 X21.224 Y47.935 E5.38203
G1 X13.435 Y40.146 E5.93807
G1 X13.435 Y39.192 E5.98623
G1 X22.178 Y47.935 E6.61037
G1 X23.132 Y47.935 E6.65853
G1 X13.435 Y38.238 E7.35077
G1 X13.435 Y37.284 E7.39893
G1 X24.086 Y47.935 E8.15927
G1 X25.04 Y47.935 E8.20742
G1 X13.435 Y36.33 E9.03587
G1 X13.435 Y35.376 E9.08402
G1 X25.994 Y47.935 E9.98056
G1 X26.948 Y47.935 E10.02872
G1 X13.435 Y34.422 E10.99336
G1 X13.435 Y33.468 E11.04151
G1 X27.478 Y47.511 E12.04399
G1 X27.478 Y46.557 E12.09214
G1 X13.435 Y32.514 E13.09462
G1 X13.435 Y31.56 E13.14278
G1 X27.478 Y45.603 E14.14525
G1 X27.478 Y44.649 E14.19341
G1 X13.435 Y30.606 E15.19589
G1 X13.435 Y29.652 E15.24404
G1 X27.478 Y43.695 E16.24652
G1 X27.478 Y42.741 E16.29467
G1 X13.435 Y28.698 E17.29715
G1 X13.435 Y27.744 E17.3453
G1 X27.478 Y41.787 E18.34778
G1 X27.478 Y40.833 E18.39594
G1 X13.435 Y26.79 E19.39841
G1 X13.435 Y25.837 E19.44657
G1 X27.478 Y39.879 E20.44905
G1 X27.478 Y38.925 E20.4972
G1 X13.435 Y24.883 E21.49968
G1 X13.435 Y23.929 E21.54783
G1 X27.478 Y37.971 E22.55031
G1 X27.478 Y37.017 E22.59846
G1 X13.435 Y22.975 E23.60094
G1 X13.435 Y22.021 E23.6491
G1 X27.478 Y36.063 E24.65157
G1 X27.478 Y35.11 E24.69973
G1 X13.435 Y21.067 E25.70221
G1 X13.435 Y20.113 E25.75036
G1 X27.478 Y34.156 E26.75284
G1 X27.478 Y33.202 E26.80099
G1 X13.435 Y19.159 E27.80347
G1 X13.435 Y18.205 E27.85162
G1 X27.478 Y32.248 E28.8541
G1 X27.478 Y31.294 E28.90226
G1 X13.435 Y17.251 E29.90474
G1 X13.435 Y17.003 E29.91727
G1 X12.935 Y16.503 E29.95297
G1 X12.935 Y15.797 E29.98858
G1 X27.478 Y30.34 E31.02676
G1 X27.478 Y29.386 E31.07491
G1 X12.935 Y14.843 E32.11308
G1 X12.935 Y13.889 E32.16124
G1 X27.478 Y28.432 E33.19941
G1 X27.478 Y27.478 E33.24756
G1 X12.935 Y12.935 E34.28573
G1 X12.935 Y11.981 E34.33389
G1 X27.478 Y26.524 E35.37206
G1 X27.478 Y25.57 E35.42021
G1 X12.935 Y11.027 E36.45839
G1 X12.935 Y10.074 E36.50654
G1 X27.478 Y24.616 E37.54471
G1 X27.478 Y23.662 E37.59287
G1 X12.935 Y9.12 E38.63104
G1 X12.935 Y8.166 E38.67919
G1 X27.478 Y22.708 E39.71736
G1 X27.478 Y21.754 E39.76552
G1 X12.935 Y7.212 E40.80369
G1 X12.935 Y6.258 E40.85184
G1 X27.478 Y20.801 E41.89002
G1 X27.478 Y19.847 E41.93817
G1 X12.935 Y5.304 E42.97634
G1 X12.935 Y4.35 E43.0245
G1 X27.478 Y18.893 E44.06267
G1 X27.478 Y17.939 E44.11082
G1 X12.935 Y3.396 E45.149
G1 X12.935 Y2.442 E45.19715
G1 X27.478 Y16.985 E46.23532
G1 X27.478 Y16.031 E46.28347
G1 X-8.859 Y-20.307 E48.87753
G1 X-7.906 Y-20.307 E48.92569
G1 X27.478 Y15.077 E51.45165
G1 X27.478 Y14.123 E51.4998
G1 X-6.952 Y-20.307 E53.95766
G1 X-5.998 Y-20.307 E54.00582
G1 X27.478 Y13.169 E56.39558
G1 X27.478 Y12.215 E56.44373
G1 X-5.044 Y-20.307 E58.7654
G1 X-4.09 Y-20.307 E58.81355
G1 X27.478 Y11.261 E61.06711
G1 X27.478 Y10.307 E61.11527
G1 X-3.136 Y-20.307 E63.30073
G1 X-2.182 Y-20.307 E63.34888
G1 X27.478 Y9.353 E65.46625
G1 X27.478 Y8.399 E65.5144
G1 X-1.228 Y-20.307 E67.56367
G1 X-.274 Y-20.307 E67.61182
G1 X27.478 Y7.445 E69.59299
G1 X27.478 Y6.492 E69.64114
G1 X.68 Y-20.307 E71.55421
G1 X1.634 Y-20.307 E71.60236
G1 X27.478 Y5.538 E73.44733
G1 X27.478 Y4.584 E73.49549
G1 X2.588 Y-20.307 E75.27235
G1 X3.542 Y-20.307 E75.32051
G1 X27.478 Y3.63 E77.02928
G1 X27.478 Y2.676 E77.07743
G1 X4.496 Y-20.307 E78.7181
G1 X5.449 Y-20.307 E78.76626
G1 X27.478 Y1.722 E80.33883
G1 X27.478 Y.768 E80.38698
G1 X6.403 Y-20.307 E81.89145
G1 X7.357 Y-20.307 E81.93961
G1 X27.478 Y-.186 E83.37598
G1 X27.478 Y-1.14 E83.42413
G1 X8.311 Y-20.307 E84.79241
G1 X9.265 Y-20.307 E84.84056
G1 X27.478 Y-2.094 E86.14073
G1 X27.478 Y-3.048 E86.18889
G1 X10.219 Y-20.307 E87.42096
G1 X11.173 Y-20.307 E87.46912
G1 X27.478 Y-4.002 E88.63309
G1 X27.478 Y-4.956 E88.68125
G1 X12.127 Y-20.307 E89.77712
G1 X13.081 Y-20.307 E89.82528
G1 X27.478 Y-5.91 E90.85305
G1 X27.478 Y-6.864 E90.90121
G1 X14.035 Y-20.307 E91.86088
G1 X14.989 Y-20.307 E91.90904
G1 X27.478 Y-7.817 E92.80062
G1 X27.478 Y-8.771 E92.84877
G1 X15.943 Y-20.307 E93.67225
G1 X16.897 Y-20.307 E93.7204
G1 X27.478 Y-9.725 E94.47578
G1 X27.478 Y-10.679 E94.52394
G1 X17.851 Y-20.307 E95.21122
G1 X18.805 Y-20.307 E95.25937
G1 X27.478 Y-11.633 E95.87855
G1 X27.478 Y-12.587 E95.92671
G1 X19.758 Y-20.307 E96.47779
G1 X20.712 Y-20.307 E96.52594
G1 X27.478 Y-13.541 E97.00893
G1 X27.478 Y-14.495 E97.05708
G1 X21.666 Y-20.307 E97.47197
G1 X22.317 Y-20.307 E97.5048
M204 S1000
;WIPE_START
G1 F8640
G1 X21.666 Y-20.307 E97.37607
G1 X27.478 Y-14.495 E95.7494
G1 X27.478 Y-13.541 E95.5606
G1 X24.242 Y-16.777 E94.6548
;WIPE_END
G1 E94.5048 F1800
G92 E0
G1 X-9.163 Y-20.307 F10800
G1 E3 F1800
M204 S800
G1 F1200
G1 X-9.813 Y-20.307 E3.03283
G1 X10.343 Y-.15 E4.47178
G1 X9.389 Y-.15 E4.51994
G1 X-10.767 Y-20.307 E5.95889
G1 X-11.721 Y-20.307 E6.00704
G1 X8.435 Y-.15 E7.44599
G1 X7.482 Y-.15 E7.49414
G1 X-12.675 Y-20.307 E8.93309
G1 X-12.935 Y-20.307 E8.94622
G1 X-12.935 Y-20.567 E8.95935
G1 X-27.478 Y-35.11 E9.99753
G1 X-27.478 Y-36.063 E10.04568
G1 X-12.935 Y-21.521 E11.08385
G1 X-12.935 Y-22.475 E11.13201
G1 X-27.478 Y-37.017 E12.17018
G1 X-27.478 Y-37.971 E12.21833
G1 X-12.935 Y-23.429 E13.2565
G1 X-12.935 Y-24.383 E13.30466
G1 X-27.478 Y-38.925 E14.34283
G1 X-27.478 Y-39.879 E14.39098
G1 X-12.935 Y-25.336 E15.42916
G1 X-12.935 Y-26.29 E15.47731
G1 X-27.478 Y-40.833 E16.51548
G1 X-27.478 Y-41.787 E16.56364
G1 X-12.935 Y-27.244 E17.60181
G1 X-12.935 Y-28.198 E17.64996
G1 X-27.478 Y-42.741 E18.68813
G1 X-27.478 Y-43.695 E18.73629
G1 X-12.935 Y-29.152 E19.77446
G1 X-12.935 Y-30.106 E19.82261
G1 X-27.478 Y-44.649 E20.86079
G1 X-27.478 Y-45.603 E20.90894
G1 X-12.935 Y-31.06 E21.94711
G1 X-12.935 Y-32.014 E21.99526
G1 X-27.478 Y-46.557 E23.03344
G1 X-27.478 Y-47.511 E23.08159
G1 X-12.935 Y-32.968 E24.11976
G1 X-12.935 Y-33.922 E24.16792
G1 X-26.948 Y-47.935 E25.16825
G1 X-25.994 Y-47.935 E25.21641
G1 X-12.935 Y-34.876 E26.14864
G1 X-12.935 Y-35.83 E26.19679
G1 X-25.421 Y-48.315 E27.08812
G1 X-25.421 Y-49.269 E27.13627
G1 X-12.935 Y-36.784 E28.02759
G1 X-12.935 Y-37.738 E28.07574
G1 X-25.182 Y-49.984 E28.94999
G1 X-24.705 Y-50.461 E28.98404
G1 X-12.935 Y-38.692 E29.82423
G1 X-12.935 Y-39.646 E29.87238
G1 X-24.228 Y-50.938 E30.67852
G1 X-23.327 Y-50.992 E30.72405
G1 X-12.935 Y-40.599 E31.46592
G1 X-12.935 Y-41.553 E31.51408
G1 X-22.374 Y-50.992 E32.18786
G1 X-21.42 Y-50.992 E32.23601
G1 X-12.935 Y-42.507 E32.84169
G1 X-12.935 Y-43.461 E32.88984
G1 X-20.466 Y-50.992 E33.42742
G1 X-19.512 Y-50.992 E33.47558
G1 X-12.935 Y-44.415 E33.94506
G1 X-12.935 Y-45.369 E33.99321
G1 X-18.558 Y-50.992 E34.3946
G1 X-17.604 Y-50.992 E34.44275
G1 X-12.935 Y-46.323 E34.77603
G1 X-12.935 Y-47.277 E34.82419
G1 X-16.65 Y-50.992 E35.08937
G1 X-15.696 Y-50.992 E35.13752
G1 X-12.935 Y-48.231 E35.33461
G1 X-12.935 Y-49.185 E35.38276
G1 X-14.742 Y-50.992 E35.51175
G1 X-14.182 Y-50.992 E35.54001
G1 X-13.931 Y-50.741 E35.55792
M204 S1000
;WIPE_START
G1 F8640
G1 X-14.182 Y-50.992 E35.48769
G1 X-14.742 Y-50.992 E35.37688
G1 X-12.935 Y-49.185 E34.87116
G1 X-12.935 Y-48.231 E34.68236
G1 X-15.696 Y-50.992 E33.90963
G1 X-16.65 Y-50.992 E33.72083
G1 X-13.031 Y-47.373 E32.70792
;WIPE_END
G1 E32.55792 F1800
G92 E0
G1 X10.378 Y-.115 F10800
G1 E3 F1800
M204 S800
G1 F1200
G1 X12.9 Y2.407 E3.18005
G1 X11.946 Y2.407 E3.22821
G1 X10.378 Y.839 E3.34016
M204 S1000
;WIPE_START
G1 F8640
G1 X11.946 Y2.407 E2.90121
G1 X12.9 Y2.407 E2.71241
G1 X10.378 Y-.115 E2.00646
;WIPE_END
G1 E.34016 F1800
G92 E0
G1 X-23.998 Y-.15 F10800
G1 E3 F1800
M204 S800
G1 F1200
G1 X-27.478 Y-3.63 E3.24842
G1 X-27.478 Y-4.584 E3.29657
G1 X-23.044 Y-.15 E3.61309
G1 X-22.09 Y-.15 E3.66124
G1 X-27.478 Y-5.538 E4.04586
G1 X-27.478 Y-6.492 E4.09401
G1 X-21.136 Y-.15 E4.54672
G1 X-20.182 Y-.15 E4.59488
G1 X-27.478 Y-7.445 E5.11569
G1 X-27.478 Y-8.399 E5.16384
G1 X-19.229 Y-.15 E5.75276
G1 X-18.275 Y-.15 E5.80091
G1 X-27.478 Y-9.353 E6.45792
G1 X-27.478 Y-10.307 E6.50608
G1 X-17.321 Y-.15 E7.23119
G1 X-16.367 Y-.15 E7.27934
G1 X-27.478 Y-11.261 E8.07255
G1 X-27.478 Y-12.215 E8.1207
G1 X-15.413 Y-.15 E8.98201
G1 X-14.459 Y-.15 E9.03017
G1 X-27.478 Y-13.169 E9.95958
G1 X-27.478 Y-14.123 E10.00773
G1 X-13.505 Y-.15 E11.00524
G1 X-12.551 Y-.15 E11.05339
G1 X-27.478 Y-15.077 E12.119
G1 X-27.478 Y-16.031 E12.16715
G1 X-11.597 Y-.15 E13.30086
G1 X-10.643 Y-.15 E13.34901
G1 X-27.478 Y-16.985 E14.55082
G1 X-27.478 Y-17.939 E14.59897
G1 X-9.689 Y-.15 E15.86888
G1 X-8.735 Y-.15 E15.91703
G1 X-27.478 Y-18.893 E17.25504
G1 X-27.478 Y-19.847 E17.30319
G1 X-7.781 Y-.15 E18.70929
G1 X-6.827 Y-.15 E18.75745
G1 X-27.478 Y-20.801 E20.23165
G1 X-27.478 Y-21.754 E20.2798
G1 X-5.873 Y-.15 E21.82211
G1 X-4.92 Y-.15 E21.87026
G1 X-27.478 Y-22.708 E23.48066
G1 X-27.478 Y-23.662 E23.52881
G1 X-3.966 Y-.15 E25.20731
G1 X-3.012 Y-.15 E25.25547
G1 X-27.478 Y-24.616 E27.00207
G1 X-27.478 Y-25.57 E27.05022
G1 X-2.058 Y-.15 E28.86492
G1 X-1.104 Y-.15 E28.91307
G1 X-27.478 Y-26.524 E30.79587
G1 X-27.478 Y-27.478 E30.84403
G1 X-.15 Y-.15 E32.79492
G1 X.804 Y-.15 E32.84308
G1 X-27.478 Y-28.432 E34.86207
G1 X-27.478 Y-29.386 E34.91023
G1 X1.758 Y-.15 E36.99732
G1 X2.712 Y-.15 E37.04548
G1 X-27.478 Y-30.34 E39.20067
G1 X-27.478 Y-31.294 E39.24883
G1 X3.666 Y-.15 E41.47212
G1 X4.62 Y-.15 E41.52027
G1 X-27.478 Y-32.248 E43.81167
G1 X-27.478 Y-33.202 E43.85982
G1 X5.574 Y-.15 E46.21931
G1 X6.528 Y-.15 E46.26747
G1 X-27.478 Y-34.156 E48.69506
G1 X-27.478 Y-34.806 E48.72789
M204 S1000
;WIPE_START
G1 F8640
G1 X-27.478 Y-34.156 E48.59917
G1 X-17.756 Y-24.433 E45.87789
;WIPE_END
G1 E45.72789 F1800
G92 E0
G1 X-27.36 Y-.65 F10800
G1 E3 F1800
M204 S800
G1 F1200
G1 X-27.478 Y-.768 E3.00843
G1 X-27.478 Y-1.722 E3.05658
G1 X-26.406 Y-.65 E3.1331
G1 X-25.452 Y-.65 E3.18126
G1 X-27.478 Y-2.676 E3.32588
G1 X-27.478 Y-3.326 E3.35871
M204 S1000
; stop printing object central_crank_shaft.STL id:0 copy 0
;LAYER_CHANGE
;Z:0.65
;HEIGHT:0.45
