; generated by PrusaSlicer 2.4.0+win64 on 2022-01-19 at 16:44:22 UTC

; 

; external perimeters extrusion width = 0.61mm
; perimeters extrusion width = 0.65mm
; infill extrusion width = 0.70mm
; solid infill extrusion width = 0.65mm
; top infill extrusion width = 0.60mm
; support material extrusion width = 0.60mm
; first layer extrusion width = 0.65mm

M107
;TYPE:Custom
; **** Start of Start GCode: FlashForge Creator 3 ****
M118 X150.00 Y125.00 Z200.00 T0 T1
; todo: need to post process Active extruders in m118

G90 ; absolute positioning
M108 T0 ; tool change
G1 X187 Y0.000 F10800 ; Move initial extruder over anti-ooze plate (9-point Bed Levelling sometimes leaves it off plate)

; Set Filament Z-Offset
G1 Z0.000 F720 ;
;FFPP-UNCOMMENT; G92 Z-<FFPP-filament_extra_z_offset> ; Value substituted by FFPP script (FFPP-filament_extra_z_offset)(negative is printing higher in air)

M140 S85 T0 ; set bed temperature
M104 S250 T0 ; set right extruder temp
M104 S210 T1 ; set left extruder temp

M7 T0 ; wait for platform
M6 T0 ; wait for temp
M6 T1 ; wait for temp

M106 ; Extruder/Heat Break fan on
M651 S255 ; chassis fan on (after heating reached to speed up heating)

; Purge Filament (gets rid of any curling filament too)
G1 X172 F10800 ; Move initial extruder off anti-ooze plate
G92 E0 ; reset extrusion distance 
G1 F150 E20 ; feed 20mm of feed stock 
G92 E0 ; reset extrusion distance


; M652 ; chassis fan off 
; M109 T1/2 only if dupe or mirror

;layer_count: <FFPP-calculated-total_layer_count> ; Value substituted by FFPP script (FFPP-calculated-total_layer_count)
; **** End of Start GCode: FlashForge Creator 3 ****
G21 ; set units to millimeters
G90 ; use absolute coordinates
M82 ; use absolute distances for extrusion
G92 E0
; **** Start of Tool Change GCode: FlashForge Creator 3 ****
M108 T0
; **** End of Tool Change GCode: FlashForge Creator 3 ****
T0
G92 E0
; **** Start of Filament-Specific Start GCode: Filaments.ca PETG Filament - Transparent (Hardened 0.6mm) ****
; FFPP-filament_extra_z_offset: 0.06 ; Value parsed by FFPP script
; **** End of Filament-Specific Start GCode: EconoFil PETG ****
M107
;LAYER_CHANGE
;Z:0.2
;HEIGHT:0.2
; **** Start of Before Layer Change GCode: FlashForge Creator 3 ****
; FFPP-layer_z_height: 0.2 ; Value parsed by FFPP script
;layer:<FFPP-calculated-next_layer_height> ; Value substituted by FFPP script (FFPP-calculated-next_layer_height)
; **** End of Before Layer Change GCode: FlashForge Creator 3 ****
G1 Z.2 F720
; **** Start of After Layer Change GCode: FlashForge Creator 3 ****
; **** End of After Layer Change GCode: FlashForge Creator 3 ****
G1 E-3 F1800
G92 E0
G1 X-14.677 Y11.714 F10800
G1 E3 F1800
M204 S800
;TYPE:Skirt/Brim
;WIDTH:0.65
G1 F1200
G1 X-26.486 Y-3.082 E3.95564
G1 X-27.188 Y-5.087 E4.06288
G1 X-27.188 Y-45.087 E6.08204
G1 X-26.795 Y-46.629 E6.16235
G1 X-25.71 Y-47.793 E6.24266
G1 X-23.974 Y-48.302 E6.33396
G1 X-16.026 Y-48.302 E6.73519
G1 X-14.097 Y-47.659 E6.8378
G1 X25.903 Y-17.659 E9.36175
G1 X26.9 Y-16.419 E9.44206
G1 X27.184 Y-15.248 E9.50288
G1 X28.307 Y7.275 E10.64123
G1 X28.305 Y14.118 E10.98666
G1 X27.14 Y45.208 E12.55714
G1 X26.213 Y47.348 E12.67489
G1 X25.282 Y48.288 E12.74164
G1 X23.918 Y49.107 E12.82195
G1 X22.998 Y49.242 E12.86891
G1 X17.9 Y49.242 E13.12627
G1 X16.429 Y48.886 E13.20263
G1 X14.602 Y47.946 E13.30636
G1 X13.56 Y47.093 E13.37434
G1 X-14.621 Y11.784 E15.65474
M204 S1000
G1 X-14.146 Y11.406 F10800
M204 S800
G1 F1200
G1 X-26.012 Y-3.461 E16.61493
G1 X-26.581 Y-5.087 E16.70191
G1 X-26.581 Y-45.087 E18.72106
G1 X-26.189 Y-46.463 E18.79326
G1 X-25.13 Y-47.424 E18.86546
G1 X-23.974 Y-47.695 E18.92538
G1 X-16.026 Y-47.695 E19.32661
G1 X-14.461 Y-47.173 E19.40984
G1 X25.539 Y-17.173 E21.93379
G1 X26.403 Y-16.034 E22.00599
G1 X26.578 Y-15.218 E22.04812
G1 X27.7 Y7.275 E23.18494
G1 X27.698 Y14.095 E23.52922
G1 X26.533 Y45.185 E25.09971
G1 X25.781 Y46.921 E25.19521
G1 X24.851 Y47.861 E25.26196
G1 X22.998 Y48.635 E25.36333
G1 X17.9 Y48.635 E25.62068
G1 X16.707 Y48.346 E25.68261
G1 X14.88 Y47.406 E25.78635
G1 X14.035 Y46.714 E25.84149
G1 X-14.09 Y11.476 E28.11734
M204 S1000
; printing object central_crank_shaft.STL id:0 copy 0
;WIPE_START
G1 F8640
G1 X-23.073 Y.221 E25.26734
;WIPE_END
G1 E25.11734 F1800
G92 E0
G1 X18.301 Y12.85 F10800
G1 E3 F1800
M204 S800
;TYPE:Support material
G1 F1200
G1 X18.003 Y12.85 E3.01507
G1 X17.296 Y12.144 E3.06552
G1 X17.296 Y15.85 E3.25262
G1 X16.76 Y15.85 E3.27968
G1 X14.946 Y14.037 E3.40916
G1 X14.946 Y7.275 E3.75049
G1 X18.301 Y7.275 E3.91984
G1 X18.301 Y12.759 E4.19669
M204 S1000
G1 X17.538 Y11.999 F10800
M204 S800
G1 F1200
G1 X17.538 Y7.821 E4.4076
G1 X16.863 Y7.821 E4.44165
G1 X16.75 Y15.067 E4.80747
G1 X16.189 Y14.507 E4.8475
G1 X16.189 Y7.821 E5.18497
G1 X15.514 Y7.821 E5.21902
G1 X15.514 Y14.218 E5.54194
M204 S1000
;WIPE_START
G1 F8640
G1 X15.514 Y7.821 E4.27584
G1 X16.189 Y7.821 E4.14233
G1 X16.189 Y14.507 E2.81919
G1 X16.643 Y14.961 E2.69194
;WIPE_END
G1 E2.54194 F1800
G92 E0
G1 X25.093 Y13.998 F10800
G1 E3 F1800
M204 S800
G1 F1200
G1 X23.617 Y15.473 E3.10534
G1 X23.617 Y9.625 E3.40056
G1 X22.093 Y9.625 E3.47751
G1 X22.093 Y12.755 E3.63553
G1 X21.699 Y12.85 E3.65599
G1 X21.699 Y7.275 E3.93744
G1 X25.093 Y7.275 E4.10876
G1 X25.093 Y13.907 E4.44352
M204 S1000
G1 X24.283 Y14.421 F10800
M204 S800
G1 F1200
G1 X24.283 Y7.821 E4.77667
G1 X23.609 Y7.821 E4.81072
G1 X23.609 Y9.078 E4.87418
G1 X22.934 Y9.078 E4.90823
G1 X22.934 Y7.821 E4.97168
G1 X22.26 Y7.821 E5.00573
G1 X22.26 Y9.351 E5.08298
M204 S1000
G1 X22.998 Y10.228 F10800
M204 S800
;WIDTH:0.6
G1 F1200
G1 X22.998 Y46.027 E6.74124
G1 X22.341 Y46.027 E6.77168
G1 X22.341 Y13.361 E8.28484
G1 X21.684 Y13.454 E8.31558
G1 X21.684 Y46.027 E9.82443
G1 X21.027 Y46.027 E9.85486
G1 X21.027 Y13.454 E11.36371
G1 X20.369 Y13.454 E11.39414
G1 X20.369 Y46.027 E12.90299
G1 X19.712 Y46.027 E12.93343
G1 X19.712 Y13.454 E14.44227
G1 X19.055 Y13.454 E14.47271
G1 X19.055 Y46.027 E15.98155
G1 X18.398 Y46.027 E16.01199
G1 X18.398 Y13.454 E17.52084
G1 X17.9 Y13.454 E17.54394
G1 X17.9 Y46.027 E19.05278
G1 X18.12 Y46.027 E19.06298
M204 S1000
;WIPE_START
G1 F8640
G1 X17.9 Y46.027 E19.01941
G1 X17.9 Y31.848 E16.21298
;WIPE_END
G1 E16.06298 F1800
G92 E0
G1 X19.954 Y-.808 F10800
G1 E3 F1800
M204 S800
;TYPE:Perimeter
;WIDTH:0.65
G1 F1200
G1 X19.102 Y-2.167 E3.08096
G1 X17.782 Y-3.543 E3.17721
G1 X16.425 Y-4.588 E3.26369
G1 X14.941 Y-5.384 E3.3487
G1 X13.468 Y-5.854 E3.42673
G1 X12.056 Y-6.019 E3.49851
G1 X-19.954 Y-6.02 E5.11432
G1 X-19.954 Y-19.547 E5.79717
G1 X-19.771 Y-18.98 E5.82722
G1 X-18.002 Y-16.827 E5.96792
G1 X-15.6 Y-15.1 E6.11726
G1 X-14.292 Y-14.547 E6.18894
G1 X-12.941 Y-14.224 E6.25904
G1 X19.954 Y-14.157 E7.91955
G1 X19.954 Y-.898 E8.58886
M204 S1000
;WIPE_START
G1 F8640
G1 X19.102 Y-2.167 E8.28639
G1 X17.782 Y-3.543 E7.909
G1 X16.425 Y-4.588 E7.56992
G1 X14.941 Y-5.384 E7.23662
G1 X13.468 Y-5.854 E6.93068
G1 X12.056 Y-6.019 E6.64924
G1 X7.456 Y-6.019 E5.73886
;WIPE_END
G1 E5.58886 F1800
G92 E0
G1 X19.437 Y12.363 F10800
G1 E3 F1800
M204 S800
;TYPE:External perimeter
G1 F1200
G1 X19.357 Y-.618 E3.65523
G1 X18.621 Y-1.792 E3.72518
G1 X17.376 Y-3.09 E3.81599
G1 X16.094 Y-4.077 E3.89765
G1 X14.703 Y-4.823 E3.97732
G1 X13.34 Y-5.258 E4.04957
G1 X12.02 Y-5.412 E4.11661
G1 X-20.561 Y-5.412 E5.76127
G1 X-20.561 Y-44.762 E7.74762
G1 X-19.439 Y-44.762 E7.80424
G1 X-19.431 Y-19.905 E9.05905
G1 X-19.229 Y-19.276 E9.09235
G1 X-17.584 Y-17.273 E9.22321
G1 X-15.301 Y-15.633 E9.36511
G1 X-14.102 Y-15.126 E9.43082
G1 X-12.869 Y-14.831 E9.4948
G1 X20.561 Y-14.763 E11.18231
G1 X20.561 Y12.363 E12.55158
G1 X19.527 Y12.363 E12.60377
M204 S1000
G1 X19.443 Y11.763 F10800
G1 X19.998 Y12.059
M204 S800
;TYPE:Gap fill
;WIDTH:0.600179
G1 F1200
G1 X19.979 Y5.783 E12.89459
M204 S1000
M204 S800
;WIDTH:0.637276
G1 X19.959 Y-.494 E13.20478
M204 S1000
;WIPE_START
G1 F8640
G1 X19.979 Y5.783 E11.96257
;WIPE_END
G1 E10.20478 F1800
G92 E0
G1 X19.772 Y-12.742 F10800
G1 E3 F1800
M204 S800
;TYPE:Solid infill
;WIDTH:0.652814
G1 F1200
G1 X18.81 Y-13.704 E3.06899
G1 X17.945 Y-13.706 E3.11282
G1 X19.498 Y-12.153 E3.22421
G1 X19.498 Y-11.291 E3.26795
G1 X17.081 Y-13.708 E3.44132
G1 X16.217 Y-13.71 E3.48515
G1 X19.498 Y-10.428 E3.7205
G1 X19.498 Y-9.565 E3.76424
G1 X15.353 Y-13.711 E4.06158
G1 X14.488 Y-13.713 E4.10541
G1 X19.498 Y-8.703 E4.46474
G1 X19.498 Y-7.84 E4.50848
G1 X13.624 Y-13.715 E4.92979
G1 X12.76 Y-13.717 E4.97362
G1 X19.498 Y-6.978 E5.45691
G1 X19.498 Y-6.115 E5.50065
G1 X11.895 Y-13.718 E6.04593
G1 X11.031 Y-13.72 E6.08976
G1 X19.498 Y-5.253 E6.69703
G1 X19.498 Y-4.39 E6.74077
G1 X10.167 Y-13.722 E7.41002
G1 X9.303 Y-13.724 E7.45385
G1 X19.498 Y-3.528 E8.18508
G1 X19.498 Y-2.665 E8.22882
G1 X8.438 Y-13.725 E9.02204
G1 X7.574 Y-13.727 E9.06587
G1 X15.932 Y-5.37 E9.66527
G1 X14.406 Y-6.033 E9.74967
G1 X6.71 Y-13.729 E10.3016
G1 X5.846 Y-13.731 E10.34543
G1 X13.237 Y-6.34 E10.87551
G1 X12.26 Y-6.453 E10.92535
G1 X4.981 Y-13.732 E11.4474
G1 X4.117 Y-13.734 E11.49123
G1 X11.377 Y-6.474 E12.01192
G1 X10.515 Y-6.474 E12.05566
G1 X3.253 Y-13.736 E12.57647
G1 X2.388 Y-13.738 E12.6203
G1 X9.652 Y-6.474 E13.14123
G1 X8.789 Y-6.474 E13.18497
G1 X1.524 Y-13.739 E13.70603
G1 X.66 Y-13.741 E13.74986
G1 X7.927 Y-6.474 E14.27105
G1 X7.064 Y-6.474 E14.31479
G1 X-.204 Y-13.743 E14.8361
G1 X-1.069 Y-13.745 E14.87993
G1 X6.202 Y-6.474 E15.40136
G1 X5.339 Y-6.474 E15.4451
G1 X-1.933 Y-13.747 E15.96666
G1 X-2.797 Y-13.748 E16.01049
G1 X4.477 Y-6.474 E16.53218
G1 X3.614 Y-6.474 E16.57592
G1 X-3.662 Y-13.75 E17.09772
G1 X-4.526 Y-13.752 E17.14155
G1 X2.752 Y-6.474 E17.66349
G1 X1.889 Y-6.474 E17.70723
G1 X-5.39 Y-13.754 E18.22929
G1 X-6.254 Y-13.755 E18.27312
G1 X1.027 Y-6.474 E18.7953
G1 X.164 Y-6.474 E18.83904
G1 X-7.119 Y-13.757 E19.36134
G1 X-7.983 Y-13.759 E19.40517
G1 X-.698 Y-6.474 E19.92761
G1 X-1.561 Y-6.474 E19.97135
G1 X-8.847 Y-13.761 E20.4939
G1 X-9.711 Y-13.762 E20.53773
G1 X-2.424 Y-6.474 E21.06041
G1 X-3.286 Y-6.474 E21.10415
G1 X-10.576 Y-13.764 E21.62696
G1 X-11.44 Y-13.766 E21.67079
G1 X-4.149 Y-6.474 E22.19372
G1 X-5.011 Y-6.475 E22.23746
G1 X-12.304 Y-13.768 E22.76051
G1 X-13.223 Y-13.823 E22.80716
G1 X-5.874 Y-6.475 E23.33421
G1 X-6.736 Y-6.475 E23.37795
G1 X-14.356 Y-14.094 E23.9244
G1 X-15.828 Y-14.703 E24.00519
G1 X-7.599 Y-6.475 E24.59535
G1 X-8.461 Y-6.475 E24.63909
G1 X-19.499 Y-17.512 E25.43066
G1 X-19.499 Y-16.649 E25.47441
G1 X-9.324 Y-6.475 E26.20412
G1 X-10.186 Y-6.475 E26.24786
G1 X-19.499 Y-15.787 E26.91571
G1 X-19.499 Y-14.924 E26.95945
G1 X-11.049 Y-6.475 E27.56544
G1 X-11.912 Y-6.475 E27.60918
G1 X-19.499 Y-14.062 E28.15331
G1 X-19.499 Y-13.199 E28.19705
G1 X-12.774 Y-6.475 E28.67932
G1 X-13.637 Y-6.475 E28.72306
G1 X-19.499 Y-12.337 E29.14347
G1 X-19.499 Y-11.474 E29.18721
G1 X-14.499 Y-6.475 E29.54576
G1 X-15.362 Y-6.475 E29.5895
G1 X-19.499 Y-10.612 E29.88619
G1 X-19.499 Y-9.749 E29.92993
G1 X-16.224 Y-6.475 E30.16476
G1 X-17.087 Y-6.475 E30.2085
G1 X-19.499 Y-8.887 E30.38147
G1 X-19.499 Y-8.024 E30.42521
G1 X-17.949 Y-6.475 E30.53632
G1 X-18.812 Y-6.475 E30.58006
G1 X-19.772 Y-7.435 E30.6489
M204 S1000
;WIPE_START
G1 F8640
G1 X-18.812 Y-6.475 E30.38024
G1 X-17.949 Y-6.475 E30.20953
G1 X-19.499 Y-8.024 E29.77591
G1 X-19.499 Y-8.887 E29.60521
G1 X-17.087 Y-6.475 E28.93017
G1 X-16.224 Y-6.475 E28.75946
G1 X-19.499 Y-9.749 E27.843
G1 X-19.499 Y-9.972 E27.7989
;WIPE_END
G1 E27.6489 F1800
G92 E0
G1 X-19.996 Y-19.848 F10800
G1 E3 F1800
M204 S800
;TYPE:Gap fill
;WIDTH:0.56418
G1 F1200
G1 X-20 Y-21.042 E3.05175
M204 S1000
M204 S800
;WIDTH:0.557712
G1 X-20 Y-21.043 E3.05182
M204 S1000
M204 S800
;WIDTH:0.557706
G1 X-20 Y-44.459 E4.05412
M204 S1000
; stop printing object central_crank_shaft.STL id:0 copy 0
;LAYER_CHANGE
;Z:0.4
;HEIGHT:0.2
; **** Start of Before Layer Change GCode: FlashForge Creator 3 ****
; FFPP-layer_z_height: 0.4 ; Value parsed by FFPP script
;layer:<FFPP-calculated-next_layer_height> ; Value substituted by FFPP script (FFPP-calculated-next_layer_height)
; **** End of Before Layer Change GCode: FlashForge Creator 3 ****
G1 Z.4 F720
; **** Start of After Layer Change GCode: FlashForge Creator 3 ****
; **** End of After Layer Change GCode: FlashForge Creator 3 ****
M104 S245 T0 ; set temperature
M104 S200 T1 ; set temperature
M140 S90 ; set bed temperature
G1 E1.05412 F1800
G92 E0
G1 X-20 Y-48.302 F10800
G1 E3 F1800
;TYPE:Skirt/Brim
;WIDTH:0.65
G1 F2400
G1 X-16.026 Y-48.302 E3.20062
G1 X-14.097 Y-47.659 E3.30323
G1 X25.903 Y-17.659 E5.82717
G1 X26.9 Y-16.419 E5.90749
G1 X27.184 Y-15.248 E5.96831
G1 X28.307 Y7.275 E7.10666
G1 X28.305 Y14.118 E7.45209
G1 X27.14 Y45.208 E9.02257
G1 X26.213 Y47.348 E9.14032
G1 X25.282 Y48.288 E9.20706
G1 X23.918 Y49.107 E9.28738
G1 X22.998 Y49.242 E9.33434
G1 X17.9 Y49.242 E9.59169
G1 X16.429 Y48.886 E9.66805
G1 X14.602 Y47.946 E9.77178
G1 X13.56 Y47.093 E9.83976
G1 X-26.486 Y-3.082 E13.08035
G1 X-27.188 Y-5.087 E13.18759
G1 X-27.188 Y-45.087 E15.20674
G1 X-26.795 Y-46.629 E15.28705
G1 X-25.71 Y-47.793 E15.36737
G1 X-23.974 Y-48.302 E15.45866
G1 X-20.09 Y-48.302 E15.65474
; printing object central_crank_shaft.STL id:0 copy 0
;WIPE_START
G1 F8640
G1 X-16.026 Y-48.302 E14.85035
G1 X-14.097 Y-47.659 E14.44802
G1 X-7.455 Y-42.677 E12.80474
;WIPE_END
G1 E12.65474 F1800
G92 E0
G1 X15.665 Y-4.864 F10800
G1 E3 F1800
M204 S800
;TYPE:Perimeter
G1 F2700
G1 X14.644 Y-5.409 E3.0584
G1 X13.295 Y-5.826 E3.12965
G1 X11.959 Y-5.979 E3.19757
G1 X-20.623 Y-5.98 E4.84224
G1 X-20.623 Y-44.195 E6.77133
G1 X-19.377 Y-44.195 E6.83421
G1 X-19.375 Y-19.874 E8.06191
G1 X-19.013 Y-18.616 E8.12798
G1 X-18.047 Y-17.231 E8.21324
G1 X-16.705 Y-15.969 E8.30625
G1 X-15.206 Y-15.022 E8.39574
G1 X-13.619 Y-14.423 E8.48139
G1 X-11.919 Y-14.196 E8.56794
G1 X20.623 Y-14.195 E10.21062
G1 X20.623 Y11.795 E11.52261
G1 X19.373 Y11.795 E11.58569
G1 X19.317 Y-.77 E12.21999
G1 X18.654 Y-2.162 E12.29782
G1 X17.53 Y-3.488 E12.38558
G1 X15.744 Y-4.822 E12.49809
M204 S1000
G1 X15.819 Y-4.117 F10800
M204 S800
;TYPE:External perimeter
;WIDTH:0.61
G1 F2100
G1 X14.417 Y-4.864 E12.57302
G1 X13.174 Y-5.249 E12.63435
G1 X11.925 Y-5.392 E12.69363
G1 X-21.21 Y-5.392 E14.25604
G1 X-21.21 Y-44.782 E16.1134
G1 X-18.79 Y-44.782 E16.22749
G1 X-18.788 Y-19.957 E17.39808
G1 X-18.476 Y-18.872 E17.4513
G1 X-17.601 Y-17.617 E17.52347
G1 X-16.343 Y-16.435 E17.60483
G1 X-14.943 Y-15.55 E17.68295
G1 X-13.474 Y-14.996 E17.75697
G1 X-11.88 Y-14.783 E17.8328
G1 X21.21 Y-14.782 E19.3931
G1 X21.21 Y12.383 E20.674
G1 X18.789 Y12.383 E20.78817
G1 X18.73 Y-.636 E21.40205
G1 X18.157 Y-1.841 E21.46496
G1 X17.118 Y-3.066 E21.54072
G1 X15.889 Y-4.06 E21.61523
M204 S1000
G1 X15.855 Y-4.715 F10800
;WIPE_START
G1 F8640
G1 X14.417 Y-4.864 E21.2832
G1 X13.174 Y-5.249 E21.02578
G1 X11.925 Y-5.392 E20.77696
G1 X1.761 Y-5.392 E18.76523
;WIPE_END
G1 E18.61523 F1800
G92 E0
G1 X20.441 Y10.38 F10800
G1 E3 F1800
;TYPE:Solid infill
;WIDTH:0.652984
G1 F4200
G1 X19.825 Y10.996 E3.04417
G1 X19.821 Y10.137 E3.08774
G1 X20.167 Y9.79 E3.11259
G1 X20.167 Y8.927 E3.15635
G1 X19.817 Y9.278 E3.18148
G1 X19.813 Y8.419 E3.22505
G1 X20.167 Y8.065 E3.25045
G1 X20.167 Y7.202 E3.29421
G1 X19.81 Y7.56 E3.31989
G1 X19.806 Y6.701 E3.36346
G1 X20.167 Y6.339 E3.38941
G1 X20.167 Y5.476 E3.43318
G1 X19.802 Y5.842 E3.45941
G1 X19.798 Y4.983 E3.50298
G1 X20.167 Y4.614 E3.52948
G1 X20.167 Y3.751 E3.57325
G1 X19.794 Y4.124 E3.60003
G1 X19.79 Y3.265 E3.6436
G1 X20.167 Y2.888 E3.67066
G1 X20.167 Y2.025 E3.71442
G1 X19.786 Y2.406 E3.74175
G1 X19.783 Y1.547 E3.78532
G1 X20.167 Y1.163 E3.81293
G1 X20.167 Y.3 E3.8567
G1 X19.779 Y.689 E3.88458
G1 X19.775 Y-.17 E3.92816
G1 X20.167 Y-.563 E3.95632
G1 X20.167 Y-1.426 E4.00008
G1 X19.721 Y-.98 E4.03208
G1 X19.443 Y-1.564 E4.06492
G1 X20.167 Y-2.288 E4.11688
G1 X20.167 Y-3.151 E4.16064
G1 X19.165 Y-2.149 E4.23256
G1 X18.822 Y-2.668 E4.26415
G1 X20.167 Y-4.014 E4.36067
G1 X20.167 Y-4.877 E4.40444
G1 X18.426 Y-3.135 E4.52937
G1 X18.03 Y-3.602 E4.56042
G1 X20.167 Y-5.739 E4.71375
G1 X20.167 Y-6.602 E4.75752
G1 X17.59 Y-4.025 E4.94241
G1 X17.113 Y-4.411 E4.97353
G1 X20.167 Y-7.465 E5.19265
G1 X20.167 Y-8.328 E5.23642
