; This file has been post-processed by C:\Users\melvi\git-repos\PrusaSlicer-FlashForge\flashforge_post_process.py
; Original File Location: C:\Users\melvi\AppData\Local\Temp\.26188.gcode.pp


; generated by PrusaSlicer 2.4.0+win64 on 2022-02-04 at 07:02:34 UTC

; 

; external perimeters extrusion width = 0.61mm
; perimeters extrusion width = 0.65mm
; infill extrusion width = 0.70mm
; solid infill extrusion width = 0.65mm
; top infill extrusion width = 0.60mm
; first layer extrusion width = 0.65mm

; external perimeters extrusion width = 0.61mm
; perimeters extrusion width = 0.65mm
; infill extrusion width = 0.70mm
; solid infill extrusion width = 0.65mm
; top infill extrusion width = 0.60mm
; first layer extrusion width = 0.65mm

; external perimeters extrusion width = 0.61mm
; perimeters extrusion width = 0.65mm
; infill extrusion width = 0.70mm
; solid infill extrusion width = 0.65mm
; top infill extrusion width = 0.60mm
; first layer extrusion width = 0.65mm

; external perimeters extrusion width = 0.61mm
; perimeters extrusion width = 0.65mm
; infill extrusion width = 0.70mm
; solid infill extrusion width = 0.65mm
; top infill extrusion width = 0.60mm
; first layer extrusion width = 0.65mm

M107
;TYPE:Custom
; **** Start of Start GCode: FlashForge Creator 3 ****
M118 X150.00 Y125.00 Z200.00 T0 T1
; todo: need to post process Active extruders in m118

G90 ; absolute positioning
M108 T0 ; tool change
G1 X187 Y0.000 F10800 ; Move initial extruder over anti-ooze plate (9-point Bed Levelling sometimes leaves it off plate)

; Set Filament Z-Offset
G1 Z0.000 F720 ;
G92 Z-0.06 ; Value substituted by FFPP script (FFPP-filament_extra_z_offset)(negative is printing higher in air)

M140 S75 T0 ; set bed temperature
M104 S230 T0 ; set right extruder temp
M104 S0 T1 ; set left extruder temp

M7 T0 ; wait for platform
M6 T0 ; wait for temp
M6 T1 ; wait for temp

M106 ; Extruder/Heat Break fan on
M651 S255 ; chassis fan on (after heating reached to speed up heating)

; Purge Filament (gets rid of any curling filament too)
G1 X172 F10800 ; Move initial extruder off anti-ooze plate
G92 E0 ; reset extrusion distance 
G1 F150 E20 ; feed 20mm of feed stock 
G92 E0 ; reset extrusion distance


; M652 ; chassis fan off 
; M109 T1/2 only if dupe or mirror

;layer_count: 300 ; Value substituted by FFPP script (FFPP-calculated-total_layer_count)
; **** End of Start GCode: FlashForge Creator 3 ****
G21 ; set units to millimeters
G90 ; use absolute coordinates
M82 ; use absolute distances for extrusion
G92 E0
; **** Start of Filament-Specific Start GCode: eSun PETG - Blue (Hardened 0.6mm) ****
; FFPP-filament_extra_z_offset: 0.06 ; Value parsed by FFPP script
; **** End of Filament-Specific Start GCode: eSun PETG - Blue (Hardened 0.6mm) ****
M107
;LAYER_CHANGE
;Z:0.2
;HEIGHT:0.2
; **** Start of Before Layer Change GCode: FlashForge Creator 3 ****
; FFPP-layer_z_height: 0.2 ; Value parsed by FFPP script
;layer:0.200 ; Value substituted by FFPP script (FFPP-calculated-next_layer_height)
; **** End of Before Layer Change GCode: FlashForge Creator 3 ****
G1 Z.2 F720
; **** Start of After Layer Change GCode: FlashForge Creator 3 ****
; **** End of After Layer Change GCode: FlashForge Creator 3 ****
G1 E-4 F1500
G92 E0
G1 X-.004 Y-19.199 F10800
G1 E4 F1500
M204 S800
;TYPE:Skirt/Brim
;WIDTH:0.65
G1 F1200
G1 X15.028 Y-19.202 E4.75878
G1 X16.216 Y-19.094 E4.81898
G1 X17.343 Y-18.781 E4.87804
G1 X18.427 Y-18.256 E4.93884
G1 X19.38 Y-17.557 E4.9985
G1 X20.186 Y-16.708 E5.05756
G1 X20.834 Y-15.72 E5.11723
G1 X21.291 Y-14.643 E5.17629
G1 X21.555 Y-13.468 E5.23709
G1 X21.61 Y-12.613 E5.28032
G1 X21.533 Y13.016 E6.57404
G1 X21.366 Y14.151 E6.63196
G1 X21.004 Y15.24 E6.68987
G1 X20.458 Y16.249 E6.74779
G1 X19.745 Y17.148 E6.8057
G1 X18.729 Y18.024 E6.87342
G1 X17.577 Y18.666 E6.94
G1 X16.32 Y19.066 E7.00657
G1 X15.009 Y19.208 E7.07315
G1 X-15.361 Y19.193 E8.60618
G1 X-16.519 Y19.03 E8.66523
G1 X-17.61 Y18.674 E8.72315
G1 X-18.651 Y18.115 E8.78281
G1 X-19.55 Y17.402 E8.84073
G1 X-20.426 Y16.386 E8.90845
G1 X-21.068 Y15.234 E8.97502
G1 X-21.468 Y13.977 E9.04159
G1 X-21.61 Y12.666 E9.10818
G1 X-21.532 Y-13.039 E10.40571
G1 X-21.36 Y-14.173 E10.46363
G1 X-20.994 Y-15.26 E10.52154
G1 X-20.445 Y-16.268 E10.57946
G1 X-19.745 Y-17.148 E10.63623
G1 X-18.823 Y-17.957 E10.69818
G1 X-17.734 Y-18.596 E10.76186
G1 X-16.566 Y-19.009 E10.82441
G1 X-15.353 Y-19.196 E10.88636
G1 X-.094 Y-19.199 E11.65667
M204 S1000
; printing object pin.STL id:2 copy 0
G1 E7.65667 F1500
G92 E0
G1 X12.52 Y-14.332 F10800
G1 E4 F1500
M204 S800
;TYPE:Perimeter
G1 F1200
G1 X12.898 Y-14.787 E4.02985
G1 X13.374 Y-15.169 E4.06068
G1 X13.888 Y-15.436 E4.08988
G1 X14.476 Y-15.607 E4.12081
G1 X15.052 Y-15.658 E4.15001
G1 X15.661 Y-15.591 E4.18095
G1 X16.215 Y-15.417 E4.21024
G1 X16.725 Y-15.14 E4.23955
G1 X17.195 Y-14.749 E4.27038
G1 X17.577 Y-14.273 E4.30121
G1 X17.844 Y-13.76 E4.33041
G1 X18.016 Y-13.171 E4.36135
G1 X18.066 Y-12.593 E4.39065
G1 X18.006 Y-12.016 E4.41995
G1 X17.824 Y-11.431 E4.45088
G1 X17.548 Y-10.922 E4.48008
G1 X17.157 Y-10.453 E4.51091
G1 X16.681 Y-10.07 E4.54175
G1 X16.168 Y-9.803 E4.57094
G1 X15.579 Y-9.632 E4.60188
G1 X15.001 Y-9.581 E4.63118
G1 X14.424 Y-9.642 E4.66048
G1 X13.839 Y-9.823 E4.69142
G1 X13.33 Y-10.099 E4.72062
G1 X12.859 Y-10.491 E4.75155
G1 X12.495 Y-10.941 E4.78075
G1 X12.211 Y-11.481 E4.81158
G1 X12.04 Y-12.068 E4.84242
G1 X11.989 Y-12.644 E4.87161
G1 X12.056 Y-13.253 E4.90255
G1 X12.231 Y-13.807 E4.93185
G1 X12.474 Y-14.255 E4.95759
M204 S1000
G1 X11.669 Y-14.045 F10800
M204 S800
;TYPE:External perimeter
G1 F1200
G1 X12.003 Y-14.659 E4.99286
G1 X12.47 Y-15.222 E5.0298
G1 X13.041 Y-15.68 E5.06674
G1 X13.66 Y-16.002 E5.10197
G1 X14.363 Y-16.207 E5.13894
G1 X15.059 Y-16.268 E5.17418
G1 X15.787 Y-16.188 E5.21115
G1 X16.453 Y-15.978 E5.24642
G1 X17.067 Y-15.645 E5.28169
G1 X17.63 Y-15.177 E5.31863
G1 X18.088 Y-14.606 E5.35556
G1 X18.41 Y-13.987 E5.3908
G1 X18.615 Y-13.284 E5.42777
G1 X18.676 Y-12.588 E5.46304
G1 X18.603 Y-11.893 E5.49831
G1 X18.386 Y-11.194 E5.53528
G1 X18.053 Y-10.58 E5.57051
G1 X17.585 Y-10.017 E5.60745
G1 X17.014 Y-9.559 E5.64439
G1 X16.395 Y-9.237 E5.67962
G1 X15.692 Y-9.032 E5.7166
G1 X14.996 Y-8.971 E5.75187
G1 X14.301 Y-9.044 E5.78714
G1 X13.602 Y-9.261 E5.8241
G1 X12.988 Y-9.594 E5.85934
G1 X12.425 Y-10.063 E5.89632
G1 X11.986 Y-10.605 E5.93155
G1 X11.645 Y-11.253 E5.96848
G1 X11.44 Y-11.955 E6.00542
G1 X11.379 Y-12.651 E6.04066
G1 X11.459 Y-13.379 E6.07763
G1 X11.642 Y-13.959 E6.10835
M204 S1000
G1 X12.265 Y-14.119 F10800
G1 E2.10835 F1500
G92 E0
G1 X15.972 Y-15.302 F10800
G1 E4 F1500
M204 S800
;TYPE:Solid infill
;WIDTH:0.684182
G1 F1200
G1 X17.194 Y-14.023 E4.09431
G1 X17.419 Y-13.589 E4.12037
G1 X17.593 Y-12.774 E4.1648
G1 X15.182 Y-15.186 E4.34663
G1 X14.361 Y-15.1 E4.39064
G1 X17.509 Y-11.952 E4.62801
G1 X17.402 Y-11.608 E4.64719
G1 X17.242 Y-11.312 E4.66515
G1 X13.719 Y-14.835 E4.93078
G1 X13.204 Y-14.443 E4.96528
G1 X16.851 Y-10.796 E5.24025
G1 X16.336 Y-10.404 E5.27476
G1 X12.814 Y-13.926 E5.54037
G1 X12.545 Y-13.289 E5.57729
G1 X15.694 Y-10.139 E5.81477
G1 X14.874 Y-10.052 E5.85873
G1 X12.462 Y-12.464 E6.04061
G1 X12.635 Y-11.653 E6.08485
G1 X12.877 Y-11.192 E6.11259
G1 X14.08 Y-9.939 E6.20523
M204 S1000
; stop printing object pin.STL id:2 copy 0
; printing object pin.STL id:0 copy 0
G1 E2.20523 F1500
G92 E0
G1 X15.584 Y9.653 F10800
G1 E4 F1500
M204 S800
;TYPE:Perimeter
;WIDTH:0.65
G1 F1200
G1 X16.15 Y9.829 E4.02994
G1 X16.66 Y10.106 E4.05924
G1 X17.13 Y10.496 E4.09007
G1 X17.512 Y10.972 E4.1209
G1 X17.779 Y11.485 E4.1501
G1 X17.951 Y12.074 E4.18104
G1 X18.001 Y12.652 E4.21034
G1 X17.941 Y13.229 E4.23964
G1 X17.759 Y13.815 E4.27057
G1 X17.483 Y14.323 E4.29977
G1 X17.092 Y14.793 E4.3306
G1 X16.616 Y15.175 E4.36144
G1 X16.103 Y15.442 E4.39063
G1 X15.515 Y15.614 E4.42157
G1 X14.936 Y15.664 E4.45087
G1 X14.359 Y15.603 E4.48017
G1 X13.774 Y15.422 E4.51111
G1 X13.265 Y15.146 E4.54031
G1 X12.794 Y14.754 E4.57124
G1 X12.43 Y14.304 E4.60044
G1 X12.146 Y13.764 E4.63127
G1 X11.975 Y13.177 E4.66211
G1 X11.924 Y12.601 E4.6913
G1 X11.991 Y11.992 E4.72224
G1 X12.166 Y11.438 E4.75154
G1 X12.443 Y10.928 E4.78084
G1 X12.833 Y10.459 E4.81167
G1 X13.31 Y10.076 E4.84251
G1 X13.823 Y9.809 E4.8717
G1 X14.411 Y9.638 E4.90264
G1 X14.987 Y9.587 E4.93184
G1 X15.494 Y9.643 E4.95758
M204 S1000
G1 X14.994 Y8.977 F10800
M204 S800
;TYPE:External perimeter
G1 F1200
G1 X15.722 Y9.057 E4.99455
G1 X16.388 Y9.267 E5.02982
G1 X17.002 Y9.601 E5.06509
G1 X17.565 Y10.068 E5.10203
G1 X18.023 Y10.639 E5.13896
G1 X18.345 Y11.258 E5.1742
G1 X18.55 Y11.961 E5.21117
G1 X18.611 Y12.657 E5.24644
G1 X18.538 Y13.352 E5.28171
G1 X18.321 Y14.052 E5.31868
G1 X17.988 Y14.665 E5.35392
G1 X17.52 Y15.228 E5.39085
G1 X16.949 Y15.686 E5.42779
G1 X16.33 Y16.008 E5.46303
G1 X15.627 Y16.213 E5.5
G1 X14.931 Y16.274 E5.53527
G1 X14.236 Y16.201 E5.57054
G1 X13.537 Y15.984 E5.60751
G1 X12.923 Y15.651 E5.64274
G1 X12.36 Y15.182 E5.67972
G1 X11.921 Y14.64 E5.71495
G1 X11.58 Y13.992 E5.75189
G1 X11.375 Y13.29 E5.78883
G1 X11.314 Y12.595 E5.82406
G1 X11.394 Y11.866 E5.86103
G1 X11.604 Y11.2 E5.8963
G1 X11.938 Y10.586 E5.93157
G1 X12.406 Y10.024 E5.96851
G1 X12.976 Y9.565 E6.00545
G1 X13.595 Y9.243 E6.04068
G1 X14.298 Y9.038 E6.07765
G1 X14.904 Y8.985 E6.10834
M204 S1000
G1 X15.289 Y9.5 F10800
G1 X15.907 Y9.943
M204 S800
;TYPE:Solid infill
;WIDTH:0.684182
G1 F1200
G1 X17.129 Y11.222 E6.20266
G1 X17.355 Y11.656 E6.22872
G1 X17.528 Y12.471 E6.27314
G1 X15.117 Y10.06 E6.45497
G1 X14.296 Y10.145 E6.49898
G1 X17.444 Y13.293 E6.73636
G1 X17.337 Y13.637 E6.75553
G1 X17.177 Y13.933 E6.77349
G1 X13.654 Y10.41 E7.03912
G1 X13.139 Y10.803 E7.07362
G1 X16.786 Y14.449 E7.3486
G1 X16.271 Y14.841 E7.3831
G1 X12.749 Y11.319 E7.64872
G1 X12.48 Y11.957 E7.68563
G1 X15.629 Y15.106 E7.92311
G1 X14.809 Y15.193 E7.96707
G1 X12.397 Y12.781 E8.14895
G1 X12.57 Y13.592 E8.19319
G1 X12.812 Y14.053 E8.22093
G1 X14.015 Y15.306 E8.31357
M204 S1000
; stop printing object pin.STL id:0 copy 0
; printing object pin.STL id:1 copy 0
G1 E4.31357 F1500
G92 E0
G1 X-12.056 Y13.242 F10800
G1 E4 F1500
M204 S800
;TYPE:Perimeter
;WIDTH:0.65
G1 F1200
G1 X-12.232 Y13.809 E4.02995
G1 X-12.508 Y14.317 E4.05915
G1 X-12.898 Y14.787 E4.08998
G1 X-13.374 Y15.169 E4.12081
G1 X-13.887 Y15.436 E4.15001
G1 X-14.476 Y15.607 E4.18095
G1 X-15.054 Y15.658 E4.21025
G1 X-15.631 Y15.597 E4.23955
G1 X-16.217 Y15.416 E4.27048
G1 X-16.725 Y15.14 E4.29968
G1 X-17.196 Y14.748 E4.33062
G1 X-17.56 Y14.298 E4.35981
G1 X-17.845 Y13.758 E4.39065
G1 X-18.016 Y13.171 E4.42148
G1 X-18.066 Y12.595 E4.45068
G1 X-17.999 Y11.986 E4.48162
G1 X-17.825 Y11.432 E4.51091
G1 X-17.548 Y10.922 E4.54021
G1 X-17.157 Y10.453 E4.57105
G1 X-16.681 Y10.07 E4.60188
G1 X-16.168 Y9.803 E4.63108
G1 X-15.579 Y9.632 E4.66201
G1 X-15.003 Y9.581 E4.69121
G1 X-14.394 Y9.648 E4.72215
G1 X-13.84 Y9.822 E4.75145
G1 X-13.33 Y10.099 E4.78075
G1 X-12.861 Y10.49 E4.81158
G1 X-12.478 Y10.966 E4.84241
G1 X-12.211 Y11.479 E4.87161
G1 X-12.04 Y12.068 E4.90255
G1 X-11.989 Y12.646 E4.93185
G1 X-12.042 Y13.153 E4.95759
M204 S1000
G1 X-11.379 Y12.651 F10800
M204 S800
;TYPE:External perimeter
G1 F1200
G1 X-11.452 Y13.346 E4.99286
G1 X-11.67 Y14.046 E5.02983
G1 X-12.003 Y14.659 E5.06507
G1 X-12.47 Y15.222 E5.102
G1 X-13.041 Y15.68 E5.13894
G1 X-13.66 Y16.002 E5.17418
G1 X-14.363 Y16.207 E5.21115
G1 X-15.059 Y16.268 E5.24642
G1 X-15.754 Y16.195 E5.28169
G1 X-16.454 Y15.978 E5.31866
G1 X-17.067 Y15.645 E5.3539
G1 X-17.63 Y15.176 E5.39087
G1 X-18.07 Y14.634 E5.4261
G1 X-18.41 Y13.986 E5.46304
G1 X-18.615 Y13.284 E5.49998
G1 X-18.676 Y12.589 E5.53521
G1 X-18.596 Y11.86 E5.57218
G1 X-18.386 Y11.194 E5.60745
G1 X-18.053 Y10.58 E5.64272
G1 X-17.585 Y10.017 E5.67966
G1 X-17.014 Y9.559 E5.7166
G1 X-16.395 Y9.237 E5.75183
G1 X-15.692 Y9.032 E5.7888
G1 X-14.997 Y8.971 E5.82404
G1 X-14.269 Y9.051 E5.86101
G1 X-13.602 Y9.261 E5.89628
G1 X-12.988 Y9.594 E5.93155
G1 X-12.426 Y10.062 E5.96849
G1 X-11.968 Y10.633 E6.00542
G1 X-11.645 Y11.252 E6.04065
G1 X-11.44 Y11.955 E6.07763
G1 X-11.387 Y12.562 E6.10835
M204 S1000
G1 X-11.901 Y12.948 F10800
G1 E2.10835 F1500
G92 E0
G1 X-14.083 Y9.937 F10800
G1 E4 F1500
M204 S800
;TYPE:Solid infill
;WIDTH:0.684182
G1 F1200
G1 X-12.862 Y11.216 E4.09431
G1 X-12.636 Y11.65 E4.12037
G1 X-12.462 Y12.465 E4.1648
G1 X-14.873 Y10.054 E4.34663
G1 X-15.694 Y10.139 E4.39064
G1 X-12.546 Y13.287 E4.62801
G1 X-12.653 Y13.631 E4.64719
G1 X-12.814 Y13.927 E4.66515
G1 X-16.336 Y10.404 E4.93078
G1 X-16.851 Y10.796 E4.96528
G1 X-13.205 Y14.443 E5.24025
G1 X-13.719 Y14.835 E5.27476
G1 X-17.242 Y11.313 E5.54037
G1 X-17.511 Y11.951 E5.57729
G1 X-14.361 Y15.1 E5.81477
G1 X-15.181 Y15.187 E5.85873
G1 X-17.593 Y12.775 E6.04061
G1 X-17.42 Y13.586 E6.08485
G1 X-17.178 Y14.047 E6.11259
G1 X-15.975 Y15.3 E6.20523
M204 S1000
; stop printing object pin.STL id:1 copy 0
; printing object pin.STL id:3 copy 0
G1 E2.20523 F1500
G92 E0
G1 X-15.585 Y-9.654 F10800
G1 E4 F1500
M204 S800
;TYPE:Perimeter
;WIDTH:0.65
G1 F1200
G1 X-16.152 Y-9.83 E4.02995
G1 X-16.66 Y-10.106 E4.05915
G1 X-17.131 Y-10.497 E4.09008
G1 X-17.495 Y-10.947 E4.11928
G1 X-17.78 Y-11.487 E4.15011
G1 X-17.951 Y-12.074 E4.18095
G1 X-18.001 Y-12.65 E4.21014
G1 X-17.934 Y-13.259 E4.24108
G1 X-17.76 Y-13.813 E4.27038
G1 X-17.483 Y-14.323 E4.29968
G1 X-17.092 Y-14.793 E4.33051
G1 X-16.616 Y-15.175 E4.36135
G1 X-16.103 Y-15.442 E4.39054
G1 X-15.515 Y-15.614 E4.42148
G1 X-14.938 Y-15.664 E4.45068
G1 X-14.329 Y-15.597 E4.48161
G1 X-13.776 Y-15.423 E4.51091
G1 X-13.265 Y-15.146 E4.54021
G1 X-12.796 Y-14.755 E4.57105
G1 X-12.413 Y-14.279 E4.60188
G1 X-12.146 Y-13.766 E4.63108
G1 X-11.975 Y-13.177 E4.66201
G1 X-11.924 Y-12.599 E4.69131
G1 X-11.985 Y-12.022 E4.72061
G1 X-12.167 Y-11.437 E4.75155
G1 X-12.443 Y-10.928 E4.78075
G1 X-12.833 Y-10.459 E4.81158
G1 X-13.31 Y-10.076 E4.84241
G1 X-13.823 Y-9.809 E4.87161
G1 X-14.411 Y-9.638 E4.90255
G1 X-14.989 Y-9.587 E4.93185
G1 X-15.496 Y-9.64 E4.95759
M204 S1000
G1 X-14.995 Y-8.977 F10800
M204 S800
;TYPE:External perimeter
G1 F1200
G1 X-15.689 Y-9.05 E4.99286
G1 X-16.389 Y-9.267 E5.02983
G1 X-17.002 Y-9.601 E5.06507
G1 X-17.565 Y-10.069 E5.10204
G1 X-18.005 Y-10.611 E5.13727
G1 X-18.345 Y-11.259 E5.17421
G1 X-18.55 Y-11.961 E5.21115
G1 X-18.611 Y-12.657 E5.24638
G1 X-18.531 Y-13.385 E5.28336
G1 X-18.321 Y-14.051 E5.31863
G1 X-17.988 Y-14.665 E5.3539
G1 X-17.52 Y-15.228 E5.39083
G1 X-16.949 Y-15.686 E5.42777
G1 X-16.33 Y-16.008 E5.463
G1 X-15.627 Y-16.213 E5.49997
G1 X-14.932 Y-16.274 E5.53521
G1 X-14.204 Y-16.194 E5.57218
G1 X-13.537 Y-15.984 E5.60745
G1 X-12.923 Y-15.651 E5.64272
G1 X-12.361 Y-15.183 E5.67966
G1 X-11.903 Y-14.612 E5.71659
G1 X-11.58 Y-13.993 E5.75183
G1 X-11.375 Y-13.29 E5.7888
G1 X-11.314 Y-12.594 E5.82407
G1 X-11.387 Y-11.899 E5.85934
G1 X-11.605 Y-11.2 E5.89631
G1 X-11.938 Y-10.586 E5.93155
G1 X-12.406 Y-10.024 E5.96848
G1 X-12.976 Y-9.565 E6.00542
G1 X-13.595 Y-9.243 E6.04065
G1 X-14.298 Y-9.038 E6.07763
G1 X-14.905 Y-8.985 E6.10835
M204 S1000
G1 X-15.291 Y-9.499 F10800
G1 E2.10835 F1500
G92 E0
G1 X-14.018 Y-15.308 F10800
G1 E4 F1500
M204 S800
;TYPE:Solid infill
;WIDTH:0.684182
G1 F1200
G1 X-12.797 Y-14.029 E4.09431
G1 X-12.571 Y-13.595 E4.12037
G1 X-12.397 Y-12.78 E4.1648
G1 X-14.808 Y-15.192 E4.34663
G1 X-15.629 Y-15.106 E4.39064
G1 X-12.482 Y-11.958 E4.62801
G1 X-12.588 Y-11.614 E4.64719
G1 X-12.749 Y-11.318 E4.66515
G1 X-16.271 Y-14.841 E4.93078
G1 X-16.786 Y-14.449 E4.96528
G1 X-13.14 Y-10.802 E5.24025
G1 X-13.654 Y-10.41 E5.27476
G1 X-17.177 Y-13.933 E5.54037
G1 X-17.446 Y-13.295 E5.57729
G1 X-14.296 Y-10.145 E5.81477
G1 X-15.116 Y-10.058 E5.85873
G1 X-17.528 Y-12.47 E6.04061
G1 X-17.355 Y-11.659 E6.08485
G1 X-17.113 Y-11.199 E6.11259
G1 X-15.91 Y-9.945 E6.20523
M204 S1000
; stop printing object pin.STL id:3 copy 0
;LAYER_CHANGE
;Z:0.4
;HEIGHT:0.2
; **** Start of Before Layer Change GCode: FlashForge Creator 3 ****
; FFPP-layer_z_height: 0.4 ; Value parsed by FFPP script
;layer:0.200 ; Value substituted by FFPP script (FFPP-calculated-next_layer_height)
