; This file has been post-processed by C:\Users\melvi\git-repos\PrusaSlicer-FlashForge\flashforge_post_process.py
; Original File Location: C:\Users\melvi\AppData\Local\Temp\.48928.gcode.pp


; generated by PrusaSlicer 2.4.0+win64 on 2022-01-30 at 22:59:52 UTC

; 

; external perimeters extrusion width = 0.61mm
; perimeters extrusion width = 0.65mm
; infill extrusion width = 0.70mm
; solid infill extrusion width = 0.65mm
; top infill extrusion width = 0.60mm
; first layer extrusion width = 0.65mm

; external perimeters extrusion width = 0.61mm
; perimeters extrusion width = 0.65mm
; infill extrusion width = 0.70mm
; solid infill extrusion width = 0.65mm
; top infill extrusion width = 0.60mm
; first layer extrusion width = 0.65mm

M107
;TYPE:Custom
; **** Start of Start GCode: FlashForge Creator 3 ****
M118 X150.00 Y125.00 Z200.00 T0 T1
; todo: need to post process Active extruders in m118

G90 ; absolute positioning
M108 T0 ; tool change
G1 X187 Y0.000 F10800 ; Move initial extruder over anti-ooze plate (9-point Bed Levelling sometimes leaves it off plate)

; Set Filament Z-Offset
G1 Z0.000 F720 ;
G92 Z-0.06 ; Value substituted by FFPP script (FFPP-filament_extra_z_offset)(negative is printing higher in air)

M140 S85 T0 ; set bed temperature
M104 S250 T0 ; set right extruder temp
M104 S0 T1 ; set left extruder temp

M7 T0 ; wait for platform
M6 T0 ; wait for temp
M6 T1 ; wait for temp

M106 ; Extruder/Heat Break fan on
M651 S255 ; chassis fan on (after heating reached to speed up heating)

; Purge Filament (gets rid of any curling filament too)
G1 X172 F10800 ; Move initial extruder off anti-ooze plate
G92 E0 ; reset extrusion distance 
G1 F150 E20 ; feed 20mm of feed stock 
G92 E0 ; reset extrusion distance


; M652 ; chassis fan off 
; M109 T1/2 only if dupe or mirror

;layer_count: 300 ; Value substituted by FFPP script (FFPP-calculated-total_layer_count)
; **** End of Start GCode: FlashForge Creator 3 ****
G21 ; set units to millimeters
G90 ; use absolute coordinates
M82 ; use absolute distances for extrusion
G92 E0
; **** Start of Filament-Specific Start GCode: Filaments.ca PETG - Transparent (Hardened 0.6mm) ****
; FFPP-filament_extra_z_offset: 0.06 ; Value parsed by FFPP script
; **** End of Filament-Specific Start GCode: EconoFil PETG ****
M107
;LAYER_CHANGE
;Z:0.2
;HEIGHT:0.2
; **** Start of Before Layer Change GCode: FlashForge Creator 3 ****
; FFPP-layer_z_height: 0.2 ; Value parsed by FFPP script
;layer:0.200 ; Value substituted by FFPP script (FFPP-calculated-next_layer_height)
; **** End of Before Layer Change GCode: FlashForge Creator 3 ****
G1 Z.2 F720
; **** Start of After Layer Change GCode: FlashForge Creator 3 ****
; **** End of After Layer Change GCode: FlashForge Creator 3 ****
G1 E-3 F1800
G92 E0
G1 X.001 Y-6.582 F10800
G1 E3 F1800
M204 S800
;TYPE:Skirt/Brim
;WIDTH:0.65
G1 F1172
G1 X14.996 Y-6.579 E3.7569
G1 X16.183 Y-6.471 E3.81707
G1 X17.343 Y-6.146 E3.8779
G1 X18.425 Y-5.615 E3.93871
G1 X19.391 Y-4.896 E3.9995
G1 X20.21 Y-4.013 E4.06029
G1 X20.854 Y-2.996 E4.12109
G1 X21.303 Y-1.878 E4.1819
G1 X21.54 Y-.697 E4.24268
G1 X21.558 Y.508 E4.30353
G1 X21.356 Y1.696 E4.36434
G1 X20.941 Y2.826 E4.42514
G1 X20.327 Y3.862 E4.48592
G1 X19.534 Y4.769 E4.54674
G1 X18.619 Y5.498 E4.60582
G1 X17.557 Y6.066 E4.6666
G1 X16.409 Y6.432 E4.72742
G1 X15.007 Y6.585 E4.7986
G1 X-14.996 Y6.579 E6.3131
G1 X-16.853 Y6.311 E6.40785
G1 X-18.666 Y5.46 E6.50895
G1 X-20.139 Y4.104 E6.61001
G1 X-21.136 Y2.367 E6.71112
G1 X-21.576 Y.124 E6.8265
G1 X-21.475 Y-1.157 E6.89135
G1 X-21.124 Y-2.404 E6.95674
G1 X-20.541 Y-3.548 E7.02157
G1 X-19.738 Y-4.567 E7.08705
G1 X-18.762 Y-5.401 E7.15183
G1 X-17.63 Y-6.035 E7.21731
G1 X-16.409 Y-6.431 E7.28215
G1 X-15.042 Y-6.585 E7.3516
G1 X-.089 Y-6.582 E8.1064
M204 S1000
; printing object pin.STL id:1 copy 0
;WIPE_START
G1 F8640
G1 X14.311 Y-6.579 E5.2564
;WIPE_END
G1 E5.1064 F1800
G92 E0
G1 X-15.609 Y2.899 F10800
G1 E3 F1800
M204 S800
;TYPE:Perimeter
G1 F1172
G1 X-16.177 Y2.781 E3.02928
G1 X-17.153 Y2.117 E3.08886
G1 X-17.8 Y1.13 E3.14843
G1 X-18.02 Y-.029 E3.20801
G1 X-17.779 Y-1.185 E3.26758
G1 X-17.115 Y-2.16 E3.32715
G1 X-16.128 Y-2.807 E3.38673
G1 X-14.969 Y-3.028 E3.4463
G1 X-13.813 Y-2.787 E3.50587
G1 X-12.838 Y-2.123 E3.56545
G1 X-12.191 Y-1.136 E3.62502
G1 X-11.971 Y.023 E3.68459
G1 X-12.211 Y1.179 E3.74416
G1 X-12.875 Y2.154 E3.80374
G1 X-13.862 Y2.801 E3.86331
G1 X-15.022 Y3.022 E3.92289
G1 X-15.521 Y2.918 E3.94863
M204 S1000
G1 X-15.027 Y3.64 F10800
M204 S800
;TYPE:External perimeter
G1 F1172
G1 X-16.419 Y3.351 E4.02039
G1 X-17.594 Y2.551 E4.09216
G1 X-18.373 Y1.362 E4.16392
G1 X-18.639 Y-.035 E4.23569
G1 X-18.349 Y-1.427 E4.30745
G1 X-17.549 Y-2.602 E4.37922
G1 X-16.36 Y-3.381 E4.45098
G1 X-14.963 Y-3.647 E4.52275
G1 X-13.572 Y-3.357 E4.59451
G1 X-12.396 Y-2.557 E4.66628
G1 X-11.617 Y-1.368 E4.73804
G1 X-11.352 Y.029 E4.8098
G1 X-11.641 Y1.421 E4.88157
G1 X-12.441 Y2.596 E4.95333
G1 X-13.63 Y3.375 E5.0251
G1 X-14.939 Y3.624 E5.09232
M204 S1000
G1 X-15.322 Y3.118 F10800
;WIPE_START
G1 F8640
G1 X-16.419 Y3.351 E4.79443
G1 X-17.594 Y2.551 E4.51303
G1 X-18.373 Y1.362 E4.23167
G1 X-18.639 Y-.035 E3.95029
G1 X-18.349 Y-1.427 E3.66892
G1 X-17.549 Y-2.602 E3.38755
G1 X-16.36 Y-3.381 E3.10618
G1 X-14.963 Y-3.647 E2.8248
G1 X-13.572 Y-3.357 E2.54344
G1 X-12.396 Y-2.557 E2.26205
G1 X-12.342 Y-2.474 E2.24232
;WIPE_END
G1 E2.09232 F1800
G92 E0
G1 X-14.031 Y-2.647 F10800
G1 E3 F1800
M204 S800
;TYPE:Solid infill
;WIDTH:0.680657
G1 F1172
G1 X-13.144 Y-1.759 E3.06657
G1 X-12.621 Y-.962 E3.11708
G1 X-12.474 Y-.188 E3.1589
G1 X-14.818 Y-2.531 E3.33464
G1 X-15.628 Y-2.439 E3.37787
G1 X-12.561 Y.627 E3.60781
G1 X-12.638 Y.997 E3.62786
G1 X-12.822 Y1.268 E3.64522
G1 X-16.264 Y-2.174 E3.90333
G1 X-16.803 Y-1.81 E3.93777
G1 X-13.188 Y1.804 E4.20887
G1 X-13.726 Y2.168 E4.24332
G1 X-17.168 Y-1.274 E4.50142
G1 X-17.429 Y-.633 E4.53811
G1 X-14.363 Y2.433 E4.76805
G1 X-15.173 Y2.525 E4.81128
G1 X-17.516 Y.182 E4.98701
G1 X-17.369 Y.956 E5.02881
G1 X-16.847 Y1.753 E5.07935
G1 X-15.959 Y2.64 E5.14589
M204 S1000
; stop printing object pin.STL id:1 copy 0
; printing object pin.STL id:0 copy 0
;WIPE_START
G1 F8640
G1 X-16.847 Y1.753 E4.89756
G1 X-17.369 Y.956 E4.70893
G1 X-17.516 Y.182 E4.5529
G1 X-15.173 Y2.525 E3.89702
G1 X-14.363 Y2.433 E3.73569
G1 X-17.429 Y-.633 E2.87748
G1 X-17.168 Y-1.274 E2.74054
G1 X-15.579 Y.315 E2.29589
;WIPE_END
G1 E2.14589 F1800
G92 E0
G1 X14.381 Y2.905 F10800
G1 E3 F1800
M204 S800
;TYPE:Perimeter
;WIDTH:0.65
G1 F1172
G1 X13.814 Y2.787 E3.02928
G1 X12.838 Y2.123 E3.08886
G1 X12.191 Y1.136 E3.14843
G1 X11.971 Y-.023 E3.20801
G1 X12.211 Y-1.179 E3.26758
G1 X12.875 Y-2.154 E3.32715
G1 X13.862 Y-2.801 E3.38673
G1 X15.022 Y-3.022 E3.4463
G1 X16.177 Y-2.781 E3.50587
G1 X17.153 Y-2.117 E3.56545
G1 X17.8 Y-1.13 E3.62502
G1 X18.02 Y.029 E3.68459
G1 X17.779 Y1.185 E3.74416
G1 X17.115 Y2.16 E3.80374
G1 X16.128 Y2.807 E3.86331
G1 X14.969 Y3.028 E3.92289
G1 X14.47 Y2.924 E3.94863
M204 S1000
G1 X14.963 Y3.647 F10800
M204 S800
;TYPE:External perimeter
G1 F1172
G1 X13.572 Y3.357 E4.02039
G1 X12.396 Y2.557 E4.09216
G1 X11.617 Y1.368 E4.16392
G1 X11.352 Y-.029 E4.23569
G1 X11.641 Y-1.421 E4.30745
G1 X12.441 Y-2.596 E4.37922
G1 X13.63 Y-3.375 E4.45098
G1 X15.027 Y-3.64 E4.52275
G1 X16.419 Y-3.351 E4.59451
G1 X17.594 Y-2.551 E4.66628
G1 X18.373 Y-1.362 E4.73804
G1 X18.639 Y.035 E4.8098
G1 X18.349 Y1.427 E4.88157
G1 X17.549 Y2.602 E4.95333
G1 X16.36 Y3.381 E5.0251
G1 X15.052 Y3.63 E5.09232
M204 S1000
G1 X14.668 Y3.124 F10800
;WIPE_START
G1 F8640
G1 X13.572 Y3.357 E4.79443
G1 X12.396 Y2.557 E4.51303
G1 X11.617 Y1.368 E4.23167
G1 X11.352 Y-.029 E3.95029
G1 X11.641 Y-1.421 E3.66892
G1 X12.441 Y-2.596 E3.38755
G1 X13.63 Y-3.375 E3.10618
G1 X15.027 Y-3.64 E2.8248
G1 X16.419 Y-3.351 E2.54344
G1 X17.594 Y-2.551 E2.26205
G1 X17.649 Y-2.467 E2.24232
;WIPE_END
G1 E2.09232 F1800
G92 E0
G1 X15.959 Y-2.641 F10800
G1 E3 F1800
M204 S800
;TYPE:Solid infill
;WIDTH:0.680657
G1 F1172
G1 X16.847 Y-1.753 E3.06657
G1 X17.369 Y-.956 E3.11708
G1 X17.516 Y-.182 E3.1589
G1 X15.173 Y-2.525 E3.33464
G1 X14.363 Y-2.433 E3.37787
G1 X17.429 Y.633 E3.60781
G1 X17.352 Y1.003 E3.62786
G1 X17.168 Y1.274 E3.64522
G1 X13.726 Y-2.168 E3.90333
G1 X13.188 Y-1.804 E3.93777
G1 X16.803 Y1.811 E4.20887
G1 X16.264 Y2.174 E4.24332
G1 X12.822 Y-1.268 E4.50142
G1 X12.561 Y-.627 E4.53811
G1 X15.627 Y2.439 E4.76805
G1 X14.817 Y2.531 E4.81128
G1 X12.474 Y.188 E4.98701
G1 X12.621 Y.962 E5.02881
G1 X13.144 Y1.759 E5.07935
G1 X14.031 Y2.647 E5.14589
M204 S1000
; stop printing object pin.STL id:0 copy 0
;LAYER_CHANGE
;Z:0.4
;HEIGHT:0.2
; **** Start of Before Layer Change GCode: FlashForge Creator 3 ****
; FFPP-layer_z_height: 0.4 ; Value parsed by FFPP script
;layer:0.200 ; Value substituted by FFPP script (FFPP-calculated-next_layer_height)
; **** End of Before Layer Change GCode: FlashForge Creator 3 ****
G1 Z.4 F720
; **** Start of After Layer Change GCode: FlashForge Creator 3 ****
; **** End of After Layer Change GCode: FlashForge Creator 3 ****
M104 S245 ; set temperature
M140 S90 ; set bed temperature
G1 E2.14589 F1800
G92 E0
G1 X14.03 Y6.585 F10800
G1 E3 F1800
;TYPE:Skirt/Brim
;WIDTH:0.65
G1 F1174
G1 X-14.996 Y6.579 E4.4652
G1 X-16.853 Y6.311 E4.55994
G1 X-18.666 Y5.46 E4.66104
G1 X-19.45 Y4.842 E4.71144
G1 X-20.701 Y3.279 E4.81249
G1 X-21.424 Y1.411 E4.91361
G1 X-21.576 Y.124 E4.97902
G1 X-21.475 Y-1.157 E5.04388
G1 X-21.124 Y-2.404 E5.10927
G1 X-20.541 Y-3.548 E5.1741
G1 X-19.738 Y-4.567 E5.23957
G1 X-18.762 Y-5.401 E5.30436
G1 X-17.63 Y-6.035 E5.36984
G1 X-16.409 Y-6.431 E5.43467
G1 X-15.042 Y-6.585 E5.50413
G1 X14.996 Y-6.579 E7.02037
G1 X16.183 Y-6.471 E7.08054
G1 X17.343 Y-6.146 E7.14137
G1 X18.425 Y-5.615 E7.20219
G1 X19.391 Y-4.896 E7.26297
G1 X20.21 Y-4.013 E7.32377
G1 X20.854 Y-2.996 E7.38457
G1 X21.303 Y-1.878 E7.44537
G1 X21.54 Y-.697 E7.50615
G1 X21.558 Y.508 E7.567
G1 X21.356 Y1.696 E7.62781
G1 X20.941 Y2.826 E7.68861
G1 X20.327 Y3.862 E7.74939
G1 X19.534 Y4.769 E7.81021
G1 X18.619 Y5.498 E7.86929
G1 X17.557 Y6.066 E7.93007
G1 X16.409 Y6.432 E7.99089
G1 X14.12 Y6.585 E8.10667
; printing object pin.STL id:1 copy 0
;WIPE_START
G1 F8640
G1 X-.28 Y6.582 E5.25667
;WIPE_END
G1 E5.10667 F1800
G92 E0
G1 X-15.609 Y2.94 F10800
G1 E3 F1800
M204 S800
;TYPE:Perimeter
G1 F1174
G1 X-16.193 Y2.819 E3.03009
G1 X-17.182 Y2.146 E3.09047
G1 X-17.837 Y1.145 E3.15084
G1 X-18.061 Y-.03 E3.21122
G1 X-17.817 Y-1.201 E3.2716
G1 X-17.144 Y-2.189 E3.33197
G1 X-16.144 Y-2.845 E3.39235
G1 X-14.969 Y-3.068 E3.45271
G1 X-13.797 Y-2.825 E3.5131
G1 X-12.809 Y-2.152 E3.57347
G1 X-12.153 Y-1.151 E3.63386
G1 X-11.93 Y.024 E3.69423
G1 X-12.173 Y1.195 E3.75461
G1 X-12.847 Y2.183 E3.81498
G1 X-13.847 Y2.839 E3.87537
G1 X-15.022 Y3.062 E3.93574
G1 X-15.521 Y2.958 E3.96148
M204 S1000
G1 X-15.027 Y3.661 F10800
M204 S800
;TYPE:External perimeter
;WIDTH:0.61
G1 F1174
G1 X-16.427 Y3.37 E4.02889
G1 X-17.609 Y2.565 E4.0963
G1 X-18.392 Y1.37 E4.16371
G1 X-18.659 Y-.035 E4.23113
G1 X-18.368 Y-1.435 E4.29854
G1 X-17.563 Y-2.616 E4.36594
G1 X-16.368 Y-3.4 E4.43336
G1 X-14.964 Y-3.667 E4.50076
G1 X-13.564 Y-3.376 E4.56818
G1 X-12.382 Y-2.571 E4.63559
G1 X-11.598 Y-1.376 E4.70301
G1 X-11.331 Y.029 E4.77042
G1 X-11.622 Y1.429 E4.83783
G1 X-12.427 Y2.61 E4.90524
G1 X-13.623 Y3.394 E4.97266
G1 X-14.939 Y3.644 E5.03582
M204 S1000
G1 X-15.323 Y3.139 F10800
;WIPE_START
G1 F8640
G1 X-16.427 Y3.37 E4.73633
G1 X-17.609 Y2.565 E4.45339
G1 X-18.392 Y1.37 E4.17045
G1 X-18.659 Y-.035 E3.8875
G1 X-18.368 Y-1.435 E3.60454
G1 X-17.563 Y-2.616 E3.32163
G1 X-16.368 Y-3.4 E3.03866
G1 X-14.964 Y-3.667 E2.75576
G1 X-13.564 Y-3.376 E2.47275
G1 X-12.382 Y-2.571 E2.18983
G1 X-12.371 Y-2.554 E2.18582
;WIPE_END
G1 E2.03582 F1800
G92 E0
G1 X-12.314 Y.974 F10800
G1 E3 F1800
;TYPE:Solid infill
;WIDTH:0.689718
G1 F1174
G1 X-13.229 Y1.89 E3.06965
G1 X-14.021 Y2.409 E3.12055
G1 X-14.813 Y2.559 E3.16394
G1 X-12.426 Y.171 E3.34555
G1 X-12.521 Y-.648 E3.38992
G1 X-15.638 Y2.469 E3.62701
G1 X-16.012 Y2.391 E3.64753
G1 X-16.287 Y2.204 E3.66547
G1 X-12.79 Y-1.293 E3.93144
G1 X-13.159 Y-1.839 E3.96687
G1 X-16.831 Y1.833 E4.24619
G1 X-17.2 Y1.287 E4.28163
G1 X-13.703 Y-2.21 E4.54759
G1 X-14.353 Y-2.475 E4.58532
G1 X-17.47 Y.642 E4.82239
G1 X-17.565 Y-.178 E4.86677
G1 X-15.177 Y-2.565 E5.04837
G1 X-15.97 Y-2.415 E5.09175
G1 X-16.762 Y-1.896 E5.14268
G1 X-17.677 Y-.98 E5.21229
; stop printing object pin.STL id:1 copy 0
; printing object pin.STL id:0 copy 0
;WIPE_START
G1 F8640
G1 X-16.762 Y-1.896 E4.95611
G1 X-15.97 Y-2.415 E4.76871
G1 X-15.177 Y-2.565 E4.60904
G1 X-17.565 Y-.178 E3.94076
G1 X-17.47 Y.642 E3.77746
G1 X-14.353 Y-2.475 E2.90502
G1 X-13.703 Y-2.21 E2.76619
G1 X-15.146 Y-.767 E2.36229
;WIPE_END
G1 E2.21229 F1800
G92 E0
G1 X14.381 Y2.946 F10800
G1 E3 F1800
M204 S800
;TYPE:Perimeter
;WIDTH:0.65
G1 F1174
G1 X13.797 Y2.825 E3.03009
G1 X12.809 Y2.152 E3.09047
G1 X12.153 Y1.151 E3.15084
G1 X11.93 Y-.024 E3.21122
G1 X12.173 Y-1.195 E3.2716
G1 X12.847 Y-2.183 E3.33197
G1 X13.847 Y-2.839 E3.39235
G1 X15.022 Y-3.062 E3.45271
G1 X16.193 Y-2.819 E3.5131
G1 X17.182 Y-2.146 E3.57347
G1 X17.837 Y-1.145 E3.63386
G1 X18.061 Y.03 E3.69423
G1 X17.817 Y1.201 E3.75461
G1 X17.144 Y2.189 E3.81498
G1 X16.143 Y2.845 E3.87537
G1 X14.968 Y3.068 E3.93574
G1 X14.469 Y2.965 E3.96148
M204 S1000
G1 X14.963 Y3.667 F10800
M204 S800
;TYPE:External perimeter
;WIDTH:0.61
G1 F1174
G1 X13.564 Y3.376 E4.02889
G1 X12.382 Y2.571 E4.0963
G1 X11.598 Y1.376 E4.16371
G1 X11.331 Y-.029 E4.23113
G1 X11.622 Y-1.429 E4.29854
G1 X12.427 Y-2.61 E4.36594
G1 X13.623 Y-3.394 E4.43336
G1 X15.027 Y-3.661 E4.50076
G1 X16.427 Y-3.37 E4.56818
G1 X17.608 Y-2.565 E4.63559
G1 X18.392 Y-1.37 E4.70301
G1 X18.659 Y.035 E4.77042
G1 X18.368 Y1.435 E4.83783
G1 X17.563 Y2.616 E4.90524
G1 X16.368 Y3.4 E4.97266
G1 X15.052 Y3.65 E5.03582
M204 S1000
G1 X14.668 Y3.145 F10800
;WIPE_START
G1 F8640
G1 X13.564 Y3.376 E4.73633
G1 X12.382 Y2.571 E4.45339
G1 X11.598 Y1.376 E4.17045
G1 X11.331 Y-.029 E3.8875
G1 X11.622 Y-1.429 E3.60454
G1 X12.427 Y-2.61 E3.32163
G1 X13.623 Y-3.394 E3.03866
G1 X15.027 Y-3.661 E2.75576
G1 X16.427 Y-3.37 E2.47275
G1 X17.608 Y-2.565 E2.18983
G1 X17.62 Y-2.548 E2.18582
;WIPE_END
G1 E2.03582 F1800
G92 E0
G1 X17.677 Y.98 F10800
G1 E3 F1800
;TYPE:Solid infill
;WIDTH:0.689718
G1 F1174
G1 X16.761 Y1.896 E3.06965
G1 X15.97 Y2.415 E3.12055
G1 X15.177 Y2.565 E3.16394
G1 X17.565 Y.178 E3.34555
G1 X17.47 Y-.642 E3.38992
G1 X14.352 Y2.475 E3.62701
G1 X13.979 Y2.397 E3.64753
G1 X13.703 Y2.21 E3.66547
G1 X17.2 Y-1.287 E3.93144
G1 X16.831 Y-1.833 E3.96687
G1 X13.159 Y1.839 E4.24619
G1 X12.79 Y1.293 E4.28163
G1 X16.287 Y-2.204 E4.54759
G1 X15.638 Y-2.469 E4.58532
G1 X12.521 Y.648 E4.82239
G1 X12.426 Y-.172 E4.86677
G1 X14.813 Y-2.559 E5.04837
G1 X14.021 Y-2.409 E5.09175
G1 X13.229 Y-1.89 E5.14268
G1 X12.314 Y-.974 E5.21229
; stop printing object pin.STL id:0 copy 0
;LAYER_CHANGE
;Z:0.6
;HEIGHT:0.2
; **** Start of Before Layer Change GCode: FlashForge Creator 3 ****
; FFPP-layer_z_height: 0.6 ; Value parsed by FFPP script
;layer:0.200 ; Value substituted by FFPP script (FFPP-calculated-next_layer_height)
; **** End of Before Layer Change GCode: FlashForge Creator 3 ****
G1 Z.6 F720
; **** Start of After Layer Change GCode: FlashForge Creator 3 ****
; **** End of After Layer Change GCode: FlashForge Creator 3 ****
G1 E2.21229 F1800
G92 E0
G1 X12.315 Y-6.58 F10800
G1 E3 F1800
;TYPE:Skirt/Brim
;WIDTH:0.65
G1 F1183
G1 X14.996 Y-6.579 E3.13533
G1 X16.183 Y-6.471 E3.1955
G1 X17.343 Y-6.146 E3.25633
G1 X18.425 Y-5.615 E3.31715
G1 X19.391 Y-4.896 E3.37793
G1 X20.21 Y-4.013 E3.43873
G1 X20.854 Y-2.996 E3.49953
G1 X21.303 Y-1.878 E3.56033
G1 X21.54 Y-.697 E3.62111
G1 X21.558 Y.508 E3.68196
G1 X21.356 Y1.696 E3.74277
G1 X20.941 Y2.826 E3.80357
G1 X20.327 Y3.862 E3.86435
G1 X19.534 Y4.769 E3.92517
G1 X18.619 Y5.498 E3.98425
G1 X17.557 Y6.066 E4.04503
G1 X16.409 Y6.432 E4.10585
G1 X15.007 Y6.585 E4.17703
G1 X-15.866 Y6.521 E5.73545
G1 X-17.787 Y5.958 E5.83651
G1 X-19.45 Y4.842 E5.93763
G1 X-20.701 Y3.279 E6.03868
G1 X-21.424 Y1.411 E6.1398
G1 X-21.576 Y.124 E6.20521
