; This file has been post-processed by C:\Users\melvi\git-repos\PrusaSlicer-FlashForge\flashforge_post_process.py
; Original File Location: C:\Users\melvi\AppData\Local\Temp\.14200.gcode.pp


; generated by PrusaSlicer 2.4.0+win64 on 2022-02-04 at 03:31:16 UTC

; 

; external perimeters extrusion width = 0.61mm
; perimeters extrusion width = 0.65mm
; infill extrusion width = 0.70mm
; solid infill extrusion width = 0.65mm
; top infill extrusion width = 0.60mm
; first layer extrusion width = 0.65mm

; external perimeters extrusion width = 0.61mm
; perimeters extrusion width = 0.65mm
; infill extrusion width = 0.70mm
; solid infill extrusion width = 0.65mm
; top infill extrusion width = 0.60mm
; first layer extrusion width = 0.65mm

; external perimeters extrusion width = 0.61mm
; perimeters extrusion width = 0.65mm
; infill extrusion width = 0.70mm
; solid infill extrusion width = 0.65mm
; top infill extrusion width = 0.60mm
; first layer extrusion width = 0.65mm

; external perimeters extrusion width = 0.61mm
; perimeters extrusion width = 0.65mm
; infill extrusion width = 0.70mm
; solid infill extrusion width = 0.65mm
; top infill extrusion width = 0.60mm
; first layer extrusion width = 0.65mm

M107
;TYPE:Custom
; **** Start of Start GCode: FlashForge Creator 3 ****
M118 X150.00 Y125.00 Z200.00 T0 T1
; todo: need to post process Active extruders in m118

G90 ; absolute positioning
M108 T0 ; tool change
G1 X187 Y0.000 F10800 ; Move initial extruder over anti-ooze plate (9-point Bed Levelling sometimes leaves it off plate)

; Set Filament Z-Offset
G1 Z0.000 F720 ;
G92 Z-0.06 ; Value substituted by FFPP script (FFPP-filament_extra_z_offset)(negative is printing higher in air)

M140 S75 T0 ; set bed temperature
M104 S240 T0 ; set right extruder temp
M104 S0 T1 ; set left extruder temp

M7 T0 ; wait for platform
M6 T0 ; wait for temp
M6 T1 ; wait for temp

M106 ; Extruder/Heat Break fan on
M651 S255 ; chassis fan on (after heating reached to speed up heating)

; Purge Filament (gets rid of any curling filament too)
G1 X172 F10800 ; Move initial extruder off anti-ooze plate
G92 E0 ; reset extrusion distance 
G1 F150 E20 ; feed 20mm of feed stock 
G92 E0 ; reset extrusion distance


; M652 ; chassis fan off 
; M109 T1/2 only if dupe or mirror

;layer_count: 300 ; Value substituted by FFPP script (FFPP-calculated-total_layer_count)
; **** End of Start GCode: FlashForge Creator 3 ****
G21 ; set units to millimeters
G90 ; use absolute coordinates
M82 ; use absolute distances for extrusion
G92 E0
; **** Start of Filament-Specific Start GCode: eSun PETG - Blue (Hardened 0.6mm) ****
; FFPP-filament_extra_z_offset: 0.06 ; Value parsed by FFPP script
; **** End of Filament-Specific Start GCode: eSun PETG - Blue (Hardened 0.6mm) ****
M107
;LAYER_CHANGE
;Z:0.2
;HEIGHT:0.2
; **** Start of Before Layer Change GCode: FlashForge Creator 3 ****
; FFPP-layer_z_height: 0.2 ; Value parsed by FFPP script
;layer:0.200 ; Value substituted by FFPP script (FFPP-calculated-next_layer_height)
; **** End of Before Layer Change GCode: FlashForge Creator 3 ****
G1 Z.2 F720
; **** Start of After Layer Change GCode: FlashForge Creator 3 ****
; **** End of After Layer Change GCode: FlashForge Creator 3 ****
G1 E-3 F1800
G92 E0
G1 X-.004 Y-19.199 F10800
G1 E3 F1800
M204 S800
;TYPE:Skirt/Brim
;WIDTH:0.65
G1 F1200
G1 X15.028 Y-19.202 E3.75878
G1 X16.216 Y-19.094 E3.81898
G1 X17.343 Y-18.781 E3.87804
G1 X18.427 Y-18.256 E3.93884
G1 X19.38 Y-17.557 E3.9985
G1 X20.186 Y-16.708 E4.05756
G1 X20.834 Y-15.72 E4.11723
G1 X21.291 Y-14.643 E4.17629
G1 X21.555 Y-13.468 E4.23709
G1 X21.61 Y-12.613 E4.28032
G1 X21.533 Y13.016 E5.57404
G1 X21.366 Y14.151 E5.63196
G1 X21.004 Y15.24 E5.68987
G1 X20.458 Y16.249 E5.74779
G1 X19.745 Y17.148 E5.8057
G1 X18.729 Y18.024 E5.87342
G1 X17.577 Y18.666 E5.94
G1 X16.32 Y19.066 E6.00657
G1 X15.009 Y19.208 E6.07315
G1 X-15.361 Y19.193 E7.60618
G1 X-16.519 Y19.03 E7.66523
G1 X-17.61 Y18.674 E7.72315
G1 X-18.651 Y18.115 E7.78281
G1 X-19.55 Y17.402 E7.84073
G1 X-20.426 Y16.386 E7.90845
G1 X-21.068 Y15.234 E7.97502
G1 X-21.468 Y13.977 E8.04159
G1 X-21.61 Y12.666 E8.10818
G1 X-21.532 Y-13.039 E9.40571
G1 X-21.36 Y-14.173 E9.46363
G1 X-20.994 Y-15.26 E9.52154
G1 X-20.445 Y-16.268 E9.57946
G1 X-19.745 Y-17.148 E9.63623
G1 X-18.823 Y-17.957 E9.69818
G1 X-17.734 Y-18.596 E9.76186
G1 X-16.566 Y-19.009 E9.82441
G1 X-15.353 Y-19.196 E9.88636
G1 X-.094 Y-19.199 E10.65667
M204 S1000
; printing object pin.STL id:2 copy 0
G1 E7.65667 F1800
G92 E0
G1 X14.405 Y-9.648 F10800
G1 E3 F1800
M204 S800
;TYPE:Perimeter
G1 F1200
G1 X13.839 Y-9.823 E3.02995
G1 X13.33 Y-10.099 E3.05915
G1 X12.859 Y-10.491 E3.09008
G1 X12.495 Y-10.941 E3.11928
G1 X12.211 Y-11.481 E3.15011
G1 X12.04 Y-12.068 E3.18095
G1 X11.989 Y-12.644 E3.21014
G1 X12.056 Y-13.253 E3.24108
G1 X12.231 Y-13.807 E3.27038
G1 X12.508 Y-14.317 E3.29968
G1 X12.898 Y-14.787 E3.33051
G1 X13.374 Y-15.169 E3.36135
G1 X13.888 Y-15.436 E3.39054
G1 X14.476 Y-15.607 E3.42148
G1 X15.052 Y-15.658 E3.45068
G1 X15.661 Y-15.591 E3.48161
G1 X16.215 Y-15.417 E3.51091
G1 X16.725 Y-15.14 E3.54021
G1 X17.195 Y-14.749 E3.57105
G1 X17.577 Y-14.273 E3.60188
G1 X17.844 Y-13.76 E3.63108
G1 X18.016 Y-13.171 E3.66201
G1 X18.066 Y-12.593 E3.69131
G1 X18.006 Y-12.016 E3.72061
G1 X17.824 Y-11.431 E3.75155
G1 X17.548 Y-10.922 E3.78075
G1 X17.157 Y-10.453 E3.81158
G1 X16.681 Y-10.07 E3.84241
G1 X16.168 Y-9.803 E3.87161
G1 X15.579 Y-9.632 E3.90255
G1 X15.001 Y-9.581 E3.93185
G1 X14.494 Y-9.634 E3.95759
M204 S1000
G1 X14.996 Y-8.971 F10800
M204 S800
;TYPE:External perimeter
G1 F1200
G1 X14.301 Y-9.044 E3.99286
G1 X13.602 Y-9.261 E4.02983
G1 X12.988 Y-9.594 E4.06507
G1 X12.425 Y-10.063 E4.10204
G1 X11.986 Y-10.605 E4.13727
G1 X11.645 Y-11.253 E4.17421
G1 X11.44 Y-11.955 E4.21115
G1 X11.379 Y-12.651 E4.24638
G1 X11.459 Y-13.379 E4.28336
G1 X11.669 Y-14.045 E4.31863
G1 X12.003 Y-14.659 E4.3539
G1 X12.47 Y-15.222 E4.39083
G1 X13.041 Y-15.68 E4.42777
G1 X13.66 Y-16.002 E4.463
G1 X14.363 Y-16.207 E4.49997
G1 X15.059 Y-16.268 E4.53521
G1 X15.787 Y-16.188 E4.57218
G1 X16.453 Y-15.978 E4.60745
G1 X17.067 Y-15.645 E4.64272
G1 X17.63 Y-15.177 E4.67966
G1 X18.088 Y-14.606 E4.71659
G1 X18.41 Y-13.987 E4.75183
G1 X18.615 Y-13.284 E4.7888
G1 X18.676 Y-12.588 E4.82407
G1 X18.603 Y-11.893 E4.85934
G1 X18.386 Y-11.194 E4.89631
G1 X18.053 Y-10.58 E4.93155
G1 X17.585 Y-10.017 E4.96848
G1 X17.014 Y-9.559 E5.00542
G1 X16.395 Y-9.237 E5.04065
G1 X15.692 Y-9.032 E5.07763
G1 X15.086 Y-8.979 E5.10835
M204 S1000
G1 X14.7 Y-9.493 F10800
G1 E2.10835 F1800
G92 E0
G1 X15.972 Y-15.302 F10800
G1 E3 F1800
M204 S800
;TYPE:Solid infill
;WIDTH:0.684182
G1 F1200
G1 X17.194 Y-14.023 E3.09431
G1 X17.419 Y-13.589 E3.12037
G1 X17.593 Y-12.774 E3.1648
G1 X15.182 Y-15.186 E3.34663
G1 X14.361 Y-15.1 E3.39064
G1 X17.509 Y-11.952 E3.62801
G1 X17.402 Y-11.608 E3.64719
G1 X17.242 Y-11.312 E3.66515
G1 X13.719 Y-14.835 E3.93078
G1 X13.204 Y-14.443 E3.96528
G1 X16.851 Y-10.796 E4.24025
G1 X16.336 Y-10.404 E4.27476
G1 X12.814 Y-13.926 E4.54037
G1 X12.545 Y-13.289 E4.57729
G1 X15.694 Y-10.139 E4.81477
G1 X14.874 Y-10.052 E4.85873
G1 X12.462 Y-12.464 E5.04061
G1 X12.635 Y-11.653 E5.08485
G1 X12.877 Y-11.192 E5.11259
G1 X14.08 Y-9.939 E5.20523
M204 S1000
; stop printing object pin.STL id:2 copy 0
; printing object pin.STL id:0 copy 0
G1 E2.20523 F1800
G92 E0
G1 X14.34 Y15.598 F10800
G1 E3 F1800
M204 S800
;TYPE:Perimeter
;WIDTH:0.65
G1 F1200
G1 X13.774 Y15.422 E3.02995
G1 X13.265 Y15.146 E3.05915
G1 X12.794 Y14.754 E3.09008
G1 X12.43 Y14.304 E3.11928
G1 X12.146 Y13.764 E3.15011
G1 X11.975 Y13.177 E3.18095
G1 X11.924 Y12.601 E3.21014
G1 X11.991 Y11.992 E3.24108
G1 X12.166 Y11.438 E3.27038
G1 X12.443 Y10.928 E3.29968
G1 X12.833 Y10.459 E3.33051
G1 X13.31 Y10.076 E3.36135
G1 X13.823 Y9.809 E3.39054
G1 X14.411 Y9.638 E3.42148
G1 X14.987 Y9.587 E3.45068
G1 X15.596 Y9.654 E3.48161
G1 X16.15 Y9.829 E3.51091
G1 X16.66 Y10.106 E3.54021
G1 X17.13 Y10.496 E3.57105
G1 X17.512 Y10.972 E3.60188
G1 X17.779 Y11.485 E3.63108
G1 X17.951 Y12.074 E3.66201
G1 X18.001 Y12.652 E3.69131
G1 X17.941 Y13.229 E3.72061
G1 X17.759 Y13.815 E3.75155
G1 X17.483 Y14.323 E3.78075
G1 X17.092 Y14.793 E3.81158
G1 X16.616 Y15.175 E3.84241
G1 X16.103 Y15.442 E3.87161
G1 X15.515 Y15.614 E3.90255
G1 X14.936 Y15.664 E3.93185
G1 X14.429 Y15.611 E3.95759
M204 S1000
G1 X14.931 Y16.274 F10800
M204 S800
;TYPE:External perimeter
G1 F1200
G1 X14.236 Y16.201 E3.99286
G1 X13.537 Y15.984 E4.02983
G1 X12.923 Y15.651 E4.06507
G1 X12.36 Y15.182 E4.10204
G1 X11.921 Y14.64 E4.13727
G1 X11.58 Y13.992 E4.17421
G1 X11.375 Y13.29 E4.21115
G1 X11.314 Y12.595 E4.24638
G1 X11.394 Y11.866 E4.28336
G1 X11.604 Y11.2 E4.31863
G1 X11.938 Y10.586 E4.3539
G1 X12.406 Y10.024 E4.39083
G1 X12.976 Y9.565 E4.42777
G1 X13.595 Y9.243 E4.463
G1 X14.298 Y9.038 E4.49997
G1 X14.994 Y8.977 E4.53521
G1 X15.722 Y9.057 E4.57218
G1 X16.388 Y9.267 E4.60745
G1 X17.002 Y9.601 E4.64272
G1 X17.565 Y10.068 E4.67966
G1 X18.023 Y10.639 E4.71659
G1 X18.345 Y11.258 E4.75183
G1 X18.55 Y11.961 E4.7888
G1 X18.611 Y12.657 E4.82407
G1 X18.538 Y13.352 E4.85934
G1 X18.321 Y14.052 E4.89631
G1 X17.988 Y14.665 E4.93155
G1 X17.52 Y15.228 E4.96848
G1 X16.949 Y15.686 E5.00542
G1 X16.33 Y16.008 E5.04065
G1 X15.627 Y16.213 E5.07763
G1 X15.021 Y16.266 E5.10835
M204 S1000
G1 X14.635 Y15.752 F10800
G1 E2.10835 F1800
G92 E0
G1 X15.907 Y9.943 F10800
G1 E3 F1800
M204 S800
;TYPE:Solid infill
;WIDTH:0.684182
G1 F1200
G1 X17.129 Y11.222 E3.09431
G1 X17.355 Y11.656 E3.12037
G1 X17.528 Y12.471 E3.1648
G1 X15.117 Y10.06 E3.34663
G1 X14.296 Y10.145 E3.39064
G1 X17.444 Y13.293 E3.62801
G1 X17.337 Y13.637 E3.64719
G1 X17.177 Y13.933 E3.66515
G1 X13.654 Y10.41 E3.93078
G1 X13.139 Y10.803 E3.96528
G1 X16.786 Y14.449 E4.24025
G1 X16.271 Y14.841 E4.27476
G1 X12.749 Y11.319 E4.54037
G1 X12.48 Y11.957 E4.57729
G1 X15.629 Y15.106 E4.81477
G1 X14.809 Y15.193 E4.85873
G1 X12.397 Y12.781 E5.04061
G1 X12.57 Y13.592 E5.08485
G1 X12.812 Y14.053 E5.11259
G1 X14.015 Y15.306 E5.20523
M204 S1000
; stop printing object pin.STL id:0 copy 0
; printing object pin.STL id:1 copy 0
G1 E2.20523 F1800
G92 E0
G1 X-15.65 Y15.592 F10800
G1 E3 F1800
M204 S800
;TYPE:Perimeter
;WIDTH:0.65
G1 F1200
G1 X-16.217 Y15.416 E3.02995
G1 X-16.725 Y15.14 E3.05915
G1 X-17.196 Y14.748 E3.09008
G1 X-17.56 Y14.298 E3.11928
G1 X-17.845 Y13.758 E3.15011
G1 X-18.016 Y13.171 E3.18095
G1 X-18.066 Y12.595 E3.21014
G1 X-17.999 Y11.986 E3.24108
G1 X-17.825 Y11.432 E3.27038
G1 X-17.548 Y10.922 E3.29968
G1 X-17.157 Y10.453 E3.33051
G1 X-16.681 Y10.07 E3.36135
G1 X-16.168 Y9.803 E3.39054
G1 X-15.579 Y9.632 E3.42148
G1 X-15.003 Y9.581 E3.45068
G1 X-14.394 Y9.648 E3.48161
G1 X-13.84 Y9.822 E3.51091
G1 X-13.33 Y10.099 E3.54021
G1 X-12.861 Y10.49 E3.57105
G1 X-12.478 Y10.966 E3.60188
G1 X-12.211 Y11.479 E3.63108
G1 X-12.04 Y12.068 E3.66201
G1 X-11.989 Y12.646 E3.69131
G1 X-12.05 Y13.223 E3.72061
G1 X-12.232 Y13.809 E3.75155
G1 X-12.508 Y14.317 E3.78075
G1 X-12.898 Y14.787 E3.81158
G1 X-13.374 Y15.169 E3.84241
G1 X-13.887 Y15.436 E3.87161
G1 X-14.476 Y15.607 E3.90255
G1 X-15.054 Y15.658 E3.93185
G1 X-15.561 Y15.605 E3.95759
M204 S1000
G1 X-15.059 Y16.268 F10800
M204 S800
;TYPE:External perimeter
G1 F1200
G1 X-15.754 Y16.195 E3.99286
G1 X-16.454 Y15.978 E4.02983
G1 X-17.067 Y15.645 E4.06507
G1 X-17.63 Y15.176 E4.10204
G1 X-18.07 Y14.634 E4.13727
G1 X-18.41 Y13.986 E4.17421
G1 X-18.615 Y13.284 E4.21115
G1 X-18.676 Y12.589 E4.24638
G1 X-18.596 Y11.86 E4.28336
G1 X-18.386 Y11.194 E4.31863
G1 X-18.053 Y10.58 E4.3539
G1 X-17.585 Y10.017 E4.39083
G1 X-17.014 Y9.559 E4.42777
G1 X-16.395 Y9.237 E4.463
G1 X-15.692 Y9.032 E4.49997
G1 X-14.997 Y8.971 E4.53521
G1 X-14.269 Y9.051 E4.57218
G1 X-13.602 Y9.261 E4.60745
G1 X-12.988 Y9.594 E4.64272
G1 X-12.426 Y10.062 E4.67966
G1 X-11.968 Y10.633 E4.71659
G1 X-11.645 Y11.252 E4.75183
G1 X-11.44 Y11.955 E4.7888
G1 X-11.379 Y12.651 E4.82407
G1 X-11.452 Y13.346 E4.85934
G1 X-11.669 Y14.046 E4.89631
G1 X-12.003 Y14.659 E4.93155
G1 X-12.47 Y15.222 E4.96848
G1 X-13.041 Y15.68 E5.00542
G1 X-13.66 Y16.002 E5.04065
G1 X-14.363 Y16.207 E5.07763
G1 X-14.97 Y16.26 E5.10835
M204 S1000
G1 X-15.356 Y15.746 F10800
G1 E2.10835 F1800
G92 E0
G1 X-14.083 Y9.937 F10800
G1 E3 F1800
M204 S800
;TYPE:Solid infill
;WIDTH:0.684182
G1 F1200
G1 X-12.862 Y11.216 E3.09431
G1 X-12.636 Y11.65 E3.12037
G1 X-12.462 Y12.465 E3.1648
G1 X-14.873 Y10.054 E3.34663
G1 X-15.694 Y10.139 E3.39064
G1 X-12.546 Y13.287 E3.62801
G1 X-12.653 Y13.631 E3.64719
G1 X-12.814 Y13.927 E3.66515
G1 X-16.336 Y10.404 E3.93078
G1 X-16.851 Y10.796 E3.96528
G1 X-13.205 Y14.443 E4.24025
G1 X-13.719 Y14.835 E4.27476
G1 X-17.242 Y11.313 E4.54037
G1 X-17.511 Y11.951 E4.57729
G1 X-14.361 Y15.1 E4.81477
G1 X-15.181 Y15.187 E4.85873
G1 X-17.593 Y12.775 E5.04061
G1 X-17.42 Y13.586 E5.08485
G1 X-17.178 Y14.047 E5.11259
G1 X-15.975 Y15.3 E5.20523
M204 S1000
; stop printing object pin.STL id:1 copy 0
; printing object pin.STL id:3 copy 0
G1 E2.20523 F1800
G92 E0
G1 X-15.585 Y-9.654 F10800
G1 E3 F1800
M204 S800
;TYPE:Perimeter
;WIDTH:0.65
G1 F1200
G1 X-16.152 Y-9.83 E3.02995
G1 X-16.66 Y-10.106 E3.05915
G1 X-17.131 Y-10.497 E3.09008
G1 X-17.495 Y-10.947 E3.11928
G1 X-17.78 Y-11.487 E3.15011
G1 X-17.951 Y-12.074 E3.18095
G1 X-18.001 Y-12.65 E3.21014
G1 X-17.934 Y-13.259 E3.24108
G1 X-17.76 Y-13.813 E3.27038
G1 X-17.483 Y-14.323 E3.29968
G1 X-17.092 Y-14.793 E3.33051
G1 X-16.616 Y-15.175 E3.36135
G1 X-16.103 Y-15.442 E3.39054
G1 X-15.515 Y-15.614 E3.42148
G1 X-14.938 Y-15.664 E3.45068
G1 X-14.329 Y-15.597 E3.48161
G1 X-13.776 Y-15.423 E3.51091
G1 X-13.265 Y-15.146 E3.54021
G1 X-12.796 Y-14.755 E3.57105
G1 X-12.413 Y-14.279 E3.60188
G1 X-12.146 Y-13.766 E3.63108
G1 X-11.975 Y-13.177 E3.66201
G1 X-11.924 Y-12.599 E3.69131
G1 X-11.985 Y-12.022 E3.72061
G1 X-12.167 Y-11.437 E3.75155
G1 X-12.443 Y-10.928 E3.78075
G1 X-12.833 Y-10.459 E3.81158
G1 X-13.31 Y-10.076 E3.84241
G1 X-13.823 Y-9.809 E3.87161
G1 X-14.411 Y-9.638 E3.90255
G1 X-14.989 Y-9.587 E3.93185
G1 X-15.496 Y-9.64 E3.95759
M204 S1000
G1 X-14.995 Y-8.977 F10800
M204 S800
;TYPE:External perimeter
G1 F1200
G1 X-15.689 Y-9.05 E3.99286
G1 X-16.389 Y-9.267 E4.02983
G1 X-17.002 Y-9.601 E4.06507
G1 X-17.565 Y-10.069 E4.10204
G1 X-18.005 Y-10.611 E4.13727
G1 X-18.345 Y-11.259 E4.17421
G1 X-18.55 Y-11.961 E4.21115
G1 X-18.611 Y-12.657 E4.24638
G1 X-18.531 Y-13.385 E4.28336
G1 X-18.321 Y-14.051 E4.31863
G1 X-17.988 Y-14.665 E4.3539
G1 X-17.52 Y-15.228 E4.39083
G1 X-16.949 Y-15.686 E4.42777
G1 X-16.33 Y-16.008 E4.463
G1 X-15.627 Y-16.213 E4.49997
G1 X-14.932 Y-16.274 E4.53521
G1 X-14.204 Y-16.194 E4.57218
G1 X-13.537 Y-15.984 E4.60745
G1 X-12.923 Y-15.651 E4.64272
G1 X-12.361 Y-15.183 E4.67966
G1 X-11.903 Y-14.612 E4.71659
G1 X-11.58 Y-13.993 E4.75183
G1 X-11.375 Y-13.29 E4.7888
G1 X-11.314 Y-12.594 E4.82407
G1 X-11.387 Y-11.899 E4.85934
G1 X-11.605 Y-11.2 E4.89631
G1 X-11.938 Y-10.586 E4.93155
G1 X-12.406 Y-10.024 E4.96848
G1 X-12.976 Y-9.565 E5.00542
G1 X-13.595 Y-9.243 E5.04065
G1 X-14.298 Y-9.038 E5.07763
G1 X-14.905 Y-8.985 E5.10835
M204 S1000
G1 X-15.291 Y-9.499 F10800
G1 E2.10835 F1800
G92 E0
G1 X-14.018 Y-15.308 F10800
G1 E3 F1800
M204 S800
;TYPE:Solid infill
;WIDTH:0.684182
G1 F1200
G1 X-12.797 Y-14.029 E3.09431
G1 X-12.571 Y-13.595 E3.12037
G1 X-12.397 Y-12.78 E3.1648
G1 X-14.808 Y-15.192 E3.34663
G1 X-15.629 Y-15.106 E3.39064
G1 X-12.482 Y-11.958 E3.62801
G1 X-12.588 Y-11.614 E3.64719
G1 X-12.749 Y-11.318 E3.66515
G1 X-16.271 Y-14.841 E3.93078
G1 X-16.786 Y-14.449 E3.96528
G1 X-13.14 Y-10.802 E4.24025
G1 X-13.654 Y-10.41 E4.27476
G1 X-17.177 Y-13.933 E4.54037
G1 X-17.446 Y-13.295 E4.57729
G1 X-14.296 Y-10.145 E4.81477
G1 X-15.116 Y-10.058 E4.85873
G1 X-17.528 Y-12.47 E5.04061
G1 X-17.355 Y-11.659 E5.08485
G1 X-17.113 Y-11.199 E5.11259
G1 X-15.91 Y-9.945 E5.20523
M204 S1000
; stop printing object pin.STL id:3 copy 0
;LAYER_CHANGE
;Z:0.4
;HEIGHT:0.2
; **** Start of Before Layer Change GCode: FlashForge Creator 3 ****
; FFPP-layer_z_height: 0.4 ; Value parsed by FFPP script
