;FLAVOR:Marlin
;TIME:603
;Filament used: 0.539687m
;Layer height: 0.28
;MINX:101.703
;MINY:101.703
;MINZ:0.28
;MAXX:124.728
;MAXY:131.158
;MAXZ:8.4
;Generated with Cura_SteamEngine 4.13.1
M140 S85
M105
M190 S85
M104 S245
M105
M109 S245
M82 ;absolute extrusion mode
; Ender 3 Custom Start G-code
G92 E0 ; Reset Extruder
G28 ; Home all axes
G1 Z2.0 F3000 ; Move Z Axis up little to prevent scratching of Heat Bed
G1 X0.1 Y20 Z0.3 F5000.0 ; Move to start position
G1 X0.1 Y200.0 Z0.3 F1500.0 E15 ; Draw the first line
G1 X0.4 Y200.0 Z0.3 F5000.0 ; Move to side a little
G1 X0.4 Y20 Z0.3 F1500.0 E30 ; Draw the second line
G92 E0 ; Reset Extruder
G1 Z2.0 F3000 ; Move Z Axis up little to prevent scratching of Heat Bed
G1 X5 Y20 Z0.3 F5000.0 ; Move over to prevent blob squish
G92 E0
G92 E0
G1 F900 E-7
;LAYER_COUNT:30
;LAYER:0
M107
G0 F7500 X103.969 Y104.3 Z0.28
;TYPE:SKIRT
G1 F900 E0
G1 F1500 X104.465 Y103.818 E0.02609
G1 X104.608 Y103.693 E0.03325
G1 X105.152 Y103.266 E0.05933
G1 X105.306 Y103.158 E0.06643
G1 X105.892 Y102.79 E0.09253
G1 X106.064 Y102.694 E0.09996
G1 X106.687 Y102.392 E0.12607
G1 X106.862 Y102.318 E0.13324
G1 X107.515 Y102.083 E0.15941
G1 X107.697 Y102.029 E0.16657
G1 X108.367 Y101.865 E0.19259
G1 X108.556 Y101.829 E0.19984
G1 X109.243 Y101.737 E0.22599
G1 X109.433 Y101.722 E0.23318
G1 X110.124 Y101.703 E0.25925
G1 X110.319 Y101.708 E0.26661
G1 X111.008 Y101.764 E0.29268
G1 X111.197 Y101.789 E0.29987
G1 X111.879 Y101.918 E0.32605
G1 X112.06 Y101.962 E0.33307
G1 X112.722 Y102.16 E0.35913
G1 X112.906 Y102.227 E0.36652
G1 X113.541 Y102.495 E0.39252
G1 X113.714 Y102.579 E0.39977
G1 X114.322 Y102.916 E0.42599
G1 X114.483 Y103.017 E0.43316
G1 X115.047 Y103.413 E0.45915
G1 X115.2 Y103.533 E0.46648
G1 X115.721 Y103.99 E0.49262
G1 X115.856 Y104.122 E0.49974
G1 X116.326 Y104.631 E0.52587
G1 X116.447 Y104.776 E0.533
G1 X116.86 Y105.33 E0.55906
G1 X116.968 Y105.493 E0.56643
G1 X117.319 Y106.089 E0.59252
G1 X117.407 Y106.258 E0.59971
G1 X117.693 Y106.888 E0.6258
G1 X117.764 Y107.07 E0.63317
G1 X117.98 Y107.727 E0.65926
G1 X118.029 Y107.907 E0.66629
G1 X118.176 Y108.583 E0.69239
G1 X118.207 Y108.774 E0.69969
G1 X118.281 Y109.468 E0.72601
G1 X118.29 Y109.611 E0.73141
G1 X118.299 Y109.951 E0.74424
G1 X118.299 Y110.046 E0.74782
G1 X118.29 Y110.392 E0.76088
G1 X118.281 Y110.537 E0.76636
G1 X118.207 Y111.225 E0.79246
G1 X118.176 Y111.414 E0.79968
G1 X118.029 Y112.092 E0.82585
G1 X117.98 Y112.272 E0.83288
G1 X117.765 Y112.927 E0.85889
G1 X117.694 Y113.11 E0.86629
G1 X117.408 Y113.74 E0.89238
G1 X117.32 Y113.909 E0.89957
G1 X116.969 Y114.505 E0.92566
G1 X116.919 Y114.581 E0.92909
G1 X117.187 Y114.598 E0.93922
G1 X117.875 Y114.69 E0.9654
G1 X118.064 Y114.726 E0.97266
G1 X118.734 Y114.89 E0.99867
G1 X118.918 Y114.945 E1.00592
G1 X119.571 Y115.181 E1.0321
G1 X119.745 Y115.255 E1.03924
G1 X120.365 Y115.556 E1.06523
G1 X120.535 Y115.65 E1.07256
G1 X121.124 Y116.019 E1.09877
G1 X121.279 Y116.128 E1.10592
G1 X121.823 Y116.555 E1.132
G1 X121.966 Y116.68 E1.13917
G1 X122.461 Y117.161 E1.1652
G1 X122.594 Y117.305 E1.17259
G1 X123.034 Y117.837 E1.19863
G1 X123.147 Y117.989 E1.20577
G1 X123.53 Y118.566 E1.2319
G1 X123.627 Y118.731 E1.23911
G1 X123.946 Y119.345 E1.26521
G1 X124.025 Y119.519 E1.27242
G1 X124.278 Y120.165 E1.29859
G1 X124.338 Y120.347 E1.30581
G1 X124.52 Y121.013 E1.33185
G1 X124.561 Y121.201 E1.33911
G1 X124.671 Y121.884 E1.3652
G1 X124.691 Y122.074 E1.37241
G1 X124.728 Y122.765 E1.39851
G1 X124.728 Y122.957 E1.40575
G1 X124.691 Y123.648 E1.43185
G1 X124.671 Y123.837 E1.43902
G1 X124.561 Y124.522 E1.46519
G1 X124.52 Y124.712 E1.47252
G1 X124.338 Y125.377 E1.49852
G1 X124.279 Y125.557 E1.50567
G1 X124.027 Y126.202 E1.53179
G1 X123.947 Y126.377 E1.53904
G1 X123.628 Y126.991 E1.56514
G1 X123.53 Y127.157 E1.57241
G1 X123.146 Y127.735 E1.59858
G1 X123.035 Y127.885 E1.60562
G1 X122.596 Y128.417 E1.63164
G1 X122.461 Y128.563 E1.63914
G1 X121.965 Y129.044 E1.6652
G1 X121.825 Y129.167 E1.67223
G1 X121.281 Y129.595 E1.69833
G1 X121.124 Y129.705 E1.70556
G1 X120.537 Y130.073 E1.73169
G1 X120.365 Y130.168 E1.7391
G1 X119.743 Y130.469 E1.76517
G1 X119.571 Y130.542 E1.77221
G1 X118.918 Y130.778 E1.7984
G1 X118.734 Y130.833 E1.80565
G1 X118.064 Y130.997 E1.83166
G1 X117.875 Y131.033 E1.83892
G1 X117.187 Y131.125 E1.8651
G1 X116.995 Y131.14 E1.87236
G1 X116.304 Y131.158 E1.89843
G1 X116.114 Y131.153 E1.9056
G1 X115.426 Y131.098 E1.93164
G1 X115.234 Y131.073 E1.93894
G1 X114.552 Y130.944 E1.96512
G1 X114.37 Y130.899 E1.97219
G1 X113.707 Y130.7 E1.9983
G1 X113.524 Y130.634 E2.00563
G1 X112.887 Y130.365 E2.03171
G1 X112.715 Y130.282 E2.03892
G1 X112.112 Y129.948 E2.06492
G1 X111.948 Y129.845 E2.07222
G1 X111.381 Y129.446 E2.09837
G1 X111.232 Y129.329 E2.10552
G1 X110.712 Y128.874 E2.13158
G1 X110.573 Y128.739 E2.13889
G1 X110.103 Y128.229 E2.16504
G1 X109.984 Y128.085 E2.17209
G1 X109.57 Y127.53 E2.19821
G1 X109.462 Y127.367 E2.20558
G1 X109.111 Y126.771 E2.23167
G1 X109.023 Y126.602 E2.23885
G1 X108.737 Y125.972 E2.26495
G1 X108.666 Y125.789 E2.27235
G1 X108.451 Y125.134 E2.29836
G1 X108.402 Y124.957 E2.30528
G1 X108.254 Y124.279 E2.33146
G1 X108.223 Y124.084 E2.3389
G1 X108.15 Y123.391 E2.36519
G1 X108.141 Y123.25 E2.37052
G1 X108.132 Y122.911 E2.38331
G1 X108.132 Y122.816 E2.38689
G1 X108.141 Y122.47 E2.39994
G1 X108.15 Y122.327 E2.40535
G1 X108.223 Y121.639 E2.43144
G1 X108.254 Y121.445 E2.43885
G1 X108.402 Y120.767 E2.46503
G1 X108.451 Y120.59 E2.47195
G1 X108.666 Y119.935 E2.49796
G1 X108.737 Y119.752 E2.50536
G1 X109.023 Y119.122 E2.53145
G1 X109.11 Y118.954 E2.53859
G1 X109.461 Y118.357 E2.56471
G1 X109.512 Y118.28 E2.56819
G1 X109.243 Y118.263 E2.57836
G1 X108.556 Y118.171 E2.6045
G1 X108.367 Y118.135 E2.61176
G1 X107.697 Y117.971 E2.63778
G1 X107.515 Y117.917 E2.64494
G1 X106.862 Y117.682 E2.67111
G1 X106.687 Y117.608 E2.67828
G1 X106.064 Y117.306 E2.70439
G1 X105.892 Y117.21 E2.71182
G1 X105.306 Y116.842 E2.73792
G1 X105.152 Y116.734 E2.74501
G1 X104.608 Y116.307 E2.7711
G1 X104.465 Y116.182 E2.77826
G1 X103.969 Y115.7 E2.80435
G1 X103.836 Y115.556 E2.81174
G1 X103.396 Y115.024 E2.83778
G1 X103.283 Y114.871 E2.84495
G1 X102.9 Y114.293 E2.87111
G1 X102.803 Y114.129 E2.87829
G1 X102.484 Y113.515 E2.90439
G1 X102.404 Y113.34 E2.91165
G1 X102.152 Y112.695 E2.93777
G1 X102.093 Y112.515 E2.94491
G1 X101.911 Y111.85 E2.97091
G1 X101.87 Y111.66 E2.97825
G1 X101.76 Y110.975 E3.00441
G1 X101.74 Y110.787 E3.01154
G1 X101.703 Y110.098 E3.03757
G1 X101.703 Y109.905 E3.04485
G1 X101.74 Y109.214 E3.07095
G1 X101.76 Y109.025 E3.07811
G1 X101.87 Y108.34 E3.10428
G1 X101.911 Y108.15 E3.11161
G1 X102.093 Y107.485 E3.13762
G1 X102.152 Y107.305 E3.14476
G1 X102.404 Y106.66 E3.17088
G1 X102.484 Y106.485 E3.17814
G1 X102.803 Y105.871 E3.20423
G1 X102.9 Y105.707 E3.21142
G1 X103.283 Y105.129 E3.23757
G1 X103.396 Y104.976 E3.24475
G1 X103.836 Y104.444 E3.27079
G1 X103.969 Y104.3 E3.27818
G0 F7500 X104.247 Y104.587
G1 F1500 X104.743 Y104.105 E3.30427
G1 X104.855 Y104.008 E3.30985
G1 X105.399 Y103.581 E3.33594
G1 X105.518 Y103.496 E3.34145
G1 X106.104 Y103.128 E3.36755
G1 X106.238 Y103.054 E3.37333
G1 X106.861 Y102.752 E3.39944
G1 X106.998 Y102.695 E3.40504
G1 X107.651 Y102.46 E3.43121
G1 X107.792 Y102.417 E3.43677
G1 X108.462 Y102.253 E3.46279
G1 X108.609 Y102.225 E3.46843
G1 X109.296 Y102.133 E3.49457
G1 X109.444 Y102.122 E3.50017
G1 X110.135 Y102.103 E3.52624
G1 X110.286 Y102.107 E3.53194
G1 X110.975 Y102.163 E3.55801
G1 X111.122 Y102.182 E3.5636
G1 X111.804 Y102.311 E3.58978
G1 X111.945 Y102.346 E3.59526
G1 X112.607 Y102.544 E3.62133
G1 X112.75 Y102.595 E3.62705
G1 X113.385 Y102.863 E3.65305
G1 X113.52 Y102.929 E3.65871
G1 X114.128 Y103.266 E3.68493
G1 X114.253 Y103.344 E3.69049
G1 X114.817 Y103.74 E3.71648
G1 X114.936 Y103.834 E3.7222
G1 X115.457 Y104.291 E3.74834
G1 X115.563 Y104.393 E3.75389
G1 X116.033 Y104.902 E3.78002
G1 X116.126 Y105.015 E3.78554
G1 X116.539 Y105.569 E3.8116
G1 X116.623 Y105.696 E3.81735
G1 X116.974 Y106.292 E3.84343
G1 X117.043 Y106.423 E3.84902
G1 X117.329 Y107.053 E3.87511
G1 X117.384 Y107.195 E3.88086
G1 X117.6 Y107.852 E3.90694
G1 X117.638 Y107.992 E3.91241
G1 X117.785 Y108.668 E3.93851
G1 X117.809 Y108.817 E3.9442
G1 X117.883 Y109.511 E3.97052
G1 X117.891 Y109.622 E3.97472
G1 X117.9 Y109.962 E3.98755
G1 X117.9 Y110.035 E3.9903
G1 X117.891 Y110.381 E4.00336
G1 X117.883 Y110.495 E4.00767
G1 X117.809 Y111.183 E4.03377
G1 X117.785 Y111.33 E4.03938
G1 X117.638 Y112.008 E4.06555
G1 X117.6 Y112.148 E4.07102
G1 X117.385 Y112.803 E4.09702
G1 X117.33 Y112.945 E4.10277
G1 X117.044 Y113.575 E4.12886
G1 X116.975 Y113.706 E4.13445
G1 X116.624 Y114.302 E4.16053
G1 X116.541 Y114.428 E4.16623
G1 X116.139 Y114.969 E4.19165
G1 X116.293 Y114.964 E4.19746
G1 X116.984 Y114.982 E4.22353
G1 X117.134 Y114.994 E4.22921
G1 X117.822 Y115.086 E4.25539
G1 X117.969 Y115.114 E4.26103
G1 X118.639 Y115.278 E4.28705
G1 X118.782 Y115.321 E4.29268
G1 X119.435 Y115.557 E4.31887
G1 X119.57 Y115.615 E4.32441
G1 X120.19 Y115.916 E4.3504
G1 X120.322 Y115.989 E4.35609
G1 X120.911 Y116.358 E4.38231
G1 X121.032 Y116.443 E4.38788
G1 X121.576 Y116.87 E4.41397
G1 X121.688 Y116.967 E4.41956
G1 X122.183 Y117.448 E4.44559
G1 X122.286 Y117.56 E4.45133
G1 X122.726 Y118.092 E4.47737
G1 X122.813 Y118.21 E4.4829
G1 X123.196 Y118.787 E4.50902
G1 X123.272 Y118.916 E4.51466
G1 X123.591 Y119.53 E4.54076
G1 X123.653 Y119.664 E4.54633
G1 X123.906 Y120.31 E4.5725
G1 X123.952 Y120.452 E4.57813
G1 X124.134 Y121.118 E4.60417
G1 X124.166 Y121.264 E4.60981
G1 X124.276 Y121.947 E4.6359
G1 X124.292 Y122.095 E4.64151
G1 X124.329 Y122.786 E4.66761
G1 X124.329 Y122.936 E4.67327
G1 X124.292 Y123.627 E4.69937
G1 X124.276 Y123.774 E4.70495
G1 X124.166 Y124.459 E4.73111
G1 X124.134 Y124.607 E4.73683
G1 X123.952 Y125.272 E4.76283
G1 X123.906 Y125.411 E4.76835
G1 X123.654 Y126.056 E4.79447
G1 X123.592 Y126.192 E4.80011
G1 X123.273 Y126.806 E4.8262
G1 X123.197 Y126.936 E4.83188
G1 X122.813 Y127.514 E4.85806
G1 X122.727 Y127.63 E4.8635
G1 X122.288 Y128.162 E4.88952
G1 X122.183 Y128.276 E4.89536
G1 X121.687 Y128.757 E4.92142
G1 X121.578 Y128.852 E4.92688
G1 X121.034 Y129.28 E4.95298
G1 X120.912 Y129.366 E4.95861
G1 X120.325 Y129.734 E4.98475
G1 X120.191 Y129.808 E4.99052
G1 X119.569 Y130.109 E5.01658
G1 X119.435 Y130.166 E5.02207
G1 X118.782 Y130.402 E5.04826
G1 X118.639 Y130.445 E5.05389
G1 X117.969 Y130.609 E5.07991
G1 X117.822 Y130.637 E5.08555
G1 X117.134 Y130.729 E5.11173
G1 X116.984 Y130.741 E5.11741
G1 X116.293 Y130.759 E5.14348
G1 X116.145 Y130.755 E5.14907
G1 X115.457 Y130.7 E5.1751
G1 X115.309 Y130.68 E5.18073
G1 X114.627 Y130.551 E5.20691
G1 X114.485 Y130.516 E5.21243
G1 X113.822 Y130.317 E5.23853
G1 X113.679 Y130.266 E5.24426
G1 X113.042 Y129.997 E5.27034
G1 X112.909 Y129.932 E5.27592
G1 X112.306 Y129.598 E5.30192
G1 X112.178 Y129.518 E5.30762
G1 X111.611 Y129.119 E5.33377
G1 X111.495 Y129.028 E5.33933
G1 X110.975 Y128.573 E5.36539
G1 X110.868 Y128.468 E5.37104
G1 X110.398 Y127.958 E5.3972
G1 X110.305 Y127.846 E5.40269
G1 X109.891 Y127.291 E5.42881
G1 X109.807 Y127.164 E5.43455
G1 X109.456 Y126.568 E5.46064
G1 X109.387 Y126.437 E5.46622
G1 X109.101 Y125.807 E5.49232
G1 X109.046 Y125.665 E5.49806
G1 X108.831 Y125.01 E5.52406
G1 X108.793 Y124.872 E5.52946
G1 X108.645 Y124.194 E5.55564
G1 X108.621 Y124.042 E5.56144
G1 X108.548 Y123.349 E5.58772
G1 X108.54 Y123.239 E5.59188
G1 X108.531 Y122.9 E5.60467
G1 X108.531 Y122.827 E5.60743
G1 X108.54 Y122.481 E5.62048
G1 X108.548 Y122.369 E5.62472
G1 X108.621 Y121.681 E5.65081
G1 X108.645 Y121.53 E5.65658
G1 X108.793 Y120.852 E5.68275
G1 X108.831 Y120.714 E5.68815
G1 X109.046 Y120.059 E5.71415
G1 X109.101 Y119.917 E5.7199
G1 X109.387 Y119.287 E5.74599
G1 X109.455 Y119.156 E5.75156
G1 X109.806 Y118.559 E5.77768
G1 X109.891 Y118.432 E5.78344
G1 X110.294 Y117.892 E5.80886
G1 X110.135 Y117.897 E5.81486
G1 X109.444 Y117.878 E5.84093
G1 X109.296 Y117.867 E5.84653
G1 X108.609 Y117.775 E5.87267
G1 X108.462 Y117.747 E5.87831
G1 X107.792 Y117.583 E5.90433
G1 X107.651 Y117.54 E5.90989
G1 X106.998 Y117.305 E5.93606
G1 X106.861 Y117.248 E5.94166
G1 X106.238 Y116.946 E5.96777
G1 X106.104 Y116.872 E5.97355
G1 X105.518 Y116.504 E5.99965
G1 X105.399 Y116.419 E6.00516
G1 X104.855 Y115.992 E6.03125
G1 X104.743 Y115.895 E6.03683
G1 X104.247 Y115.413 E6.06292
G1 X104.144 Y115.301 E6.06866
G1 X103.704 Y114.769 E6.0947
G1 X103.616 Y114.65 E6.10028
G1 X103.233 Y114.072 E6.12643
G1 X103.158 Y113.944 E6.13203
G1 X102.839 Y113.33 E6.15813
G1 X102.777 Y113.194 E6.16376
G1 X102.525 Y112.549 E6.18988
G1 X102.479 Y112.41 E6.1954
G1 X102.297 Y111.745 E6.22141
G1 X102.265 Y111.597 E6.22712
G1 X102.155 Y110.912 E6.25329
G1 X102.139 Y110.765 E6.25886
G1 X102.102 Y110.076 E6.28489
G1 X102.102 Y109.926 E6.29055
G1 X102.139 Y109.235 E6.31664
G1 X102.155 Y109.088 E6.32222
G1 X102.265 Y108.403 E6.34839
G1 X102.297 Y108.255 E6.3541
G1 X102.479 Y107.59 E6.3801
G1 X102.525 Y107.451 E6.38563
G1 X102.777 Y106.806 E6.41174
G1 X102.839 Y106.67 E6.41738
G1 X103.158 Y106.056 E6.44348
G1 X103.233 Y105.928 E6.44908
G1 X103.616 Y105.35 E6.47523
G1 X103.704 Y105.231 E6.48081
G1 X104.144 Y104.699 E6.50685
G1 X104.247 Y104.587 E6.51259
G0 F7500 X104.526 Y104.874
G1 F1500 X105.022 Y104.392 E6.53867
G1 X105.102 Y104.322 E6.54268
G1 X105.646 Y103.895 E6.56877
G1 X105.731 Y103.835 E6.57269
G1 X106.317 Y103.467 E6.59879
G1 X106.413 Y103.414 E6.60293
G1 X107.036 Y103.112 E6.62904
G1 X107.133 Y103.071 E6.63301
G1 X107.786 Y102.836 E6.65919
G1 X107.887 Y102.806 E6.66316
G1 X108.557 Y102.642 E6.68918
G1 X108.662 Y102.622 E6.69321
G1 X109.349 Y102.53 E6.71935
G1 X109.455 Y102.521 E6.72336
G1 X110.146 Y102.502 E6.74944
G1 X110.254 Y102.505 E6.75351
G1 X110.943 Y102.561 E6.77958
G1 X111.048 Y102.575 E6.78358
G1 X111.73 Y102.704 E6.80976
G1 X111.831 Y102.729 E6.81368
G1 X112.493 Y102.927 E6.83974
G1 X112.595 Y102.964 E6.84384
G1 X113.23 Y103.232 E6.86983
G1 X113.326 Y103.278 E6.87385
G1 X113.934 Y103.615 E6.90007
G1 X114.024 Y103.672 E6.90408
G1 X114.588 Y104.068 E6.93008
G1 X114.672 Y104.134 E6.93411
G1 X115.193 Y104.591 E6.96024
G1 X115.269 Y104.665 E6.96425
G1 X115.739 Y105.174 E6.99038
G1 X115.806 Y105.254 E6.99431
G1 X116.219 Y105.808 E7.02037
G1 X116.279 Y105.899 E7.02449
G1 X116.63 Y106.495 E7.05057
G1 X116.679 Y106.589 E7.05457
G1 X116.965 Y107.219 E7.08067
G1 X117.004 Y107.32 E7.08475
G1 X117.22 Y107.977 E7.11084
G1 X117.247 Y108.077 E7.11474
G1 X117.394 Y108.753 E7.14083
G1 X117.411 Y108.859 E7.14488
G1 X117.485 Y109.553 E7.17121
G1 X117.491 Y109.633 E7.17423
G1 X117.5 Y110.025 E7.18902
G1 X117.491 Y110.371 E7.20208
G1 X117.485 Y110.452 E7.20514
G1 X117.411 Y111.14 E7.23124
G1 X117.394 Y111.245 E7.23525
G1 X117.247 Y111.923 E7.26142
G1 X117.22 Y112.023 E7.26532
G1 X117.005 Y112.678 E7.29133
G1 X116.966 Y112.779 E7.29541
G1 X116.68 Y113.409 E7.32151
G1 X116.631 Y113.503 E7.3255
G1 X116.28 Y114.099 E7.35159
G1 X116.22 Y114.189 E7.35567
G1 X115.806 Y114.745 E7.38182
G1 X115.739 Y114.826 E7.38578
G1 X115.269 Y115.335 E7.41191
G1 X115.102 Y115.489 E7.42048
G1 X115.383 Y115.436 E7.43127
G1 X115.489 Y115.422 E7.4353
G1 X116.177 Y115.367 E7.46133
G1 X116.283 Y115.364 E7.46533
G1 X116.974 Y115.382 E7.4914
G1 X117.081 Y115.391 E7.49545
G1 X117.769 Y115.483 E7.52163
G1 X117.874 Y115.503 E7.52566
G1 X118.544 Y115.667 E7.55168
G1 X118.646 Y115.698 E7.5557
G1 X119.299 Y115.934 E7.58189
G1 X119.396 Y115.974 E7.58585
G1 X120.016 Y116.275 E7.61184
G1 X120.11 Y116.328 E7.61591
G1 X120.699 Y116.697 E7.64213
G1 X120.785 Y116.757 E7.64608
G1 X121.329 Y117.184 E7.67216
G1 X121.409 Y117.254 E7.67617
G1 X121.904 Y117.735 E7.70221
G1 X121.978 Y117.815 E7.70632
G1 X122.418 Y118.347 E7.73236
G1 X122.48 Y118.431 E7.73629
G1 X122.863 Y119.008 E7.76241
G1 X122.917 Y119.1 E7.76644
G1 X123.236 Y119.714 E7.79253
G1 X123.28 Y119.81 E7.79652
G1 X123.533 Y120.456 E7.82269
G1 X123.567 Y120.557 E7.8267
G1 X123.749 Y121.223 E7.85275
G1 X123.771 Y121.328 E7.85679
G1 X123.881 Y122.011 E7.88288
G1 X123.893 Y122.117 E7.88691
G1 X123.93 Y122.808 E7.91301
G1 X123.93 Y122.914 E7.91701
G1 X123.893 Y123.605 E7.94311
