; This file has been post-processed by C:\Users\melvi\git-repos\PrusaSlicer-FlashForge\flashforge_post_process.py
; Original File Location: C:\Users\melvi\AppData\Local\Temp\.27480.gcode.pp


; generated by PrusaSlicer 2.4.0+win64 on 2022-01-20 at 19:54:38 UTC

; 

; external perimeters extrusion width = 0.61mm
; perimeters extrusion width = 0.65mm
; infill extrusion width = 0.70mm
; solid infill extrusion width = 0.65mm
; top infill extrusion width = 0.60mm
; support material extrusion width = 0.60mm
; first layer extrusion width = 0.65mm

M107
;TYPE:Custom
; **** Start of Start GCode: FlashForge Creator 3 ****
M118 X150.00 Y125.00 Z200.00 T0 T1
; todo: need to post process Active extruders in m118

G90 ; absolute positioning
M108 T0 ; tool change
G1 X187 Y0.000 F10800 ; Move initial extruder over anti-ooze plate (9-point Bed Levelling sometimes leaves it off plate)

; Set Filament Z-Offset
G1 Z0.000 F720 ;
G92 Z-0.06 ; Value substituted by FFPP script (FFPP-filament_extra_z_offset)(negative is printing higher in air)

M140 S85 T0 ; set bed temperature
M104 S250 T0 ; set right extruder temp
M104 S215 T1 ; set left extruder temp

M7 T0 ; wait for platform
M6 T0 ; wait for temp
M6 T1 ; wait for temp

M106 ; Extruder/Heat Break fan on
M651 S255 ; chassis fan on (after heating reached to speed up heating)

; Purge Filament (gets rid of any curling filament too)
G1 X172 F10800 ; Move initial extruder off anti-ooze plate
G92 E0 ; reset extrusion distance 
G1 F150 E20 ; feed 20mm of feed stock 
G92 E0 ; reset extrusion distance


; M652 ; chassis fan off 
; M109 T1/2 only if dupe or mirror

;layer_count: 42 ; Value substituted by FFPP script (FFPP-calculated-total_layer_count)
; **** End of Start GCode: FlashForge Creator 3 ****
G21 ; set units to millimeters
G90 ; use absolute coordinates
M82 ; use absolute distances for extrusion
G92 E0
; **** Start of Tool Change GCode: FlashForge Creator 3 ****
M108 T0
; **** End of Tool Change GCode: FlashForge Creator 3 ****
G92 E0
; **** Start of Filament-Specific Start GCode: Filaments.ca PETG Filament - Transparent (Hardened 0.6mm) ****
; FFPP-filament_extra_z_offset: 0.06 ; Value parsed by FFPP script
; **** End of Filament-Specific Start GCode: EconoFil PETG ****
M107
;LAYER_CHANGE
;Z:0.2
;HEIGHT:0.2
; **** Start of Before Layer Change GCode: FlashForge Creator 3 ****
; FFPP-layer_z_height: 0.2 ; Value parsed by FFPP script
;layer:0.200 ; Value substituted by FFPP script (FFPP-calculated-next_layer_height)
; **** End of Before Layer Change GCode: FlashForge Creator 3 ****
G1 Z.2 F720
; **** Start of After Layer Change GCode: FlashForge Creator 3 ****
; **** End of After Layer Change GCode: FlashForge Creator 3 ****
G1 E-3 F1800
G92 E0
G1 X0 Y-8.724 F10800
G1 E3 F1800
M204 S800
;TYPE:Skirt/Brim
;WIDTH:0.65
G1 F1200
G1 X21.918 Y-8.724 E4.10638
G1 X43.441 Y-8.224 E5.19316
G1 X44.973 Y-7.794 E5.27348
G1 X46.112 Y-6.683 E5.35379
G1 X46.581 Y-5.011 E5.44146
G1 X46.581 Y5.011 E5.94732
G1 X46.187 Y6.552 E6.02764
G1 X45.102 Y7.716 E6.10795
G1 X43.441 Y8.224 E6.19562
G1 X21.843 Y8.725 E7.28617
G1 X-44.857 Y8.725 E10.65312
G1 X-46.398 Y8.331 E10.73343
G1 X-47.13 Y7.783 E10.77955
G1 X-48.697 Y6.216 E10.89141
G1 X-49.508 Y4.848 E10.97172
G1 X-49.638 Y3.944 E11.01784
G1 X-49.638 Y-3.944 E11.41598
G1 X-49.244 Y-5.485 E11.49629
G1 X-47.13 Y-7.783 E11.65394
G1 X-45.761 Y-8.595 E11.73425
G1 X-44.857 Y-8.725 E11.78037
G1 X-.09 Y-8.724 E14.04016
M204 S1000
G1 X-.09 Y-8.117 F10800
M204 S800
G1 F1200
G1 X21.904 Y-8.117 E15.15037
G1 X43.427 Y-7.617 E16.23715
G1 X44.793 Y-7.193 E16.30935
G1 X45.73 Y-6.112 E16.38155
G1 X45.974 Y-5.011 E16.43849
G1 X45.974 Y5.011 E16.94435
G1 X45.582 Y6.386 E17.01655
G1 X44.523 Y7.347 E17.08875
G1 X43.427 Y7.617 E17.14568
G1 X21.904 Y8.117 E18.23246
G1 X-44.857 Y8.118 E21.60247
G1 X-46.7 Y7.354 E21.70319
G1 X-48.267 Y5.787 E21.81506
G1 X-49.031 Y3.944 E21.91578
G1 X-49.031 Y-3.944 E22.31392
G1 X-48.267 Y-5.787 E22.41465
G1 X-46.7 Y-7.354 E22.52651
G1 X-44.857 Y-8.118 E22.62723
G1 X-.18 Y-8.117 E24.88248
M204 S1000
; printing object shaft.STL id:0 copy 0
;WIPE_START
G1 F8640
G1 X14.22 Y-8.117 E22.03248
;WIPE_END
G1 E21.88248 F1800
G92 E0
G1 X22.343 Y-5.011 F10800
G1 E3 F1800
M204 S800
;TYPE:Support material
G1 F1200
G1 X43.367 Y-5.011 E4.06125
G1 X43.367 Y5.011 E4.56711
G1 X22.343 Y5.011 E5.62836
G1 X21.843 Y5.511 E5.66405
G1 X-44.857 Y5.511 E9.031
G1 X-46.424 Y3.944 E9.14286
G1 X-46.424 Y-3.944 E9.541
G1 X-44.857 Y-5.511 E9.65287
G1 X21.843 Y-5.511 E13.01981
G1 X22.279 Y-5.075 E13.05091
M204 S1000
;WIPE_START
G1 F8640
G1 X21.843 Y-5.511 E12.92898
G1 X8.059 Y-5.511 E10.20091
;WIPE_END
G1 E10.05091 F1800
G92 E0
G1 X-45.878 Y3.076 F10800
G1 E3 F1800
M204 S800
G1 F1200
G1 X-45.878 Y3.717 E3.03235
G1 X-44.631 Y4.964 E3.12136
G1 X-43.686 Y4.964 E3.16904
G1 X-45.878 Y2.773 E3.32547
G1 X-45.878 Y1.819 E3.37362
G1 X-42.732 Y4.964 E3.59815
G1 X-41.778 Y4.964 E3.64631
G1 X-45.878 Y.865 E3.93894
G1 X-45.878 Y-.089 E3.98709
G1 X-40.824 Y4.964 E4.34782
G1 X-39.87 Y4.964 E4.39597
G1 X-45.878 Y-1.043 E4.8248
G1 X-45.878 Y-1.997 E4.87296
G1 X-38.917 Y4.964 E5.36989
G1 X-37.963 Y4.964 E5.41804
G1 X-45.878 Y-2.951 E5.98307
G1 X-45.784 Y-3.811 E6.02675
G1 X-37.009 Y4.964 E6.65319
G1 X-36.055 Y4.964 E6.70135
G1 X-45.307 Y-4.288 E7.36184
G1 X-44.83 Y-4.765 E7.39589
G1 X-35.101 Y4.964 E8.09043
G1 X-34.147 Y4.964 E8.13858
G1 X-44.075 Y-4.964 E8.84736
G1 X-43.121 Y-4.964 E8.89551
G1 X-33.193 Y4.964 E9.60429
G1 X-32.239 Y4.964 E9.65244
G1 X-42.168 Y-4.964 E10.36121
G1 X-41.214 Y-4.964 E10.40937
G1 X-31.285 Y4.964 E11.11814
G1 X-30.331 Y4.964 E11.16629
G1 X-40.26 Y-4.964 E11.87507
G1 X-39.306 Y-4.964 E11.92322
G1 X-29.377 Y4.964 E12.632
G1 X-28.423 Y4.964 E12.68015
G1 X-38.352 Y-4.964 E13.38892
G1 X-37.398 Y-4.964 E13.43708
G1 X-27.469 Y4.964 E14.14585
G1 X-26.515 Y4.964 E14.194
G1 X-36.444 Y-4.964 E14.90278
G1 X-35.49 Y-4.964 E14.95093
G1 X-25.562 Y4.964 E15.65971
G1 X-24.608 Y4.964 E15.70786
G1 X-34.536 Y-4.964 E16.41663
G1 X-33.582 Y-4.964 E16.46479
G1 X-23.654 Y4.964 E17.17356
G1 X-22.7 Y4.964 E17.22171
G1 X-32.628 Y-4.964 E17.93049
G1 X-31.674 Y-4.964 E17.97864
G1 X-21.746 Y4.964 E18.68742
G1 X-20.792 Y4.964 E18.73557
G1 X-30.72 Y-4.964 E19.44434
G1 X-29.766 Y-4.964 E19.4925
G1 X-19.838 Y4.964 E20.20127
G1 X-18.884 Y4.964 E20.24942
G1 X-28.812 Y-4.964 E20.9582
G1 X-27.859 Y-4.964 E21.00635
G1 X-17.93 Y4.964 E21.71513
G1 X-16.976 Y4.964 E21.76328
G1 X-26.905 Y-4.964 E22.47205
G1 X-25.951 Y-4.964 E22.52021
G1 X-16.022 Y4.964 E23.22898
G1 X-15.068 Y4.964 E23.27713
G1 X-24.997 Y-4.964 E23.98591
G1 X-24.043 Y-4.964 E24.03406
G1 X-14.114 Y4.964 E24.74283
G1 X-13.16 Y4.964 E24.79099
G1 X-23.089 Y-4.964 E25.49976
G1 X-22.135 Y-4.964 E25.54792
G1 X-12.207 Y4.964 E26.25669
G1 X-11.253 Y4.964 E26.30484
G1 X-21.181 Y-4.964 E27.01362
G1 X-20.227 Y-4.964 E27.06177
G1 X-10.299 Y4.964 E27.77054
G1 X-9.345 Y4.964 E27.8187
G1 X-19.273 Y-4.964 E28.52747
G1 X-18.319 Y-4.964 E28.57563
G1 X-8.391 Y4.964 E29.2844
G1 X-7.437 Y4.964 E29.33255
G1 X-17.365 Y-4.964 E30.04133
G1 X-16.411 Y-4.964 E30.08948
G1 X-6.483 Y4.964 E30.79825
G1 X-5.529 Y4.964 E30.84641
G1 X-15.457 Y-4.964 E31.55518
G1 X-14.504 Y-4.964 E31.60333
G1 X-4.575 Y4.964 E32.31211
G1 X-3.621 Y4.964 E32.36026
G1 X-13.55 Y-4.964 E33.06904
G1 X-12.596 Y-4.964 E33.11719
G1 X-2.667 Y4.964 E33.82596
G1 X-1.713 Y4.964 E33.87412
G1 X-11.642 Y-4.964 E34.58289
G1 X-10.688 Y-4.964 E34.63104
G1 X-.759 Y4.964 E35.33982
G1 X.195 Y4.964 E35.38797
G1 X-9.734 Y-4.964 E36.09675
G1 X-8.78 Y-4.964 E36.1449
G1 X1.149 Y4.964 E36.85367
G1 X2.102 Y4.964 E36.90183
G1 X-7.826 Y-4.964 E37.6106
G1 X-6.872 Y-4.964 E37.65875
G1 X3.056 Y4.964 E38.36753
G1 X4.01 Y4.964 E38.41568
G1 X-5.918 Y-4.964 E39.12446
G1 X-4.964 Y-4.964 E39.17261
G1 X4.964 Y4.964 E39.88138
G1 X5.918 Y4.964 E39.92954
G1 X-4.01 Y-4.964 E40.63831
G1 X-3.056 Y-4.964 E40.68646
G1 X6.872 Y4.964 E41.39524
G1 X7.826 Y4.964 E41.44339
G1 X-2.102 Y-4.964 E42.15217
G1 X-1.149 Y-4.964 E42.20032
G1 X8.78 Y4.964 E42.90909
G1 X9.734 Y4.964 E42.95725
G1 X-.195 Y-4.964 E43.66602
G1 X.759 Y-4.964 E43.71417
G1 X10.688 Y4.964 E44.42295
G1 X11.642 Y4.964 E44.4711
G1 X1.713 Y-4.964 E45.17987
G1 X2.667 Y-4.964 E45.22803
G1 X12.596 Y4.964 E45.9368
G1 X13.55 Y4.964 E45.98496
G1 X3.621 Y-4.964 E46.69373
G1 X4.575 Y-4.964 E46.74188
G1 X14.504 Y4.964 E47.45066
G1 X15.457 Y4.964 E47.49881
G1 X5.529 Y-4.964 E48.20758
G1 X6.483 Y-4.964 E48.25574
G1 X16.411 Y4.964 E48.96451
G1 X17.365 Y4.964 E49.01267
G1 X7.437 Y-4.964 E49.72144
G1 X8.391 Y-4.964 E49.76959
G1 X18.319 Y4.964 E50.47837
G1 X19.273 Y4.964 E50.52652
G1 X9.345 Y-4.964 E51.23529
G1 X10.299 Y-4.964 E51.28345
G1 X20.227 Y4.964 E51.99222
G1 X21.181 Y4.964 E52.04037
G1 X11.253 Y-4.964 E52.74915
G1 X12.207 Y-4.964 E52.7973
G1 X21.876 Y4.705 E53.48758
G1 X22.117 Y4.464 E53.50479
G1 X22.589 Y4.464 E53.52861
G1 X13.16 Y-4.964 E54.20169
G1 X14.114 Y-4.964 E54.24985
G1 X23.543 Y4.464 E54.92293
G1 X24.497 Y4.464 E54.97108
G1 X15.068 Y-4.964 E55.64416
G1 X16.022 Y-4.964 E55.69231
G1 X25.451 Y4.464 E56.36539
G1 X26.405 Y4.464 E56.41355
G1 X16.976 Y-4.964 E57.08663
G1 X17.93 Y-4.964 E57.13478
G1 X27.359 Y4.464 E57.80786
G1 X28.313 Y4.464 E57.85601
G1 X18.884 Y-4.964 E58.52909
G1 X19.838 Y-4.964 E58.57725
G1 X29.266 Y4.464 E59.25033
G1 X30.22 Y4.464 E59.29848
G1 X20.792 Y-4.964 E59.97156
G1 X21.617 Y-4.964 E60.01321
G1 X31.174 Y4.464 E60.6909
G1 X32.128 Y4.464 E60.73906
G1 X23.2 Y-4.464 E61.37644
G1 X24.154 Y-4.464 E61.4246
G1 X33.082 Y4.464 E62.06198
G1 X34.036 Y4.464 E62.11014
G1 X25.108 Y-4.464 E62.74752
G1 X26.062 Y-4.464 E62.79568
G1 X34.99 Y4.464 E63.43306
G1 X35.944 Y4.464 E63.48122
G1 X27.015 Y-4.464 E64.1186
G1 X27.969 Y-4.464 E64.16675
G1 X36.898 Y4.464 E64.80414
G1 X37.852 Y4.464 E64.85229
G1 X28.923 Y-4.464 E65.48968
G1 X29.877 Y-4.464 E65.53783
G1 X38.806 Y4.464 E66.17522
G1 X39.76 Y4.464 E66.22337
G1 X30.831 Y-4.464 E66.86076
G1 X31.785 Y-4.464 E66.90891
G1 X40.714 Y4.464 E67.5463
G1 X41.668 Y4.464 E67.59445
G1 X32.739 Y-4.464 E68.23184
G1 X33.693 Y-4.464 E68.27999
G1 X42.621 Y4.464 E68.91738
G1 X42.82 Y4.464 E68.92742
G1 X42.82 Y3.709 E68.96553
G1 X34.647 Y-4.464 E69.54902
G1 X35.601 Y-4.464 E69.59718
G1 X42.82 Y2.755 E70.11257
G1 X42.82 Y1.801 E70.16072
G1 X36.555 Y-4.464 E70.60802
G1 X37.509 Y-4.464 E70.65617
G1 X42.82 Y.848 E71.03537
G1 X42.82 Y-.106 E71.08352
G1 X38.463 Y-4.464 E71.39462
G1 X39.417 Y-4.464 E71.44277
G1 X42.82 Y-1.06 E71.68577
G1 X42.82 Y-2.014 E71.73392
G1 X40.37 Y-4.464 E71.90882
G1 X41.324 Y-4.464 E71.95697
G1 X42.82 Y-2.968 E72.06377
G1 X42.82 Y-3.922 E72.11192
G1 X42.278 Y-4.464 E72.15062
G1 X42.82 Y-4.464 E72.17798
G1 X42.82 Y-4.226 E72.19002
M204 S1000
; stop printing object shaft.STL id:0 copy 0
;LAYER_CHANGE
;Z:0.65
;HEIGHT:0.45
; **** Start of Before Layer Change GCode: FlashForge Creator 3 ****
; FFPP-layer_z_height: 0.65 ; Value parsed by FFPP script
;layer:0.450 ; Value substituted by FFPP script (FFPP-calculated-next_layer_height)
; **** End of Before Layer Change GCode: FlashForge Creator 3 ****
G1 Z.65 F720
; **** Start of After Layer Change GCode: FlashForge Creator 3 ****
; **** End of After Layer Change GCode: FlashForge Creator 3 ****
M104 S245 T0 ; set temperature
M140 S90 ; set bed temperature
G1 E69.19002 F1800
G92 E0
G1 X46.581 Y-4.226 F10800
G1 E3 F1800
;TYPE:Skirt/Brim
G1 F2400
G1 X46.581 Y5.011 E3.95633
G1 X46.187 Y6.552 E4.12106
G1 X45.102 Y7.716 E4.2858
G1 X43.441 Y8.224 E4.46563
G1 X21.843 Y8.725 E6.70252
G1 X-44.857 Y8.725 E13.60865
G1 X-46.398 Y8.331 E13.77339
G1 X-47.13 Y7.783 E13.86798
G1 X-48.697 Y6.216 E14.09743
G1 X-49.508 Y4.848 E14.26216
G1 X-49.638 Y3.944 E14.35675
G1 X-49.638 Y-3.944 E15.1734
G1 X-49.244 Y-5.485 E15.33814
G1 X-47.13 Y-7.783 E15.6615
G1 X-45.761 Y-8.595 E15.82623
G1 X-44.857 Y-8.725 E15.92082
G1 X21.918 Y-8.724 E22.83469
G1 X43.441 Y-8.224 E25.06384
G1 X44.973 Y-7.794 E25.22858
G1 X46.112 Y-6.683 E25.39331
G1 X46.581 Y-5.011 E25.57314
G1 X46.581 Y-4.316 E25.64509
; printing object shaft.STL id:0 copy 0
;WIPE_START
G1 F8640
G1 X46.581 Y5.011 E23.79926
G1 X46.187 Y6.552 E23.48437
G1 X45.102 Y7.716 E23.16948
G1 X43.441 Y8.224 E22.82573
G1 X43.287 Y8.228 E22.79509
;WIPE_END
G1 E22.64509 F1800
G92 E0
G1 X40.913 Y2.557 F10800
G1 E3 F1800
;TYPE:Support material
;WIDTH:0.6
G1 F2400
G1 X21.014 Y2.557 E4.87425
G1 X21.014 Y0 E5.11509
G1 X40.913 Y0 E6.98934
G1 X40.913 Y-2.557 E7.23018
G1 X21.014 Y-2.557 E9.10443
; stop printing object shaft.STL id:0 copy 0
;WIPE_START
G1 F8640
G1 X40.913 Y-2.557 E5.16598
G1 X40.913 Y0 E4.6599
G1 X21.014 Y0 E.72145
G1 X21.014 Y2.557 E.21536
G1 X24.101 Y2.557 E-.39557
;WIPE_END
G1 E-.89557 F1800
G92 E0
; **** Start of Filament-Specific End GCode: Filaments.ca PETG Filament - Transparent (Hardened 0.6mm) ****
; **** End of Filament-Specific End GCode: EconoFil PETG ****
G1 X24.381 Y11.667 F10800
; **** Start of Tool Change GCode: FlashForge Creator 3 ****
M108 T1
; **** End of Tool Change GCode: FlashForge Creator 3 ****
G92 E0
; **** Start of Filament-Specific Start GCode: FormFutura BVOH - Hardened 0.6mm ****
; **** End of Filament-Specific Start GCode: FormFutura BVOH - Hardened 0.6mm ****
G1 E-2 F1800
G92 E0
G1 X24.228 Y8.063 F10800
G1 E2 F1800
;TYPE:Skirt/Brim
;WIDTH:0.65
G1 F2400
G1 X-44.857 Y8.118 E9.1531
G1 X-46.7 Y7.354 E9.3597
G1 X-48.267 Y5.787 E9.58915
G1 X-49.031 Y3.944 E9.79575
G1 X-49.031 Y-3.944 E10.61241
G1 X-48.267 Y-5.787 E10.81901
G1 X-46.7 Y-7.354 E11.04846
G1 X-44.857 Y-8.118 E11.25506
G1 X21.904 Y-8.117 E18.16746
G1 X43.427 Y-7.617 E20.39662
G1 X44.793 Y-7.193 E20.54471
G1 X45.73 Y-6.112 E20.6928
G1 X45.974 Y-5.011 E20.80959
G1 X45.974 Y5.011 E21.84719
G1 X45.582 Y6.386 E21.99528
G1 X44.523 Y7.347 E22.14337
G1 X43.427 Y7.617 E22.26016
G1 X24.318 Y8.061 E24.23924
; printing object shaft.STL id:0 copy 0
;WIPE_START
G1 F8640
G1 X14.718 Y8.069 E22.33924
;WIPE_END
G1 E22.23924 F1800
G92 E0
G1 X20.369 Y-2.557 F10800
G1 E2 F1800
;TYPE:Support material interface
;WIDTH:0.6
G1 F1200
G1 X20.369 Y2.557 E2.48168
G1 X19.712 Y2.557 E2.54357
G1 X19.712 Y-2.557 E3.02525
G1 X19.055 Y-2.557 E3.08714
G1 X19.055 Y2.557 E3.56883
G1 X18.398 Y2.557 E3.63071
G1 X18.398 Y-2.557 E4.1124
G1 X17.741 Y-2.557 E4.17428
G1 X17.741 Y2.557 E4.65597
G1 X17.084 Y2.557 E4.71785
G1 X17.084 Y-2.557 E5.19954
G1 X16.427 Y-2.557 E5.26143
G1 X16.427 Y2.557 E5.74311
G1 X15.77 Y2.557 E5.805
G1 X15.77 Y-2.557 E6.28668
G1 X15.113 Y-2.557 E6.34857
G1 X15.113 Y2.557 E6.83025
G1 X14.456 Y2.557 E6.89214
G1 X14.456 Y-2.557 E7.37382
G1 X13.799 Y-2.557 E7.43571
G1 X13.799 Y2.557 E7.91739
G1 X13.142 Y2.557 E7.97928
G1 X13.142 Y-2.557 E8.46096
G1 X12.485 Y-2.557 E8.52285
G1 X12.485 Y2.557 E9.00453
G1 X11.827 Y2.557 E9.06642
G1 X11.827 Y-2.557 E9.54811
G1 X11.17 Y-2.557 E9.60999
G1 X11.17 Y2.557 E10.09168
G1 X10.513 Y2.557 E10.15356
G1 X10.513 Y-2.557 E10.63525
G1 X9.856 Y-2.557 E10.69714
G1 X9.856 Y2.557 E11.17882
G1 X9.199 Y2.557 E11.24071
G1 X9.199 Y-2.557 E11.72239
G1 X8.542 Y-2.557 E11.78428
G1 X8.542 Y2.557 E12.26596
G1 X7.885 Y2.557 E12.32785
G1 X7.885 Y-2.557 E12.80953
G1 X7.228 Y-2.557 E12.87142
G1 X7.228 Y2.557 E13.3531
G1 X6.571 Y2.557 E13.41499
G1 X6.571 Y-2.557 E13.89667
G1 X5.914 Y-2.557 E13.95856
G1 X5.914 Y2.557 E14.44024
G1 X5.257 Y2.557 E14.50213
G1 X5.257 Y-2.557 E14.98382
G1 X4.6 Y-2.557 E15.0457
G1 X4.6 Y2.557 E15.52739
G1 X3.942 Y2.557 E15.58927
G1 X3.942 Y-2.557 E16.07096
G1 X3.285 Y-2.557 E16.13284
G1 X3.285 Y2.557 E16.61453
G1 X2.628 Y2.557 E16.67642
G1 X2.628 Y-2.557 E17.1581
G1 X1.971 Y-2.557 E17.21999
G1 X1.971 Y2.557 E17.70167
G1 X1.314 Y2.557 E17.76356
G1 X1.314 Y-2.557 E18.24524
G1 X.657 Y-2.557 E18.30713
G1 X.657 Y2.557 E18.78881
G1 X0 Y2.557 E18.8507
G1 X0 Y-2.557 E19.33238
G1 X-.657 Y-2.557 E19.39427
G1 X-.657 Y2.557 E19.87595
G1 X-1.314 Y2.557 E19.93784
G1 X-1.314 Y-2.557 E20.41952
G1 X-1.971 Y-2.557 E20.48141
G1 X-1.971 Y2.557 E20.9631
G1 X-2.628 Y2.557 E21.02498
G1 X-2.628 Y-2.557 E21.50667
G1 X-3.285 Y-2.557 E21.56855
G1 X-3.285 Y2.557 E22.05024
G1 X-3.942 Y2.557 E22.11212
G1 X-3.942 Y-2.557 E22.59381
G1 X-4.6 Y-2.557 E22.6557
G1 X-4.6 Y2.557 E23.13738
