; This file has been post-processed by C:\Users\melvi\git-repos\PrusaSlicer-FlashForge\flashforge_post_process.py
; Original File Location: C:\Users\melvi\AppData\Local\Temp\.49276.gcode.pp


; generated by PrusaSlicer 2.4.0+win64 on 2022-01-25 at 03:30:24 UTC

; 

; external perimeters extrusion width = 0.61mm
; perimeters extrusion width = 0.65mm
; infill extrusion width = 0.70mm
; solid infill extrusion width = 0.65mm
; top infill extrusion width = 0.60mm
; first layer extrusion width = 0.65mm

; external perimeters extrusion width = 0.61mm
; perimeters extrusion width = 0.65mm
; infill extrusion width = 0.70mm
; solid infill extrusion width = 0.65mm
; top infill extrusion width = 0.60mm
; first layer extrusion width = 0.65mm

M107
;TYPE:Custom
; **** Start of Start GCode: FlashForge Creator 3 ****
M118 X150.00 Y125.00 Z200.00 T0 T1
; todo: need to post process Active extruders in m118

G90 ; absolute positioning
M108 T0 ; tool change
G1 X187 Y0.000 F10800 ; Move initial extruder over anti-ooze plate (9-point Bed Levelling sometimes leaves it off plate)

; Set Filament Z-Offset
G1 Z0.000 F720 ;
G92 Z-0.06 ; Value substituted by FFPP script (FFPP-filament_extra_z_offset)(negative is printing higher in air)

M140 S85 T0 ; set bed temperature
M104 S250 T0 ; set right extruder temp
M104 S0 T1 ; set left extruder temp

M7 T0 ; wait for platform
M6 T0 ; wait for temp
M6 T1 ; wait for temp

M106 ; Extruder/Heat Break fan on
M651 S255 ; chassis fan on (after heating reached to speed up heating)

; Purge Filament (gets rid of any curling filament too)
G1 X172 F10800 ; Move initial extruder off anti-ooze plate
G92 E0 ; reset extrusion distance 
G1 F150 E20 ; feed 20mm of feed stock 
G92 E0 ; reset extrusion distance


; M652 ; chassis fan off 
; M109 T1/2 only if dupe or mirror

;layer_count: 411 ; Value substituted by FFPP script (FFPP-calculated-total_layer_count)
; **** End of Start GCode: FlashForge Creator 3 ****
G21 ; set units to millimeters
G90 ; use absolute coordinates
M82 ; use absolute distances for extrusion
G92 E0
; **** Start of Filament-Specific Start GCode: Filaments.ca PETG - Transparent (Hardened 0.6mm) ****
; FFPP-filament_extra_z_offset: 0.06 ; Value parsed by FFPP script
; **** End of Filament-Specific Start GCode: EconoFil PETG ****
M107
;LAYER_CHANGE
;Z:0.2
;HEIGHT:0.2
; **** Start of Before Layer Change GCode: FlashForge Creator 3 ****
; FFPP-layer_z_height: 0.2 ; Value parsed by FFPP script
;layer:0.200 ; Value substituted by FFPP script (FFPP-calculated-next_layer_height)
; **** End of Before Layer Change GCode: FlashForge Creator 3 ****
G1 Z.2 F720
; **** Start of After Layer Change GCode: FlashForge Creator 3 ****
; **** End of After Layer Change GCode: FlashForge Creator 3 ****
G1 E-3 F1800
G92 E0
G1 X-.002 Y-7.187 F10800
G1 E3 F1800
M204 S800
;TYPE:Skirt/Brim
;WIDTH:0.65
G1 F1200
G1 X8.7 Y-7.088 E3.43932
G1 X9.886 Y-6.782 E3.50117
G1 X10.998 Y-6.281 E3.56269
G1 X12.013 Y-5.596 E3.62451
G1 X12.894 Y-4.753 E3.68605
G1 X14.147 Y-2.738 E3.80585
G1 X14.516 Y-1.57 E3.86767
G1 X14.68 Y-.363 E3.92918
G1 X14.641 Y.827 E3.98928
G1 X14.397 Y2.028 E4.05114
G1 X13.968 Y3.139 E4.11125
G1 X13.345 Y4.186 E4.17276
G1 X12.574 Y5.093 E4.23285
G1 X11.635 Y5.881 E4.2947
G1 X10.608 Y6.483 E4.3548
G1 X9.225 Y6.979 E4.42895
G1 X7.737 Y7.185 E4.50478
G1 X-8.487 Y7.121 E5.32376
G1 X-10.18 Y6.671 E5.41221
G1 X-10.973 Y6.295 E5.45651
G1 X-12.413 Y5.248 E5.54638
G1 X-13.016 Y4.61 E5.59069
G1 X-13.983 Y3.108 E5.68087
G1 X-14.464 Y1.786 E5.75185
G1 X-14.679 Y.391 E5.82314
G1 X-14.617 Y-1.014 E5.89413
G1 X-14.282 Y-2.386 E5.96542
G1 X-13.687 Y-3.661 E6.03641
G1 X-12.852 Y-4.8 E6.10771
G1 X-11.816 Y-5.75 E6.17868
G1 X-10.608 Y-6.483 E6.24998
G1 X-9.226 Y-6.979 E6.3241
G1 X-7.765 Y-7.184 E6.39856
G1 X-.092 Y-7.187 E6.78589
M204 S1000
G1 X-.092 Y-6.58 F10800
M204 S800
G1 F1200
G1 X8.632 Y-6.484 E7.22629
G1 X9.708 Y-6.201 E7.28246
G1 X11.651 Y-5.108 E7.39497
G1 X13.118 Y-3.429 E7.50753
G1 X13.941 Y-1.358 E7.62006
G1 X14.078 Y-.241 E7.67682
G1 X13.781 Y1.968 E7.78938
G1 X12.764 Y3.952 E7.90191
G1 X11.997 Y4.806 E7.95981
G1 X10.135 Y6.031 E8.07234
G1 X8.913 Y6.429 E8.1372
G1 X7.661 Y6.58 E8.20089
G1 X-8.427 Y6.516 E9.013
G1 X-10.029 Y6.077 E9.09685
G1 X-10.781 Y5.706 E9.13917
G1 X-12.105 Y4.703 E9.22303
G1 X-12.658 Y4.088 E9.26476
G1 X-13.532 Y2.635 E9.35035
G1 X-13.928 Y1.414 E9.41519
G1 X-14.081 Y.127 E9.48061
G1 X-13.98 Y-1.154 E9.54545
G1 X-13.628 Y-2.402 E9.61088
G1 X-13.045 Y-3.546 E9.6757
G1 X-12.243 Y-4.564 E9.74115
G1 X-11.266 Y-5.398 E9.80597
G1 X-10.135 Y-6.032 E9.87141
G1 X-8.936 Y-6.424 E9.9351
G1 X-7.719 Y-6.578 E9.99704
G1 X-.182 Y-6.58 E10.37748
M204 S1000
; printing object shaft.STL id:1 copy 0
;WIPE_START
G1 F8640
G1 X8.632 Y-6.484 E8.63298
G1 X9.708 Y-6.201 E8.41275
G1 X11.651 Y-5.108 E7.9716
G1 X13.118 Y-3.429 E7.53028
G1 X13.123 Y-3.416 E7.52748
;WIPE_END
G1 E7.37748 F1800
G92 E0
G1 X6.344 Y2.067 F10800
G1 E3 F1800
M204 S800
;TYPE:Perimeter
G1 F1200
G1 X5.784 Y1.686 E3.03419
G1 X5.27 Y.901 E3.08157
G1 X5.094 Y-.021 E3.12895
G1 X5.286 Y-.94 E3.17634
G1 X5.814 Y-1.716 E3.22372
G1 X6.599 Y-2.23 E3.2711
G1 X7.521 Y-2.406 E3.31848
G1 X8.44 Y-2.214 E3.36586
G1 X9.216 Y-1.686 E3.41325
G1 X9.731 Y-.901 E3.46063
G1 X9.906 Y.021 E3.50801
G1 X9.714 Y.94 E3.55539
G1 X9.186 Y1.716 E3.60278
G1 X8.401 Y2.23 E3.65016
G1 X7.479 Y2.406 E3.69754
G1 X6.418 Y2.118 E3.75301
M204 S1000
G1 X6.886 Y2.902 F10800
M204 S800
G1 F1200
G1 X6.318 Y2.784 E3.7823
G1 X5.343 Y2.12 E3.84187
G1 X4.696 Y1.133 E3.90144
G1 X4.475 Y-.026 E3.96102
G1 X4.716 Y-1.182 E4.02059
G1 X5.38 Y-2.157 E4.08017
G1 X6.367 Y-2.804 E4.13974
G1 X7.526 Y-3.025 E4.19931
G1 X8.682 Y-2.784 E4.25888
G1 X9.657 Y-2.12 E4.31846
G1 X10.304 Y-1.133 E4.37803
G1 X10.525 Y.026 E4.4376
G1 X10.284 Y1.182 E4.49718
G1 X9.62 Y2.157 E4.55675
G1 X8.633 Y2.804 E4.61632
G1 X7.474 Y3.025 E4.6759
G1 X6.974 Y2.921 E4.70164
M204 S1000
G1 X7.468 Y3.643 F10800
M204 S800
;TYPE:External perimeter
G1 F1200
G1 X6.076 Y3.354 E4.77341
G1 X4.901 Y2.554 E4.84517
G1 X4.122 Y1.365 E4.91693
G1 X3.857 Y-.032 E4.9887
G1 X4.146 Y-1.424 E5.06046
G1 X4.946 Y-2.599 E5.13223
G1 X6.135 Y-3.378 E5.20399
G1 X7.532 Y-3.643 E5.27576
G1 X8.924 Y-3.354 E5.34752
G1 X10.099 Y-2.554 E5.41929
G1 X10.878 Y-1.365 E5.49105
G1 X11.143 Y.032 E5.56282
G1 X10.854 Y1.424 E5.63458
G1 X10.054 Y2.599 E5.70635
G1 X8.865 Y3.378 E5.77811
G1 X7.557 Y3.627 E5.84533
M204 S1000
G1 X7.173 Y3.121 F10800
;WIPE_START
G1 F8640
G1 X6.076 Y3.354 E5.54742
G1 X4.901 Y2.554 E5.26605
G1 X4.122 Y1.365 E4.98468
G1 X3.857 Y-.032 E4.7033
G1 X4.146 Y-1.424 E4.42193
G1 X4.946 Y-2.599 E4.14055
G1 X6.135 Y-3.378 E3.85919
G1 X7.532 Y-3.643 E3.57781
G1 X8.924 Y-3.354 E3.29644
G1 X10.099 Y-2.554 E3.01506
G1 X10.153 Y-2.47 E2.99533
;WIPE_END
G1 E2.84533 F1800
G92 E0
G1 X8.137 Y-2.091 F10800
G1 E3 F1800
M204 S800
;TYPE:Solid infill
;WIDTH:0.686025
G1 F1200
G1 X9.3 Y-.727 E3.09586
G1 X9.423 Y.104 E3.14082
G1 X7.4 Y-1.919 E3.29384
G1 X6.674 Y-1.735 E3.33388
G1 X9.239 Y.829 E3.52784
G1 X8.87 Y1.371 E3.56285
G1 X6.129 Y-1.37 E3.77013
G1 X5.761 Y-.829 E3.80514
G1 X8.326 Y1.735 E3.9991
G1 X7.6 Y1.919 E4.03913
G1 X5.577 Y-.104 E4.19215
G1 X5.7 Y.727 E4.2371
G1 X6.863 Y2.091 E4.33296
M204 S1000
; stop printing object shaft.STL id:1 copy 0
; printing object shaft.STL id:0 copy 0
;WIPE_START
G1 F8640
G1 X5.7 Y.727 E3.97818
G1 X5.577 Y-.104 E3.81181
G1 X7.6 Y1.919 E3.24547
G1 X8.326 Y1.735 E3.0973
G1 X5.761 Y-.829 E2.37941
G1 X6.129 Y-1.37 E2.24986
G1 X8.869 Y1.369 E1.48296
;WIPE_END
G1 E1.33296 F1800
G92 E0
G1 X-8.656 Y2.067 F10800
G1 E3 F1800
M204 S800
;TYPE:Perimeter
;WIDTH:0.65
G1 F1200
G1 X-9.216 Y1.686 E3.03419
G1 X-9.731 Y.901 E3.08157
G1 X-9.906 Y-.021 E3.12895
G1 X-9.714 Y-.94 E3.17634
G1 X-9.186 Y-1.716 E3.22372
G1 X-8.401 Y-2.23 E3.2711
G1 X-7.479 Y-2.406 E3.31848
G1 X-6.56 Y-2.214 E3.36586
G1 X-5.784 Y-1.686 E3.41325
G1 X-5.27 Y-.901 E3.46063
G1 X-5.094 Y.021 E3.50801
G1 X-5.286 Y.94 E3.55539
G1 X-5.814 Y1.716 E3.60278
G1 X-6.599 Y2.23 E3.65016
G1 X-7.521 Y2.406 E3.69754
G1 X-8.582 Y2.118 E3.75301
M204 S1000
G1 X-8.114 Y2.902 F10800
M204 S800
G1 F1200
G1 X-8.682 Y2.784 E3.7823
G1 X-9.657 Y2.12 E3.84187
G1 X-10.304 Y1.133 E3.90144
G1 X-10.525 Y-.026 E3.96102
G1 X-10.284 Y-1.182 E4.02059
G1 X-9.62 Y-2.157 E4.08017
G1 X-8.633 Y-2.804 E4.13974
G1 X-7.474 Y-3.025 E4.19931
G1 X-6.318 Y-2.784 E4.25888
G1 X-5.343 Y-2.12 E4.31846
G1 X-4.696 Y-1.133 E4.37803
G1 X-4.475 Y.026 E4.4376
G1 X-4.716 Y1.182 E4.49718
G1 X-5.38 Y2.157 E4.55675
G1 X-6.367 Y2.804 E4.61632
G1 X-7.526 Y3.025 E4.6759
G1 X-8.026 Y2.921 E4.70164
M204 S1000
G1 X-7.532 Y3.643 F10800
M204 S800
;TYPE:External perimeter
G1 F1200
G1 X-8.924 Y3.354 E4.77341
G1 X-10.099 Y2.554 E4.84517
G1 X-10.878 Y1.365 E4.91693
G1 X-11.143 Y-.032 E4.9887
G1 X-10.854 Y-1.424 E5.06046
G1 X-10.054 Y-2.599 E5.13223
G1 X-8.865 Y-3.378 E5.20399
G1 X-7.468 Y-3.643 E5.27576
G1 X-6.076 Y-3.354 E5.34752
G1 X-4.901 Y-2.554 E5.41929
G1 X-4.122 Y-1.365 E5.49105
G1 X-3.857 Y.032 E5.56282
G1 X-4.146 Y1.424 E5.63458
G1 X-4.946 Y2.599 E5.70635
G1 X-6.135 Y3.378 E5.77811
G1 X-7.443 Y3.627 E5.84533
M204 S1000
G1 X-7.827 Y3.121 F10800
;WIPE_START
G1 F8640
G1 X-8.924 Y3.354 E5.54742
G1 X-10.099 Y2.554 E5.26605
G1 X-10.878 Y1.365 E4.98468
G1 X-11.143 Y-.032 E4.7033
G1 X-10.854 Y-1.424 E4.42193
G1 X-10.054 Y-2.599 E4.14055
G1 X-8.865 Y-3.378 E3.85919
G1 X-7.468 Y-3.643 E3.57781
G1 X-6.076 Y-3.354 E3.29644
G1 X-4.901 Y-2.554 E3.01506
G1 X-4.847 Y-2.47 E2.99533
;WIPE_END
G1 E2.84533 F1800
G92 E0
G1 X-6.863 Y-2.091 F10800
G1 E3 F1800
M204 S800
;TYPE:Solid infill
;WIDTH:0.686025
G1 F1200
G1 X-5.7 Y-.727 E3.09586
G1 X-5.577 Y.104 E3.14082
G1 X-7.6 Y-1.919 E3.29384
G1 X-8.326 Y-1.735 E3.33388
G1 X-5.761 Y.829 E3.52784
G1 X-6.13 Y1.371 E3.56285
G1 X-8.871 Y-1.37 E3.77013
G1 X-9.239 Y-.829 E3.80514
G1 X-6.674 Y1.735 E3.9991
G1 X-7.4 Y1.919 E4.03913
G1 X-9.423 Y-.104 E4.19215
G1 X-9.3 Y.727 E4.2371
G1 X-8.137 Y2.091 E4.33296
M204 S1000
; stop printing object shaft.STL id:0 copy 0
;LAYER_CHANGE
;Z:0.4
;HEIGHT:0.2
; **** Start of Before Layer Change GCode: FlashForge Creator 3 ****
; FFPP-layer_z_height: 0.4 ; Value parsed by FFPP script
;layer:0.200 ; Value substituted by FFPP script (FFPP-calculated-next_layer_height)
; **** End of Before Layer Change GCode: FlashForge Creator 3 ****
G1 Z.4 F720
; **** Start of After Layer Change GCode: FlashForge Creator 3 ****
; **** End of After Layer Change GCode: FlashForge Creator 3 ****
M104 S245 ; set temperature
M140 S90 ; set bed temperature
G1 E1.33296 F1800
G92 E0
G1 X-9.711 Y6.827 F10800
G1 E3 F1800
;TYPE:Skirt/Brim
;WIDTH:0.65
G1 F1362
G1 X-11.737 Y5.808 E3.11447
G1 X-13.016 Y4.61 E3.20292
G1 X-13.983 Y3.108 E3.2931
G1 X-14.464 Y1.786 E3.36408
G1 X-14.679 Y.391 E3.43537
G1 X-14.617 Y-1.014 E3.50636
G1 X-14.282 Y-2.386 E3.57765
G1 X-13.687 Y-3.661 E3.64865
G1 X-12.852 Y-4.8 E3.71994
G1 X-11.816 Y-5.75 E3.79091
G1 X-10.608 Y-6.483 E3.86222
G1 X-9.226 Y-6.979 E3.93633
G1 X-7.765 Y-7.184 E4.0108
G1 X8.7 Y-7.088 E4.84198
G1 X9.886 Y-6.782 E4.90382
G1 X10.998 Y-6.281 E4.96535
G1 X12.013 Y-5.596 E5.02717
G1 X12.894 Y-4.753 E5.0887
G1 X14.147 Y-2.738 E5.2085
G1 X14.516 Y-1.57 E5.27033
G1 X14.68 Y-.363 E5.33184
G1 X14.641 Y.827 E5.39194
G1 X14.397 Y2.028 E5.45379
G1 X13.968 Y3.139 E5.5139
G1 X13.345 Y4.186 E5.57541
G1 X12.574 Y5.093 E5.63551
G1 X11.635 Y5.881 E5.69736
G1 X10.608 Y6.483 E5.75746
G1 X9.225 Y6.979 E5.8316
G1 X7.737 Y7.185 E5.90744
G1 X-7.514 Y7.189 E6.67731
G1 X-9.626 Y6.855 E6.78524
G1 X-9.429 Y6.283 F10800
G1 F1362
G1 X-11.47 Y5.25 E6.90074
G1 X-12.658 Y4.088 E6.9846
G1 X-13.532 Y2.635 E7.07019
G1 X-13.928 Y1.414 E7.13503
G1 X-14.081 Y.127 E7.20045
G1 X-13.98 Y-1.154 E7.26529
G1 X-13.628 Y-2.402 E7.33072
G1 X-13.045 Y-3.546 E7.39554
G1 X-12.243 Y-4.564 E7.46099
G1 X-11.266 Y-5.398 E7.52581
G1 X-10.135 Y-6.032 E7.59125
G1 X-8.936 Y-6.424 E7.65494
G1 X-7.719 Y-6.578 E7.71688
G1 X8.632 Y-6.484 E8.54224
G1 X9.708 Y-6.201 E8.59841
G1 X11.651 Y-5.108 E8.71093
G1 X12.46 Y-4.327 E8.76772
G1 X13.62 Y-2.423 E8.88024
G1 X13.941 Y-1.358 E8.93642
G1 X14.024 Y.87 E9.04895
G1 X13.359 Y2.998 E9.1615
G1 X11.997 Y4.806 E9.27575
G1 X10.135 Y6.031 E9.38827
G1 X8.913 Y6.429 E9.45314
G1 X7.661 Y6.58 E9.51683
G1 X-7.511 Y6.582 E10.28269
G1 X-9.344 Y6.313 E10.37619
; printing object shaft.STL id:1 copy 0
;WIPE_START
G1 F8640
G1 X-11.47 Y5.25 E9.90567
G1 X-12.658 Y4.088 E9.57687
G1 X-13.532 Y2.635 E9.24129
G1 X-13.928 Y1.414 E8.98708
G1 X-14.081 Y.127 E8.73058
G1 X-13.98 Y-1.154 E8.47636
G1 X-13.628 Y-2.402 E8.21983
G1 X-13.045 Y-3.546 E7.96567
G1 X-12.243 Y-4.564 E7.70905
G1 X-11.54 Y-5.164 E7.52619
;WIPE_END
G1 E7.37619 F1800
G92 E0
G1 X6.341 Y2.114 F10800
G1 E3 F1800
M204 S800
;TYPE:Perimeter
G1 F1362
G1 X5.755 Y1.715 E3.0358
G1 X5.232 Y.916 E3.08399
G1 X5.054 Y-.021 E3.13217
G1 X5.248 Y-.956 E3.18035
G1 X5.785 Y-1.745 E3.22854
G1 X6.583 Y-2.268 E3.27673
G1 X7.521 Y-2.446 E3.32491
G1 X8.456 Y-2.252 E3.37309
G1 X9.245 Y-1.715 E3.42128
G1 X9.768 Y-.917 E3.46947
G1 X9.946 Y.021 E3.51765
G1 X9.752 Y.956 E3.56584
G1 X9.215 Y1.745 E3.61402
G1 X8.417 Y2.268 E3.66221
G1 X7.479 Y2.446 E3.71039
G1 X6.416 Y2.165 E3.76591
M204 S1000
G1 X6.886 Y2.943 F10800
M204 S800
G1 F1362
G1 X6.302 Y2.822 E3.796
G1 X5.314 Y2.149 E3.85638
G1 X4.658 Y1.148 E3.91675
G1 X4.435 Y-.027 E3.97713
G1 X4.678 Y-1.198 E4.0375
G1 X5.351 Y-2.186 E4.09788
G1 X6.352 Y-2.842 E4.15826
G1 X7.527 Y-3.065 E4.21863
G1 X8.698 Y-2.822 E4.27901
G1 X9.686 Y-2.149 E4.33938
G1 X10.342 Y-1.148 E4.39976
G1 X10.565 Y.027 E4.46014
G1 X10.322 Y1.198 E4.52052
G1 X9.649 Y2.186 E4.58089
G1 X8.648 Y2.842 E4.64127
G1 X7.473 Y3.065 E4.70165
G1 X6.974 Y2.961 E4.72739
M204 S1000
G1 X7.468 Y3.664 F10800
M204 S800
;TYPE:External perimeter
;WIDTH:0.61
G1 F1362
G1 X6.068 Y3.373 E4.7948
G1 X4.887 Y2.568 E4.86222
G1 X4.103 Y1.373 E4.92963
G1 X3.836 Y-.032 E4.99703
G1 X4.127 Y-1.432 E5.06445
G1 X4.932 Y-2.613 E5.13185
G1 X6.127 Y-3.397 E5.19927
G1 X7.532 Y-3.664 E5.26668
G1 X8.932 Y-3.373 E5.33409
G1 X10.113 Y-2.568 E5.4015
G1 X10.897 Y-1.373 E5.46892
G1 X11.164 Y.032 E5.53632
G1 X10.873 Y1.432 E5.60373
G1 X10.068 Y2.613 E5.67114
G1 X8.873 Y3.397 E5.73856
G1 X7.557 Y3.647 E5.80173
M204 S1000
G1 X7.173 Y3.142 F10800
;WIPE_START
G1 F8640
G1 X6.068 Y3.373 E5.50225
G1 X4.887 Y2.568 E5.21928
G1 X4.103 Y1.373 E4.93633
G1 X3.836 Y-.032 E4.6534
G1 X4.127 Y-1.432 E4.37045
G1 X4.932 Y-2.613 E4.08751
G1 X6.127 Y-3.397 E3.80455
G1 X7.532 Y-3.664 E3.52161
G1 X8.932 Y-3.373 E3.23866
G1 X10.113 Y-2.568 E2.95572
G1 X10.124 Y-2.551 E2.95173
;WIPE_END
G1 E2.80173 F1800
G92 E0
G1 X9.63 Y.648 F10800
G1 E3 F1800
;TYPE:Solid infill
;WIDTH:0.697674
G1 F1362
G1 X8.243 Y1.838 E3.09952
G1 X7.389 Y1.963 E3.14648
G1 X9.459 Y-.107 E3.30582
G1 X9.271 Y-.845 E3.34728
G1 X6.652 Y1.774 E3.54895
G1 X6.101 Y1.399 E3.58523
G1 X8.899 Y-1.399 E3.80071
G1 X8.348 Y-1.774 E3.83699
G1 X5.729 Y.845 E4.03865
G1 X5.541 Y.107 E4.08012
G1 X7.611 Y-1.963 E4.23945
G1 X6.757 Y-1.838 E4.2864
G1 X5.37 Y-.648 E4.38592
; stop printing object shaft.STL id:1 copy 0
; printing object shaft.STL id:0 copy 0
;WIPE_START
G1 F8640
G1 X6.757 Y-1.838 E4.02415
G1 X7.611 Y-1.963 E3.85347
G1 X5.541 Y.107 E3.27426
G1 X5.729 Y.845 E3.12351
G1 X8.348 Y-1.774 E2.3904
G1 X8.899 Y-1.399 E2.2585
G1 X6.318 Y1.182 E1.53592
;WIPE_END
G1 E1.38592 F1800
G92 E0
G1 X-8.659 Y2.114 F10800
G1 E3 F1800
M204 S800
;TYPE:Perimeter
;WIDTH:0.65
G1 F1362
G1 X-9.245 Y1.715 E3.0358
G1 X-9.768 Y.916 E3.08399
G1 X-9.946 Y-.021 E3.13217
G1 X-9.752 Y-.956 E3.18035
G1 X-9.215 Y-1.745 E3.22854
G1 X-8.417 Y-2.268 E3.27673
G1 X-7.479 Y-2.446 E3.32491
G1 X-6.544 Y-2.252 E3.37309
G1 X-5.755 Y-1.715 E3.42128
G1 X-5.232 Y-.917 E3.46947
G1 X-5.054 Y.021 E3.51765
G1 X-5.248 Y.956 E3.56584
G1 X-5.785 Y1.745 E3.61402
G1 X-6.583 Y2.268 E3.66221
G1 X-7.521 Y2.446 E3.71039
G1 X-8.584 Y2.165 E3.76591
M204 S1000
G1 X-8.114 Y2.943 F10800
M204 S800
G1 F1362
G1 X-8.698 Y2.822 E3.796
G1 X-9.686 Y2.149 E3.85638
G1 X-10.342 Y1.148 E3.91675
G1 X-10.565 Y-.027 E3.97713
G1 X-10.322 Y-1.198 E4.0375
G1 X-9.649 Y-2.186 E4.09788
G1 X-8.648 Y-2.842 E4.15826
G1 X-7.473 Y-3.065 E4.21863
