; This file has been post-processed by C:\Users\melvi\git-repos\PrusaSlicer-FlashForge\flashforge_post_process.py
; Original File Location: C:\Users\melvi\AppData\Local\Temp\.3856.gcode.pp


; generated by PrusaSlicer 2.4.0+win64 on 2022-01-25 at 00:05:12 UTC

; 

; external perimeters extrusion width = 0.61mm
; perimeters extrusion width = 0.65mm
; infill extrusion width = 0.70mm
; solid infill extrusion width = 0.65mm
; top infill extrusion width = 0.60mm
; support material extrusion width = 0.55mm
; first layer extrusion width = 0.65mm

M107
;TYPE:Custom
; **** Start of Start GCode: FlashForge Creator 3 ****
M118 X150.00 Y125.00 Z200.00 T0 T1
; todo: need to post process Active extruders in m118

G90 ; absolute positioning
M108 T1 ; tool change
G1 X-187 Y0.000 F10800 ; Move initial extruder over anti-ooze plate (9-point Bed Levelling sometimes leaves it off plate)

; Set Filament Z-Offset
G1 Z0.000 F720 ;
G92 Z-0.0 ; Value substituted by FFPP script (FFPP-filament_extra_z_offset)(negative is printing higher in air)

M140 S60 T0 ; set bed temperature
M104 S250 T0 ; set right extruder temp
M104 S225 T1 ; set left extruder temp

M7 T0 ; wait for platform
M6 T0 ; wait for temp
M6 T1 ; wait for temp

M106 ; Extruder/Heat Break fan on
M651 S255 ; chassis fan on (after heating reached to speed up heating)

; Purge Filament (gets rid of any curling filament too)
G1 X-172 F10800 ; Move initial extruder off anti-ooze plate
G92 E0 ; reset extrusion distance 
G1 F150 E20 ; feed 20mm of feed stock 
G92 E0 ; reset extrusion distance


; M652 ; chassis fan off 
; M109 T1/2 only if dupe or mirror

;layer_count: 42 ; Value substituted by FFPP script (FFPP-calculated-total_layer_count)
; **** End of Start GCode: FlashForge Creator 3 ****
G21 ; set units to millimeters
G90 ; use absolute coordinates
M82 ; use absolute distances for extrusion
G92 E0
; **** Start of Tool Change GCode: FlashForge Creator 3 ****
M108 T1
; **** End of Tool Change GCode: FlashForge Creator 3 ****
G92 E0
; **** Start of Filament-Specific Start GCode:  PLA - Black (Hardened 0.6mm) ****
; FFPP-filament_extra_z_offset: 0.0 ; Value parsed by FFPP script
; **** End of Filament-Specific Start GCode: EconoFil PETG ****
M107
;LAYER_CHANGE
;Z:0.2
;HEIGHT:0.2
; **** Start of Before Layer Change GCode: FlashForge Creator 3 ****
; FFPP-layer_z_height: 0.2 ; Value parsed by FFPP script
;layer:0.200 ; Value substituted by FFPP script (FFPP-calculated-next_layer_height)
; **** End of Before Layer Change GCode: FlashForge Creator 3 ****
G1 Z.2 F720
; **** Start of After Layer Change GCode: FlashForge Creator 3 ****
; **** End of After Layer Change GCode: FlashForge Creator 3 ****
G1 E-2 F1800
G92 E0
G1 X10.042 Y-.002 F10800
G1 E2 F1800
M204 S800
;TYPE:Skirt/Brim
;WIDTH:0.65
G1 F1200
G1 X10.05 Y45.049 E4.2741
G1 X9.657 Y46.424 E4.3463
G1 X8.599 Y47.386 E4.4185
G1 X7.804 Y47.631 E4.46048
G1 X3.869 Y48.156 E4.66088
G1 X-4.23 Y48.131 E5.06969
G1 X-7.804 Y47.631 E5.25186
G1 X-9.112 Y47.052 E5.32406
G1 X-9.917 Y45.87 E5.39626
G1 X-10.05 Y45.049 E5.43823
G1 X-10.05 Y-22.485 E8.84728
G1 X-8.031 Y-44.224 E9.94936
G1 X-7.279 Y-45.825 E10.03866
G1 X-5.712 Y-47.392 E10.15053
G1 X-3.869 Y-48.156 E10.25125
G1 X3.869 Y-48.156 E10.64182
G1 X5.712 Y-47.392 E10.74255
G1 X7.279 Y-45.825 E10.85441
G1 X8.031 Y-44.224 E10.94371
G1 X10.038 Y-22.728 E12.03356
G1 X10.042 Y-.092 E13.17619
M204 S1000
; printing object shaft.STL id:0 copy 0
;WIPE_START
G1 F8640
G1 X10.044 Y9.508 E11.27619
;WIPE_END
G1 E11.17619 F1800
G92 E0
G1 X5.436 Y-43.982 F10800
G1 E2 F1800
M204 S800
;TYPE:Support material
G1 F1200
G1 X5.436 Y-22.485 E3.08513
G1 X7.443 Y-22.485 E3.18645
G1 X7.443 Y45.049 E6.59549
G1 X4.369 Y45.049 E6.75067
G1 X3.869 Y45.549 E6.78636
G1 X-3.869 Y45.549 E7.17693
G1 X-4.369 Y45.049 E7.21262
G1 X-7.443 Y45.049 E7.3678
G1 X-7.443 Y-22.485 E10.77684
G1 X-5.436 Y-22.485 E10.87816
G1 X-5.436 Y-43.982 E11.96329
G1 X-3.869 Y-45.549 E12.07515
G1 X3.869 Y-45.549 E12.46572
G1 X5.371 Y-44.046 E12.57299
M204 S1000
G1 X4.889 Y-43.111 F10800
M204 S800
G1 F1200
G1 X4.889 Y-43.756 E12.60553
G1 X3.642 Y-45.003 E12.69454
G1 X2.694 Y-45.003 E12.74241
G1 X4.889 Y-42.807 E12.89911
G1 X4.889 Y-41.854 E12.94726
G1 X1.74 Y-45.003 E13.17206
G1 X.786 Y-45.003 E13.22022
G1 X4.889 Y-40.9 E13.51312
G1 X4.889 Y-39.946 E13.56127
G1 X-.168 Y-45.003 E13.92227
G1 X-1.122 Y-45.003 E13.97042
G1 X4.889 Y-38.992 E14.39952
G1 X4.889 Y-38.038 E14.44768
G1 X-2.075 Y-45.003 E14.94487
G1 X-3.029 Y-45.003 E14.99303
G1 X4.889 Y-37.084 E15.55832
G1 X4.889 Y-36.13 E15.60648
G1 X-3.813 Y-44.832 E16.2277
G1 X-4.29 Y-44.355 E16.26175
G1 X4.889 Y-35.176 E16.91703
G1 X4.889 Y-34.222 E16.96518
G1 X-4.767 Y-43.878 E17.65451
G1 X-4.889 Y-43.756 E17.66325
G1 X-4.889 Y-43.047 E17.69904
G1 X4.889 Y-33.268 E18.39711
G1 X4.889 Y-32.314 E18.44526
G1 X-4.889 Y-42.093 E19.14333
G1 X-4.889 Y-41.139 E19.19148
G1 X4.889 Y-31.36 E19.88955
G1 X4.889 Y-30.406 E19.9377
G1 X-4.889 Y-40.185 E20.63577
G1 X-4.889 Y-39.231 E20.68393
G1 X4.889 Y-29.452 E21.38199
G1 X4.889 Y-28.498 E21.43015
G1 X-4.889 Y-38.277 E22.12822
G1 X-4.889 Y-37.323 E22.17637
G1 X4.889 Y-27.544 E22.87444
G1 X4.889 Y-26.591 E22.92259
G1 X-4.889 Y-36.369 E23.62066
G1 X-4.889 Y-35.415 E23.66881
G1 X4.889 Y-25.637 E24.36688
G1 X4.889 Y-24.683 E24.41504
G1 X-4.889 Y-34.461 E25.1131
G1 X-4.889 Y-33.507 E25.16126
G1 X4.889 Y-23.729 E25.85933
G1 X4.889 Y-22.775 E25.90748
G1 X-4.889 Y-32.553 E26.60555
G1 X-4.889 Y-31.599 E26.6537
G1 X6.896 Y-19.814 E27.49505
G1 X6.896 Y-18.86 E27.54321
G1 X-4.889 Y-30.645 E28.38456
G1 X-4.889 Y-29.692 E28.43271
G1 X6.896 Y-17.906 E29.27406
G1 X6.896 Y-16.952 E29.32221
G1 X-4.889 Y-28.738 E30.16356
G1 X-4.889 Y-27.784 E30.21172
G1 X6.896 Y-15.998 E31.05307
G1 X6.896 Y-15.044 E31.10122
G1 X-4.889 Y-26.83 E31.94257
G1 X-4.889 Y-25.876 E31.99072
G1 X6.896 Y-14.09 E32.83207
G1 X6.896 Y-13.136 E32.88023
G1 X-4.889 Y-24.922 E33.72158
G1 X-4.889 Y-23.968 E33.76973
G1 X6.896 Y-12.182 E34.61108
G1 X6.896 Y-11.228 E34.65924
G1 X-4.889 Y-23.014 E35.50059
G1 X-4.889 Y-22.06 E35.54874
G1 X6.896 Y-10.274 E36.39009
G1 X6.896 Y-9.321 E36.43824
G1 X-5.722 Y-21.939 E37.33903
G1 X-6.676 Y-21.939 E37.38719
G1 X6.896 Y-8.367 E38.35608
G1 X6.896 Y-7.413 E38.40423
G1 X-6.896 Y-21.205 E39.38886
G1 X-6.896 Y-20.251 E39.43702
G1 X6.896 Y-6.459 E40.42165
G1 X6.896 Y-5.505 E40.4698
G1 X-6.896 Y-19.298 E41.45443
G1 X-6.896 Y-18.344 E41.50259
G1 X6.896 Y-4.551 E42.48722
G1 X6.896 Y-3.597 E42.53537
G1 X-6.896 Y-17.39 E43.52
G1 X-6.896 Y-16.436 E43.56816
G1 X6.896 Y-2.643 E44.55279
G1 X6.896 Y-1.689 E44.60094
G1 X-6.896 Y-15.482 E45.58557
G1 X-6.896 Y-14.528 E45.63373
G1 X6.896 Y-.735 E46.61836
G1 X6.896 Y.219 E46.66651
G1 X-6.896 Y-13.574 E47.65114
G1 X-6.896 Y-12.62 E47.6993
G1 X6.896 Y1.173 E48.68393
G1 X6.896 Y2.127 E48.73208
G1 X-6.896 Y-11.666 E49.71671
G1 X-6.896 Y-10.712 E49.76487
G1 X6.896 Y3.081 E50.7495
G1 X6.896 Y4.035 E50.79765
G1 X-6.896 Y-9.758 E51.78228
G1 X-6.896 Y-8.804 E51.83044
G1 X6.896 Y4.988 E52.81507
G1 X6.896 Y5.942 E52.86322
G1 X-6.896 Y-7.85 E53.84785
G1 X-6.896 Y-6.896 E53.89601
G1 X6.896 Y6.896 E54.88064
G1 X6.896 Y7.85 E54.92879
G1 X-6.896 Y-5.942 E55.91342
G1 X-6.896 Y-4.988 E55.96158
G1 X6.896 Y8.804 E56.94621
G1 X6.896 Y9.758 E56.99436
G1 X-6.896 Y-4.035 E57.97899
G1 X-6.896 Y-3.081 E58.02715
G1 X6.896 Y10.712 E59.01178
G1 X6.896 Y11.666 E59.05993
G1 X-6.896 Y-2.127 E60.04456
G1 X-6.896 Y-1.173 E60.09272
G1 X6.896 Y12.62 E61.07735
G1 X6.896 Y13.574 E61.1255
G1 X-6.896 Y-.219 E62.11013
G1 X-6.896 Y.735 E62.15829
G1 X6.896 Y14.528 E63.14292
G1 X6.896 Y15.482 E63.19107
G1 X-6.896 Y1.689 E64.1757
G1 X-6.896 Y2.643 E64.22386
G1 X6.896 Y16.436 E65.20849
G1 X6.896 Y17.39 E65.25664
G1 X-6.896 Y3.597 E66.24127
G1 X-6.896 Y4.551 E66.28943
G1 X6.896 Y18.344 E67.27406
G1 X6.896 Y19.298 E67.32221
G1 X-6.896 Y5.505 E68.30685
G1 X-6.896 Y6.459 E68.355
G1 X6.896 Y20.251 E69.33963
G1 X6.896 Y21.205 E69.38778
G1 X-6.896 Y7.413 E70.37242
G1 X-6.896 Y8.367 E70.42057
G1 X6.896 Y22.159 E71.4052
G1 X6.896 Y23.113 E71.45335
G1 X-6.896 Y9.321 E72.43799
G1 X-6.896 Y10.274 E72.48614
G1 X6.896 Y24.067 E73.47077
G1 X6.896 Y25.021 E73.51892
G1 X-6.896 Y11.228 E74.50356
G1 X-6.896 Y12.182 E74.55171
G1 X6.896 Y25.975 E75.53634
G1 X6.896 Y26.929 E75.58449
G1 X-6.896 Y13.136 E76.56913
G1 X-6.896 Y14.09 E76.61728
G1 X6.896 Y27.883 E77.60191
G1 X6.896 Y28.837 E77.65006
G1 X-6.896 Y15.044 E78.6347
G1 X-6.896 Y15.998 E78.68285
G1 X6.896 Y29.791 E79.66748
G1 X6.896 Y30.745 E79.71563
G1 X-6.896 Y16.952 E80.70027
G1 X-6.896 Y17.906 E80.74842
G1 X6.896 Y31.699 E81.73305
G1 X6.896 Y32.653 E81.7812
G1 X-6.896 Y18.86 E82.76584
G1 X-6.896 Y19.814 E82.81399
G1 X6.896 Y33.607 E83.79862
G1 X6.896 Y34.56 E83.84677
G1 X-6.896 Y20.768 E84.83141
G1 X-6.896 Y21.722 E84.87956
G1 X6.896 Y35.514 E85.86419
G1 X6.896 Y36.468 E85.91235
G1 X-6.896 Y22.676 E86.89698
G1 X-6.896 Y23.63 E86.94513
G1 X6.896 Y37.422 E87.92976
G1 X6.896 Y38.376 E87.97792
G1 X-6.896 Y24.583 E88.96255
G1 X-6.896 Y25.537 E89.0107
G1 X6.896 Y39.33 E89.99533
G1 X6.896 Y40.284 E90.04349
G1 X-6.896 Y26.491 E91.02812
G1 X-6.896 Y27.445 E91.07627
G1 X6.896 Y41.238 E92.0609
G1 X6.896 Y42.192 E92.10906
G1 X-6.896 Y28.399 E93.09369
G1 X-6.896 Y29.353 E93.14184
G1 X6.896 Y43.146 E94.12647
G1 X6.896 Y44.1 E94.17463
G1 X-6.896 Y30.307 E95.15926
G1 X-6.896 Y31.261 E95.20741
G1 X6.345 Y44.503 E96.15269
G1 X5.391 Y44.503 E96.20085
G1 X-6.896 Y32.215 E97.07803
G1 X-6.896 Y33.169 E97.12619
G1 X4.437 Y44.503 E97.93527
G1 X4.142 Y44.503 E97.95016
G1 X3.813 Y44.832 E97.97368
G1 X-6.896 Y34.123 E98.73819
G1 X-6.896 Y35.077 E98.78634
G1 X3.029 Y45.003 E99.49492
G1 X2.075 Y45.003 E99.54308
G1 X-6.896 Y36.031 E100.18356
G1 X-6.896 Y36.985 E100.23171
G1 X1.122 Y45.003 E100.80409
G1 X.168 Y45.003 E100.85224
G1 X-6.896 Y37.939 E101.35653
G1 X-6.896 Y38.892 E101.40468
G1 X-.786 Y45.003 E101.84086
G1 X-1.74 Y45.003 E101.88902
G1 X-6.896 Y39.846 E102.2571
G1 X-6.896 Y40.8 E102.30525
G1 X-2.694 Y45.003 E102.60524
G1 X-3.642 Y45.003 E102.6531
G1 X-6.896 Y41.754 E102.88519
G1 X-6.896 Y42.708 E102.93335
G1 X-5.102 Y44.503 E103.06144
G1 X-6.056 Y44.503 E103.10959
G1 X-6.896 Y43.662 E103.16959
G1 X-6.896 Y44.503 E103.21201
G1 X-6.359 Y44.503 E103.23911
M204 S1000
;WIPE_START
G1 F8640
G1 X-6.896 Y44.503 E103.13286
G1 X-6.896 Y43.662 E102.96653
G1 X-6.056 Y44.503 E102.73131
G1 X-5.102 Y44.503 E102.54251
G1 X-6.896 Y42.708 E102.04028
G1 X-6.896 Y41.754 E101.85149
G1 X-5.064 Y43.583 E101.33911
;WIPE_END
G1 E101.23911 F1800
G92 E0
G1 X6.679 Y-21.939 F10800
G1 E2 F1800
M204 S800
G1 F1200
G1 X6.896 Y-21.722 E2.0155
G1 X6.896 Y-20.768 E2.06365
G1 X5.725 Y-21.939 E2.14725
M204 S1000
; stop printing object shaft.STL id:0 copy 0
M106 S84.15
;LAYER_CHANGE
;Z:0.65
;HEIGHT:0.45
; **** Start of Before Layer Change GCode: FlashForge Creator 3 ****
; FFPP-layer_z_height: 0.65 ; Value parsed by FFPP script
;layer:0.450 ; Value substituted by FFPP script (FFPP-calculated-next_layer_height)
; **** End of Before Layer Change GCode: FlashForge Creator 3 ****
G1 Z.65 F720
; **** Start of After Layer Change GCode: FlashForge Creator 3 ****
; **** End of After Layer Change GCode: FlashForge Creator 3 ****
M104 S245 T0 ; set temperature
M104 S220 T1 ; set temperature
G1 E.14725 F1800
G92 E0
G1 X10.039 Y-21.94 F10800
G1 E2 F1800
;TYPE:Skirt/Brim
G1 F3000
G1 X10.05 Y45.049 E8.93599
G1 X9.657 Y46.424 E9.08408
G1 X8.599 Y47.386 E9.23217
G1 X7.804 Y47.631 E9.31827
G1 X3.869 Y48.156 E9.72934
G1 X-4.23 Y48.131 E10.56786
G1 X-7.804 Y47.631 E10.94152
G1 X-9.112 Y47.052 E11.08961
G1 X-9.917 Y45.87 E11.2377
G1 X-10.05 Y45.049 E11.32381
G1 X-10.05 Y-22.485 E18.31629
G1 X-8.031 Y-44.224 E20.57684
G1 X-7.279 Y-45.825 E20.76001
G1 X-5.712 Y-47.392 E20.98946
G1 X-3.869 Y-48.156 E21.19606
G1 X3.869 Y-48.156 E21.99718
G1 X5.712 Y-47.392 E22.20378
G1 X7.279 Y-45.825 E22.43323
G1 X8.031 Y-44.224 E22.6164
G1 X10.039 Y-22.03 E24.92382
; printing object shaft.STL id:0 copy 0
;WIPE_START
G1 F8640
G1 X10.04 Y-12.43 E23.02382
;WIPE_END
G1 E22.92382 F1800
G92 E0
G1 X3.514 Y-17.803 F10800
G1 E2 F1800
;TYPE:Support material
;WIDTH:0.55
G1 F3000
G1 X3.514 Y-20.057 E2.19117
G1 X5.014 Y-20.057 E2.31842
G1 X5.014 Y-17.55 E2.5311
G1 X3.514 Y-17.55 E2.65834
G1 X3.514 Y-15.042 E2.87102
G1 X5.014 Y-15.042 E2.99827
G1 X5.014 Y-12.535 E3.21095
G1 X3.514 Y-12.535 E3.3382
G1 X3.514 Y-10.028 E3.55087
G1 X5.014 Y-10.028 E3.67812
G1 X5.014 Y-7.521 E3.8908
G1 X3.514 Y-7.521 E4.01805
G1 X3.514 Y-5.014 E4.23073
G1 X5.014 Y-5.014 E4.35797
G1 X5.014 Y-2.507 E4.57065
G1 X3.514 Y-2.507 E4.6979
G1 X3.514 Y0 E4.91058
G1 X5.014 Y0 E5.03782
G1 X5.014 Y2.507 E5.2505
G1 X3.514 Y2.507 E5.37775
G1 X3.514 Y5.014 E5.59043
G1 X5.014 Y5.014 E5.71768
G1 X5.014 Y7.521 E5.93036
G1 X3.514 Y7.521 E6.0576
G1 X3.514 Y10.028 E6.27028
G1 X5.014 Y10.028 E6.39753
G1 X5.014 Y12.535 E6.61021
G1 X3.514 Y12.535 E6.73745
G1 X3.514 Y15.042 E6.95013
G1 X5.014 Y15.042 E7.07738
G1 X5.014 Y17.55 E7.29006
G1 X3.514 Y17.55 E7.41731
G1 X3.514 Y20.057 E7.62998
G1 X5.014 Y20.057 E7.75723
G1 X5.014 Y22.564 E7.96991
G1 X3.514 Y22.564 E8.09716
G1 X3.514 Y25.071 E8.30984
G1 X5.014 Y25.071 E8.43708
G1 X5.014 Y27.578 E8.64976
G1 X3.514 Y27.578 E8.77701
G1 X3.514 Y30.085 E8.98969
G1 X5.014 Y30.085 E9.11694
G1 X5.014 Y32.592 E9.32961
G1 X3.514 Y32.592 E9.45686
G1 X3.514 Y35.099 E9.66954
G1 X5.014 Y35.099 E9.79679
G1 X5.014 Y37.606 E10.00947
G1 X3.514 Y37.606 E10.13671
G1 X3.514 Y40.113 E10.34939
G1 X5.014 Y40.113 E10.47664
G1 X5.014 Y42.62 E10.68932
G1 X3.514 Y42.62 E10.81656
G1 X2.675 Y43.12 F10800
;TYPE:Support material interface
G1 F2400
G1 X3.007 Y42.976 E10.8473
G1 X3.007 Y-42.976 E18.13872
G1 X2.863 Y-43.12 E18.15604
G1 X2.421 Y-43.12 E18.19349
G1 X2.421 Y43.12 E25.5094
G1 X1.614 Y43.12 E25.57786
G1 X1.614 Y-43.12 E32.89377
G1 X.807 Y-43.12 E32.96224
G1 X.807 Y43.12 E40.27815
G1 X0 Y43.12 E40.34661
G1 X0 Y-43.12 E47.66252
G1 X-.807 Y-43.12 E47.73099
G1 X-.807 Y43.12 E55.0469
G1 X-1.614 Y43.12 E55.11536
G1 X-1.614 Y-43.12 E62.43127
G1 X-2.421 Y-43.12 E62.49974
G1 X-2.421 Y43.12 E69.81565
G1 X-2.863 Y43.12 E69.8531
G1 X-3.007 Y42.976 E69.87042
G1 X-3.007 Y-42.976 E77.16184
G1 X-2.675 Y-43.12 E77.19257
;WIPE_START
G1 F8640
G1 X-3.007 Y-42.976 E77.12086
G1 X-3.007 Y-33.738 E75.29257
;WIPE_END
G1 E75.19257 F1800
G92 E0
G1 X-5.014 Y-17.803 F10800
G1 E2 F1800
;TYPE:Support material
G1 F3000
G1 X-5.014 Y-20.057 E2.19117
G1 X-3.514 Y-20.057 E2.31842
G1 X-3.514 Y-17.55 E2.5311
G1 X-5.014 Y-17.55 E2.65834
G1 X-5.014 Y-15.042 E2.87102
G1 X-3.514 Y-15.042 E2.99827
G1 X-3.514 Y-12.535 E3.21095
G1 X-5.014 Y-12.535 E3.33819
G1 X-5.014 Y-10.028 E3.55087
G1 X-3.514 Y-10.028 E3.67812
G1 X-3.514 Y-7.521 E3.8908
G1 X-5.014 Y-7.521 E4.01805
G1 X-5.014 Y-5.014 E4.23072
G1 X-3.514 Y-5.014 E4.35797
G1 X-3.514 Y-2.507 E4.57065
G1 X-5.014 Y-2.507 E4.6979
G1 X-5.014 Y0 E4.91058
G1 X-3.514 Y0 E5.03782
G1 X-3.514 Y2.507 E5.2505
G1 X-5.014 Y2.507 E5.37775
G1 X-5.014 Y5.014 E5.59043
G1 X-3.514 Y5.014 E5.71767
G1 X-3.514 Y7.521 E5.93035
G1 X-5.014 Y7.521 E6.0576
G1 X-5.014 Y10.028 E6.27028
G1 X-3.514 Y10.028 E6.39753
G1 X-3.514 Y12.535 E6.6102
G1 X-5.014 Y12.535 E6.73745
G1 X-5.014 Y15.042 E6.95013
G1 X-3.514 Y15.042 E7.07738
G1 X-3.514 Y17.55 E7.29005
G1 X-5.014 Y17.55 E7.4173
G1 X-5.014 Y20.057 E7.62998
G1 X-3.514 Y20.057 E7.75723
G1 X-3.514 Y22.564 E7.96991
G1 X-5.014 Y22.564 E8.09715
G1 X-5.014 Y25.071 E8.30983
G1 X-3.514 Y25.071 E8.43708
G1 X-3.514 Y27.578 E8.64976
G1 X-5.014 Y27.578 E8.777
G1 X-5.014 Y30.085 E8.98968
G1 X-3.514 Y30.085 E9.11693
G1 X-3.514 Y32.592 E9.32961
G1 X-5.014 Y32.592 E9.45686
G1 X-5.014 Y35.099 E9.66953
G1 X-3.514 Y35.099 E9.79678
G1 X-3.514 Y37.606 E10.00946
G1 X-5.014 Y37.606 E10.13671
G1 X-5.014 Y40.113 E10.34939
G1 X-3.514 Y40.113 E10.47663
G1 X-3.514 Y42.62 E10.68931
G1 X-5.014 Y42.62 E10.81656
; stop printing object shaft.STL id:0 copy 0
M106 S170.85
;LAYER_CHANGE
;Z:0.955625
;HEIGHT:0.305625
; **** Start of Before Layer Change GCode: FlashForge Creator 3 ****
; FFPP-layer_z_height: 0.955625 ; Value parsed by FFPP script
