; generated by PrusaSlicer 2.4.0+win64 on 2022-01-21 at 21:50:36 UTC

; 

; external perimeters extrusion width = 0.61mm
; perimeters extrusion width = 0.65mm
; infill extrusion width = 0.70mm
; solid infill extrusion width = 0.65mm
; top infill extrusion width = 0.60mm
; first layer extrusion width = 0.65mm

M107
;TYPE:Custom
; **** Start of Start GCode: FlashForge Creator 3 ****
M118 X150.00 Y125.00 Z200.00 T0 T1
; todo: need to post process Active extruders in m118

G90 ; absolute positioning
M108 T0 ; tool change
G1 X187 Y0.000 F10800 ; Move initial extruder over anti-ooze plate (9-point Bed Levelling sometimes leaves it off plate)

; Set Filament Z-Offset
G1 Z0.000 F720 ;
;FFPP-UNCOMMENT; G92 Z-<FFPP-filament_extra_z_offset> ; Value substituted by FFPP script (FFPP-filament_extra_z_offset)(negative is printing higher in air)

M140 S85 T0 ; set bed temperature
M104 S250 T0 ; set right extruder temp
M104 S0 T1 ; set left extruder temp

M7 T0 ; wait for platform
M6 T0 ; wait for temp
M6 T1 ; wait for temp

M106 ; Extruder/Heat Break fan on
M651 S255 ; chassis fan on (after heating reached to speed up heating)

; Purge Filament (gets rid of any curling filament too)
G1 X172 F10800 ; Move initial extruder off anti-ooze plate
G92 E0 ; reset extrusion distance 
G1 F150 E20 ; feed 20mm of feed stock 
G92 E0 ; reset extrusion distance


; M652 ; chassis fan off 
; M109 T1/2 only if dupe or mirror

;layer_count: <FFPP-calculated-total_layer_count> ; Value substituted by FFPP script (FFPP-calculated-total_layer_count)
; **** End of Start GCode: FlashForge Creator 3 ****
G21 ; set units to millimeters
G90 ; use absolute coordinates
M82 ; use absolute distances for extrusion
G92 E0
; **** Start of Filament-Specific Start GCode: Filaments.ca PETG Filament - Transparent (Hardened 0.6mm) ****
; FFPP-filament_extra_z_offset: 0.06 ; Value parsed by FFPP script
; **** End of Filament-Specific Start GCode: EconoFil PETG ****
M107
;LAYER_CHANGE
;Z:0.2
;HEIGHT:0.2
; **** Start of Before Layer Change GCode: FlashForge Creator 3 ****
; FFPP-layer_z_height: 0.2 ; Value parsed by FFPP script
;layer:<FFPP-calculated-next_layer_height> ; Value substituted by FFPP script (FFPP-calculated-next_layer_height)
; **** End of Before Layer Change GCode: FlashForge Creator 3 ****
G1 Z.2 F720
; **** Start of After Layer Change GCode: FlashForge Creator 3 ****
; **** End of After Layer Change GCode: FlashForge Creator 3 ****
G1 E-3 F1800
G92 E0
G1 X6.833 Y2.121 F10800
G1 E3 F1800
M204 S800
;TYPE:Skirt/Brim
;WIDTH:0.65
G1 F900
G1 X5.952 Y4.032 E3.10617
G1 X5.049 Y5.118 E3.17749
G1 X3.956 Y6.003 E3.24847
G1 X2.706 Y6.66 E3.31976
G1 X1.358 Y7.06 E3.39073
G1 X-.049 Y7.189 E3.46205
G1 X-1.447 Y7.042 E3.53303
G1 X-2.796 Y6.623 E3.60433
G1 X-4.032 Y5.952 E3.67531
G1 X-5.118 Y5.049 E3.74662
G1 X-6.003 Y3.956 E3.81759
G1 X-6.66 Y2.706 E3.8889
G1 X-7.06 Y1.358 E3.95986
G1 X-7.189 Y-.048 E4.03117
G1 X-7.042 Y-1.447 E4.10216
G1 X-6.623 Y-2.796 E4.17346
G1 X-5.952 Y-4.032 E4.24443
G1 X-5.049 Y-5.118 E4.31574
G1 X-3.956 Y-6.003 E4.38672
G1 X-2.706 Y-6.66 E4.45802
G1 X-1.358 Y-7.06 E4.52899
G1 X.048 Y-7.189 E4.60029
G1 X1.447 Y-7.042 E4.67126
G1 X2.796 Y-6.623 E4.74258
G1 X4.032 Y-5.952 E4.81356
G1 X5.118 Y-5.049 E4.88487
G1 X6.002 Y-3.957 E4.95583
G1 X6.66 Y-2.706 E5.02714
G1 X7.06 Y-1.358 E5.09812
G1 X7.189 Y.049 E5.16943
G1 X6.859 Y2.035 E5.27109
M204 S1000
G1 X6.282 Y1.856 F10800
M204 S800
G1 F900
G1 X5.451 Y3.69 E5.37273
G1 X4.622 Y4.687 E5.43817
G1 X3.623 Y5.495 E5.50301
G1 X2.476 Y6.098 E5.56843
G1 X1.245 Y6.463 E5.63326
G1 X-.046 Y6.582 E5.6987
G1 X-1.323 Y6.448 E5.76354
G1 X-2.561 Y6.063 E5.82897
G1 X-3.69 Y5.45 E5.89381
G1 X-4.687 Y4.621 E5.95924
G1 X-5.495 Y3.623 E6.02407
G1 X-6.098 Y2.476 E6.0895
G1 X-6.463 Y1.245 E6.15432
G1 X-6.582 Y-.046 E6.21976
G1 X-6.448 Y-1.323 E6.28461
G1 X-6.063 Y-2.561 E6.35003
G1 X-5.45 Y-3.69 E6.41487
G1 X-4.622 Y-4.687 E6.48031
G1 X-3.623 Y-5.495 E6.54514
G1 X-2.476 Y-6.098 E6.61057
G1 X-1.245 Y-6.463 E6.6754
G1 X.046 Y-6.582 E6.74083
G1 X1.323 Y-6.448 E6.80565
G1 X2.561 Y-6.063 E6.8711
G1 X3.69 Y-5.451 E6.93593
G1 X4.687 Y-4.622 E7.00137
G1 X5.495 Y-3.624 E7.06619
G1 X6.098 Y-2.476 E7.13163
G1 X6.463 Y-1.245 E7.19646
G1 X6.582 Y.046 E7.2619
G1 X6.309 Y1.77 E7.35003
M204 S1000
; printing object shaft.STL id:0 copy 0
;WIPE_START
G1 F8640
G1 X5.451 Y3.69 E6.93384
G1 X4.622 Y4.687 E6.67726
G1 X3.623 Y5.495 E6.42304
G1 X2.476 Y6.098 E6.16655
G1 X1.245 Y6.463 E5.91236
G1 X-.046 Y6.582 E5.65576
G1 X-1.323 Y6.448 E5.40155
G1 X-2.561 Y6.063 E5.14503
G1 X-3.69 Y5.45 E4.8908
G1 X-4.687 Y4.621 E4.63424
G1 X-5.113 Y4.094 E4.50003
;WIPE_END
G1 E4.35003 F1800
G92 E0
G1 X-.614 Y2.902 F10800
G1 E3 F1800
M204 S800
;TYPE:Perimeter
G1 F900
G1 X-1.182 Y2.784 E3.02929
G1 X-2.157 Y2.12 E3.08886
G1 X-2.804 Y1.133 E3.14843
G1 X-3.025 Y-.026 E3.20801
G1 X-2.784 Y-1.182 E3.26758
G1 X-2.12 Y-2.157 E3.32715
G1 X-1.133 Y-2.804 E3.38672
G1 X.026 Y-3.025 E3.4463
G1 X1.182 Y-2.784 E3.50587
G1 X2.157 Y-2.12 E3.56545
G1 X2.804 Y-1.133 E3.62502
G1 X3.025 Y.026 E3.68459
G1 X2.784 Y1.182 E3.74417
G1 X2.12 Y2.157 E3.80374
G1 X1.133 Y2.804 E3.86331
G1 X-.026 Y3.025 E3.92289
G1 X-.526 Y2.921 E3.94863
M204 S1000
G1 X-.032 Y3.643 F10800
M204 S800
;TYPE:External perimeter
G1 F900
G1 X-1.424 Y3.354 E4.0204
G1 X-2.599 Y2.554 E4.09216
G1 X-3.378 Y1.365 E4.16392
G1 X-3.643 Y-.032 E4.23569
G1 X-3.354 Y-1.424 E4.30745
G1 X-2.554 Y-2.599 E4.37922
G1 X-1.365 Y-3.378 E4.45098
G1 X.032 Y-3.643 E4.52275
G1 X1.424 Y-3.354 E4.59451
G1 X2.599 Y-2.554 E4.66628
G1 X3.378 Y-1.365 E4.73804
G1 X3.643 Y.032 E4.80981
G1 X3.354 Y1.424 E4.88157
G1 X2.554 Y2.599 E4.95334
G1 X1.365 Y3.378 E5.0251
G1 X.057 Y3.627 E5.09232
M204 S1000
G1 X-.327 Y3.121 F10800
;WIPE_START
G1 F8640
G1 X-1.424 Y3.354 E4.79441
G1 X-2.599 Y2.554 E4.51303
G1 X-3.378 Y1.365 E4.23167
G1 X-3.643 Y-.032 E3.95029
G1 X-3.354 Y-1.424 E3.66892
G1 X-2.554 Y-2.599 E3.38754
G1 X-1.365 Y-3.378 E3.10618
G1 X.032 Y-3.643 E2.8248
G1 X1.424 Y-3.354 E2.54343
G1 X2.599 Y-2.554 E2.26205
G1 X2.653 Y-2.47 E2.24232
;WIPE_END
G1 E2.09232 F1800
G92 E0
G1 X.964 Y-2.644 F10800
G1 E3 F1800
M204 S800
;TYPE:Solid infill
;WIDTH:0.680657
G1 F900
G1 X1.852 Y-1.756 E3.06657
G1 X2.374 Y-.959 E3.11708
G1 X2.521 Y-.185 E3.1589
G1 X.178 Y-2.528 E3.33464
G1 X-.632 Y-2.436 E3.37786
G1 X2.434 Y.63 E3.60781
G1 X2.357 Y1 E3.62786
G1 X2.173 Y1.271 E3.64522
G1 X-1.269 Y-2.171 E3.90332
G1 X-1.807 Y-1.807 E3.93777
G1 X1.807 Y1.807 E4.20886
G1 X1.269 Y2.171 E4.24331
G1 X-2.173 Y-1.271 E4.50142
G1 X-2.434 Y-.63 E4.53811
G1 X.632 Y2.436 E4.76805
G1 X-.178 Y2.528 E4.81127
G1 X-2.521 Y.185 E4.98701
G1 X-2.374 Y.959 E5.02881
G1 X-1.851 Y1.756 E5.07935
G1 X-.964 Y2.643 E5.14588
M204 S1000
; stop printing object shaft.STL id:0 copy 0
;LAYER_CHANGE
;Z:0.4
;HEIGHT:0.2
; **** Start of Before Layer Change GCode: FlashForge Creator 3 ****
; FFPP-layer_z_height: 0.4 ; Value parsed by FFPP script
;layer:<FFPP-calculated-next_layer_height> ; Value substituted by FFPP script (FFPP-calculated-next_layer_height)
; **** End of Before Layer Change GCode: FlashForge Creator 3 ****
G1 Z.4 F720
; **** Start of After Layer Change GCode: FlashForge Creator 3 ****
; **** End of After Layer Change GCode: FlashForge Creator 3 ****
M104 S245 ; set temperature
M140 S90 ; set bed temperature
G1 E2.14588 F1800
G92 E0
G1 X-2.252 Y6.792 F10800
G1 E3 F1800
;TYPE:Skirt/Brim
;WIDTH:0.65
G1 F900
G1 X-4.032 Y5.952 E3.09933
G1 X-5.118 Y5.049 E3.17064
G1 X-6.003 Y3.956 E3.2416
G1 X-6.66 Y2.706 E3.31291
G1 X-7.06 Y1.358 E3.38387
G1 X-7.189 Y-.048 E3.45518
G1 X-7.042 Y-1.447 E3.52617
G1 X-6.623 Y-2.796 E3.59747
G1 X-5.952 Y-4.032 E3.66845
G1 X-5.049 Y-5.118 E3.73976
G1 X-3.956 Y-6.003 E3.81073
G1 X-2.706 Y-6.66 E3.88204
G1 X-1.358 Y-7.06 E3.953
G1 X.048 Y-7.189 E4.02431
G1 X1.447 Y-7.042 E4.09527
G1 X2.796 Y-6.623 E4.16659
G1 X4.032 Y-5.952 E4.23757
G1 X5.118 Y-5.049 E4.30889
G1 X6.002 Y-3.957 E4.37984
G1 X6.66 Y-2.706 E4.45115
G1 X7.06 Y-1.358 E4.52213
G1 X7.189 Y.049 E4.59345
G1 X7.042 Y1.447 E4.6644
G1 X6.623 Y2.796 E4.73573
G1 X5.952 Y4.032 E4.80669
G1 X5.049 Y5.118 E4.87801
G1 X3.956 Y6.003 E4.94899
G1 X2.706 Y6.66 E5.02028
G1 X1.358 Y7.06 E5.09125
G1 X-.049 Y7.189 E5.16257
G1 X-2.166 Y6.819 E5.27109
G1 X-1.987 Y6.242 F10800
G1 F900
G1 X-3.69 Y5.45 E5.36588
G1 X-4.687 Y4.621 E5.43132
G1 X-5.495 Y3.623 E5.49614
G1 X-6.098 Y2.476 E5.56158
G1 X-6.463 Y1.245 E5.6264
G1 X-6.582 Y-.046 E5.69183
G1 X-6.448 Y-1.323 E5.75668
G1 X-6.063 Y-2.561 E5.82211
G1 X-5.45 Y-3.69 E5.88694
G1 X-4.622 Y-4.687 E5.95238
G1 X-3.623 Y-5.495 E6.01721
G1 X-2.476 Y-6.098 E6.08264
G1 X-1.245 Y-6.463 E6.14747
G1 X.046 Y-6.582 E6.2129
G1 X1.323 Y-6.448 E6.27772
G1 X2.561 Y-6.063 E6.34317
G1 X3.69 Y-5.451 E6.408
G1 X4.687 Y-4.622 E6.47345
G1 X5.495 Y-3.624 E6.53826
G1 X6.098 Y-2.476 E6.6037
G1 X6.463 Y-1.245 E6.66854
G1 X6.582 Y.046 E6.73398
G1 X6.448 Y1.323 E6.79879
G1 X6.063 Y2.561 E6.86424
G1 X5.451 Y3.69 E6.92907
G1 X4.622 Y4.687 E6.99451
G1 X3.623 Y5.495 E7.05935
G1 X2.476 Y6.098 E7.12477
G1 X1.245 Y6.463 E7.1896
G1 X-.046 Y6.582 E7.25504
G1 X-1.901 Y6.268 E7.35002
; printing object shaft.STL id:0 copy 0
;WIPE_START
G1 F8640
G1 X-3.69 Y5.45 E6.96072
G1 X-4.687 Y4.621 E6.70416
G1 X-5.495 Y3.623 E6.44998
G1 X-6.098 Y2.476 E6.19344
G1 X-6.463 Y1.245 E5.93929
G1 X-6.582 Y-.046 E5.68273
G1 X-6.448 Y-1.323 E5.42848
G1 X-6.063 Y-2.561 E5.17195
G1 X-5.45 Y-3.69 E4.91775
G1 X-4.622 Y-4.687 E4.66119
G1 X-3.989 Y-5.199 E4.50002
;WIPE_END
G1 E4.35002 F1800
G92 E0
G1 X-.614 Y2.943 F10800
G1 E3 F1800
M204 S800
;TYPE:Perimeter
G1 F900
G1 X-1.198 Y2.822 E3.03009
G1 X-2.186 Y2.149 E3.09047
G1 X-2.842 Y1.148 E3.15085
G1 X-3.065 Y-.027 E3.21122
G1 X-2.822 Y-1.198 E3.2716
G1 X-2.149 Y-2.186 E3.33197
G1 X-1.148 Y-2.842 E3.39235
G1 X.027 Y-3.065 E3.45273
G1 X1.198 Y-2.822 E3.5131
G1 X2.186 Y-2.149 E3.57348
G1 X2.842 Y-1.148 E3.63386
G1 X3.065 Y.027 E3.69423
G1 X2.822 Y1.198 E3.75461
G1 X2.149 Y2.186 E3.81498
G1 X1.148 Y2.842 E3.87536
G1 X-.027 Y3.065 E3.93574
G1 X-.526 Y2.961 E3.96148
M204 S1000
G1 X-.032 Y3.664 F10800
M204 S800
;TYPE:External perimeter
;WIDTH:0.61
G1 F900
G1 X-1.432 Y3.373 E4.02889
G1 X-2.613 Y2.568 E4.09631
G1 X-3.397 Y1.373 E4.16372
G1 X-3.664 Y-.032 E4.23113
G1 X-3.373 Y-1.432 E4.29854
G1 X-2.568 Y-2.613 E4.36595
G1 X-1.373 Y-3.397 E4.43336
G1 X.032 Y-3.664 E4.50077
G1 X1.432 Y-3.373 E4.56818
G1 X2.613 Y-2.568 E4.63559
G1 X3.397 Y-1.373 E4.70301
G1 X3.664 Y.032 E4.77042
G1 X3.373 Y1.432 E4.83783
G1 X2.568 Y2.613 E4.90524
G1 X1.373 Y3.397 E4.97265
G1 X.057 Y3.647 E5.03582
M204 S1000
G1 X-.327 Y3.142 F10800
;WIPE_START
G1 F8640
G1 X-1.432 Y3.373 E4.73634
G1 X-2.613 Y2.568 E4.45337
G1 X-3.397 Y1.373 E4.17042
G1 X-3.664 Y-.032 E3.88749
G1 X-3.373 Y-1.432 E3.60455
G1 X-2.568 Y-2.613 E3.32161
G1 X-1.373 Y-3.397 E3.03864
G1 X.032 Y-3.664 E2.7557
G1 X1.432 Y-3.373 E2.47276
G1 X2.613 Y-2.568 E2.18981
G1 X2.624 Y-2.551 E2.18582
;WIPE_END
G1 E2.03582 F1800
G92 E0
G1 X2.682 Y.977 F10800
G1 E3 F1800
;TYPE:Solid infill
;WIDTH:0.689717
G1 F900
G1 X1.766 Y1.893 E3.06965
G1 X.974 Y2.412 E3.12055
G1 X.182 Y2.562 E3.16394
G1 X2.57 Y.175 E3.34555
G1 X2.474 Y-.645 E3.38993
G1 X-.643 Y2.472 E3.62701
G1 X-1.016 Y2.394 E3.64753
G1 X-1.292 Y2.207 E3.66547
G1 X2.205 Y-1.29 E3.93144
G1 X1.836 Y-1.836 E3.96687
G1 X-1.836 Y1.836 E4.24619
G1 X-2.205 Y1.29 E4.28163
G1 X1.292 Y-2.207 E4.54759
G1 X.643 Y-2.472 E4.58532
G1 X-2.474 Y.645 E4.82239
G1 X-2.569 Y-.175 E4.86677
G1 X-.182 Y-2.562 E5.04836
G1 X-.974 Y-2.412 E5.09175
G1 X-1.766 Y-1.893 E5.14267
G1 X-2.682 Y-.977 E5.21229
; stop printing object shaft.STL id:0 copy 0
;LAYER_CHANGE
;Z:0.6
;HEIGHT:0.2
; **** Start of Before Layer Change GCode: FlashForge Creator 3 ****
; FFPP-layer_z_height: 0.6 ; Value parsed by FFPP script
;layer:<FFPP-calculated-next_layer_height> ; Value substituted by FFPP script (FFPP-calculated-next_layer_height)
; **** End of Before Layer Change GCode: FlashForge Creator 3 ****
G1 Z.6 F720
; **** Start of After Layer Change GCode: FlashForge Creator 3 ****
; **** End of After Layer Change GCode: FlashForge Creator 3 ****
G1 E2.21229 F1800
G92 E0
G1 X-6.792 Y-2.253 F10800
G1 E3 F1800
;TYPE:Skirt/Brim
;WIDTH:0.65
G1 F900
G1 X-5.952 Y-4.032 E3.09926
G1 X-5.049 Y-5.118 E3.17057
G1 X-3.956 Y-6.003 E3.24154
G1 X-2.706 Y-6.66 E3.31285
G1 X-1.358 Y-7.06 E3.38382
G1 X.048 Y-7.189 E3.45512
G1 X1.447 Y-7.042 E3.52608
G1 X2.796 Y-6.623 E3.5974
G1 X4.032 Y-5.952 E3.66838
G1 X5.118 Y-5.049 E3.7397
G1 X6.002 Y-3.957 E3.81065
G1 X6.66 Y-2.706 E3.88197
G1 X7.06 Y-1.358 E3.95294
G1 X7.189 Y.049 E4.02426
G1 X7.042 Y1.447 E4.09521
G1 X6.623 Y2.796 E4.16654
G1 X5.952 Y4.032 E4.23751
G1 X5.049 Y5.118 E4.30882
G1 X3.956 Y6.003 E4.3798
G1 X2.706 Y6.66 E4.45109
G1 X1.358 Y7.06 E4.52206
G1 X-.049 Y7.189 E4.59338
G1 X-1.447 Y7.042 E4.66436
G1 X-2.796 Y6.623 E4.73566
G1 X-4.032 Y5.952 E4.80664
G1 X-5.118 Y5.049 E4.87796
G1 X-6.003 Y3.956 E4.94892
G1 X-6.66 Y2.706 E5.02023
G1 X-7.06 Y1.358 E5.09119
G1 X-7.189 Y-.048 E5.1625
G1 X-6.818 Y-2.167 E5.27109
G1 X-6.241 Y-1.988 F10800
G1 F900
G1 X-5.45 Y-3.69 E5.36581
G1 X-4.622 Y-4.687 E5.43125
G1 X-3.623 Y-5.495 E5.49608
G1 X-2.476 Y-6.098 E5.56151
G1 X-1.245 Y-6.463 E5.62634
G1 X.046 Y-6.582 E5.69177
G1 X1.323 Y-6.448 E5.75659
G1 X2.561 Y-6.063 E5.82204
G1 X3.69 Y-5.451 E5.88688
G1 X4.687 Y-4.622 E5.95232
G1 X5.495 Y-3.624 E6.01714
G1 X6.098 Y-2.476 E6.08257
G1 X6.463 Y-1.245 E6.14741
G1 X6.582 Y.046 E6.21285
G1 X6.448 Y1.323 E6.27766
G1 X6.063 Y2.561 E6.34311
G1 X5.451 Y3.69 E6.40794
G1 X4.622 Y4.687 E6.47338
G1 X3.623 Y5.495 E6.53822
G1 X2.476 Y6.098 E6.60364
G1 X1.245 Y6.463 E6.66847
G1 X-.046 Y6.582 E6.73392
G1 X-1.323 Y6.448 E6.79875
G1 X-2.561 Y6.063 E6.86418
G1 X-3.69 Y5.45 E6.92902
G1 X-4.687 Y4.621 E6.99446
G1 X-5.495 Y3.623 E7.05928
G1 X-6.098 Y2.476 E7.12472
G1 X-6.463 Y1.245 E7.18954
G1 X-6.582 Y-.046 E7.25497
G1 X-6.268 Y-1.902 E7.35002
; printing object shaft.STL id:0 copy 0
;WIPE_START
G1 F8640
G1 X-5.45 Y-3.69 E6.96098
G1 X-4.622 Y-4.687 E6.70442
G1 X-3.623 Y-5.495 E6.45022
G1 X-2.476 Y-6.098 E6.19368
G1 X-1.245 Y-6.463 E5.9395
G1 X.046 Y-6.582 E5.68297
G1 X1.323 Y-6.448 E5.42881
G1 X2.561 Y-6.063 E5.17221
G1 X3.69 Y-5.451 E4.918
G1 X4.687 Y-4.622 E4.66142
G1 X5.2 Y-3.988 E4.50002
;WIPE_END
G1 E4.35002 F1800
G92 E0
G1 X-.614 Y2.943 F10800
G1 E3 F1800
M204 S800
;TYPE:Perimeter
G1 F900
G1 X-1.198 Y2.822 E3.03009
G1 X-2.186 Y2.149 E3.09047
G1 X-2.842 Y1.148 E3.15084
G1 X-3.065 Y-.027 E3.21121
G1 X-2.822 Y-1.198 E3.27159
G1 X-2.149 Y-2.186 E3.33197
G1 X-1.148 Y-2.842 E3.39235
G1 X.027 Y-3.065 E3.45272
G1 X1.198 Y-2.822 E3.5131
G1 X2.186 Y-2.149 E3.57348
G1 X2.842 Y-1.148 E3.63385
G1 X3.065 Y.027 E3.69423
G1 X2.822 Y1.198 E3.75461
G1 X2.149 Y2.186 E3.81499
G1 X1.148 Y2.842 E3.87536
G1 X-.027 Y3.065 E3.93574
G1 X-.526 Y2.961 E3.96148
M204 S1000
G1 X-.032 Y3.664 F10800
M204 S800
;TYPE:External perimeter
;WIDTH:0.61
G1 F900
G1 X-1.432 Y3.373 E4.02889
G1 X-2.613 Y2.568 E4.09631
G1 X-3.397 Y1.373 E4.16371
G1 X-3.664 Y-.032 E4.23112
G1 X-3.373 Y-1.432 E4.29854
G1 X-2.568 Y-2.613 E4.36595
G1 X-1.373 Y-3.397 E4.43336
G1 X.032 Y-3.664 E4.50076
G1 X1.432 Y-3.373 E4.56818
G1 X2.613 Y-2.568 E4.6356
G1 X3.397 Y-1.373 E4.703
G1 X3.664 Y.032 E4.77042
G1 X3.373 Y1.432 E4.83783
G1 X2.568 Y2.613 E4.90524
G1 X1.373 Y3.397 E4.97265
G1 X.056 Y3.647 E5.03582
M204 S1000
G1 X-.327 Y3.142 F10800
;WIPE_START
G1 F8640
G1 X-1.432 Y3.373 E4.73634
G1 X-2.613 Y2.568 E4.45338
G1 X-3.397 Y1.373 E4.17045
G1 X-3.664 Y-.032 E3.88754
G1 X-3.373 Y-1.432 E3.60455
G1 X-2.568 Y-2.613 E3.3216
G1 X-1.373 Y-3.397 E3.03866
G1 X.032 Y-3.664 E2.75575
G1 X1.432 Y-3.373 E2.47276
G1 X2.613 Y-2.568 E2.18979
G1 X2.624 Y-2.551 E2.18582
;WIPE_END
G1 E2.03582 F1800
G92 E0
G1 X.977 Y-2.682 F10800
G1 E3 F1800
;TYPE:Solid infill
;WIDTH:0.689717
G1 F900
G1 X1.893 Y-1.766 E3.06966
G1 X2.412 Y-.974 E3.12055
G1 X2.562 Y-.182 E3.16394
G1 X.175 Y-2.569 E3.34555
G1 X-.645 Y-2.474 E3.38992
G1 X2.472 Y.643 E3.62701
G1 X2.394 Y1.016 E3.64753
G1 X2.207 Y1.292 E3.66547
G1 X-1.29 Y-2.205 E3.93143
G1 X-1.836 Y-1.836 E3.96687
G1 X1.836 Y1.836 E4.24619
G1 X1.29 Y2.205 E4.28162
